<?xml version="1.0" encoding="UTF-8"?>
<map version="1.10" tiledversion="1.11.1" orientation="orthogonal" renderorder="right-down" width="30" height="20" tilewidth="16" tileheight="16" infinite="1" nextlayerid="10" nextobjectid="1">
 <tileset firstgid="1" source="InnerHouse.tsx"/>
 <tileset firstgid="1601" source="TileMark.tsx"/>
 <layer id="4" name="Base" width="30" height="20">
  <data encoding="csv">
   <chunk x="-16" y="-16" width="16" height="16">
0,0,0,0,0,0,0,0,0,0,0,0,0,0,0,0,
0,0,0,0,0,0,0,0,0,0,0,0,0,0,0,0,
0,0,0,0,0,0,0,0,0,0,0,0,0,0,0,0,
0,0,0,0,0,0,0,0,0,0,0,0,0,0,0,0,
0,0,0,0,0,0,0,0,0,0,0,0,0,0,0,0,
0,0,0,0,0,0,0,0,0,0,0,0,0,0,0,0,
0,0,0,0,0,0,0,0,0,0,0,0,0,0,0,0,
0,0,0,0,0,0,0,0,0,0,0,0,0,0,0,0,
0,0,0,0,528,528,528,528,528,528,528,528,528,528,528,528,
0,0,0,0,528,528,528,528,528,528,528,528,528,528,528,528,
0,0,0,0,528,528,528,528,528,528,528,528,528,528,528,528,
0,0,0,0,528,528,528,528,528,528,528,528,528,528,528,528,
0,0,0,0,528,528,528,528,528,528,528,528,528,528,528,528,
0,0,0,0,528,528,528,528,528,528,528,528,528,528,528,528,
0,0,0,0,528,528,528,528,528,528,528,528,528,528,528,528,
0,0,0,0,528,528,528,528,528,528,528,528,528,528,528,528
</chunk>
   <chunk x="0" y="-16" width="16" height="16">
0,0,0,0,0,0,0,0,0,0,0,0,0,0,0,0,
0,0,0,0,0,0,0,0,0,0,0,0,0,0,0,0,
0,0,0,0,0,0,0,0,0,0,0,0,0,0,0,0,
0,0,0,0,0,0,0,0,0,0,0,0,0,0,0,0,
0,0,0,0,0,0,0,0,0,0,0,0,0,0,0,0,
0,0,0,0,0,0,0,0,0,0,0,0,0,0,0,0,
0,0,0,0,0,0,0,0,0,0,0,0,0,0,0,0,
0,0,0,0,0,0,0,0,0,0,0,0,0,0,0,0,
528,528,528,528,528,528,528,528,528,528,528,528,528,528,528,528,
528,528,528,528,528,528,528,528,528,528,528,528,528,528,528,528,
528,528,528,528,528,528,528,528,528,528,528,528,528,528,528,528,
528,528,528,528,528,528,528,528,528,528,528,528,528,528,528,528,
528,528,528,528,528,528,528,528,528,528,528,528,528,528,528,528,
528,528,528,528,528,528,528,528,528,528,528,528,528,528,528,528,
528,528,528,528,528,528,528,528,528,528,528,528,528,528,528,528,
528,528,528,528,528,528,528,528,528,528,528,528,528,528,528,528
</chunk>
   <chunk x="16" y="-16" width="16" height="16">
0,0,0,0,0,0,0,0,0,0,0,0,0,0,0,0,
0,0,0,0,0,0,0,0,0,0,0,0,0,0,0,0,
0,0,0,0,0,0,0,0,0,0,0,0,0,0,0,0,
0,0,0,0,0,0,0,0,0,0,0,0,0,0,0,0,
0,0,0,0,0,0,0,0,0,0,0,0,0,0,0,0,
0,0,0,0,0,0,0,0,0,0,0,0,0,0,0,0,
0,0,0,0,0,0,0,0,0,0,0,0,0,0,0,0,
0,0,0,0,0,0,0,0,0,0,0,0,0,0,0,0,
528,528,528,528,528,528,528,528,528,528,528,528,528,528,528,528,
528,528,528,528,528,528,528,528,528,528,528,528,528,528,528,528,
528,528,528,528,528,528,528,528,528,528,528,528,528,528,528,528,
528,528,528,528,528,528,528,528,528,528,528,528,528,528,528,528,
528,528,528,528,528,528,528,528,528,528,528,528,528,528,528,528,
528,528,528,528,528,528,528,528,528,528,528,528,528,528,528,528,
528,528,528,528,528,528,528,528,528,528,528,528,528,528,528,528,
528,528,528,528,528,528,528,528,528,528,528,528,528,528,528,528
</chunk>
   <chunk x="32" y="-16" width="16" height="16">
0,0,0,0,0,0,0,0,0,0,0,0,0,0,0,0,
0,0,0,0,0,0,0,0,0,0,0,0,0,0,0,0,
0,0,0,0,0,0,0,0,0,0,0,0,0,0,0,0,
0,0,0,0,0,0,0,0,0,0,0,0,0,0,0,0,
0,0,0,0,0,0,0,0,0,0,0,0,0,0,0,0,
0,0,0,0,0,0,0,0,0,0,0,0,0,0,0,0,
0,0,0,0,0,0,0,0,0,0,0,0,0,0,0,0,
0,0,0,0,0,0,0,0,0,0,0,0,0,0,0,0,
528,528,528,528,528,528,528,528,528,528,528,528,528,528,528,528,
528,528,528,528,528,528,528,528,528,528,528,528,528,528,528,528,
528,528,528,528,528,528,528,528,528,528,528,528,528,528,528,528,
528,528,528,528,528,528,528,528,528,528,528,528,528,528,528,528,
528,528,528,528,528,528,528,528,528,528,528,528,528,528,528,528,
528,528,528,528,528,528,528,528,528,528,528,528,528,528,528,528,
528,528,528,528,528,528,528,528,528,528,528,528,528,528,528,528,
528,528,528,528,528,528,528,528,528,528,528,528,528,528,528,528
</chunk>
   <chunk x="48" y="-16" width="16" height="16">
0,0,0,0,0,0,0,0,0,0,0,0,0,0,0,0,
0,0,0,0,0,0,0,0,0,0,0,0,0,0,0,0,
0,0,0,0,0,0,0,0,0,0,0,0,0,0,0,0,
0,0,0,0,0,0,0,0,0,0,0,0,0,0,0,0,
0,0,0,0,0,0,0,0,0,0,0,0,0,0,0,0,
0,0,0,0,0,0,0,0,0,0,0,0,0,0,0,0,
0,0,0,0,0,0,0,0,0,0,0,0,0,0,0,0,
0,0,0,0,0,0,0,0,0,0,0,0,0,0,0,0,
528,528,528,528,528,0,0,0,0,0,0,0,0,0,0,0,
528,528,528,528,528,0,0,0,0,0,0,0,0,0,0,0,
528,528,528,528,528,0,0,0,0,0,0,0,0,0,0,0,
528,528,528,528,528,0,0,0,0,0,0,0,0,0,0,0,
528,528,528,528,528,0,0,0,0,0,0,0,0,0,0,0,
528,528,528,528,528,0,0,0,0,0,0,0,0,0,0,0,
528,528,528,528,528,0,0,0,0,0,0,0,0,0,0,0,
528,528,528,528,528,0,0,0,0,0,0,0,0,0,0,0
</chunk>
   <chunk x="-16" y="0" width="16" height="16">
0,0,0,0,528,528,528,528,528,528,528,528,528,528,528,528,
0,0,0,0,528,528,528,528,528,528,528,528,528,528,528,528,
0,0,0,0,528,528,528,528,528,528,528,528,528,528,528,528,
0,0,0,0,528,528,528,528,528,528,528,528,528,528,528,528,
0,0,0,0,528,528,528,528,528,528,528,528,528,528,528,528,
0,0,0,0,528,528,528,528,528,528,528,528,528,528,528,528,
0,0,0,0,528,528,528,528,528,528,528,528,528,528,528,528,
0,0,0,0,528,528,528,528,528,528,528,528,528,528,528,528,
0,0,0,0,528,528,528,528,528,528,528,528,528,528,528,528,
0,0,0,0,528,528,528,528,528,528,528,528,528,528,528,528,
0,0,0,0,528,528,528,528,528,528,528,528,528,528,528,528,
0,0,0,0,528,528,528,528,528,528,528,528,528,528,528,528,
0,0,0,0,528,528,528,528,528,528,528,528,528,528,528,528,
0,0,0,0,528,528,528,528,528,528,528,528,528,528,528,528,
0,0,0,0,528,528,528,528,528,528,528,528,528,528,528,528,
0,0,0,0,528,528,528,528,528,528,528,528,528,528,528,528
</chunk>
   <chunk x="0" y="0" width="16" height="16">
528,528,528,528,528,528,528,528,528,528,528,528,528,528,528,528,
528,528,528,528,528,528,528,528,528,528,528,528,528,528,528,528,
528,528,528,528,528,528,528,528,528,528,528,528,528,528,528,528,
528,528,528,528,528,528,528,528,528,528,528,528,528,528,528,528,
528,528,528,528,528,528,528,528,528,528,528,528,528,528,528,528,
528,528,528,528,528,528,528,528,528,528,528,528,528,528,528,528,
528,528,528,528,528,528,528,528,528,528,528,528,528,528,528,528,
528,528,528,528,528,528,528,528,528,528,528,528,528,528,528,528,
528,528,528,528,528,528,528,528,528,528,528,528,528,528,528,528,
528,528,528,528,528,528,528,528,528,528,528,528,528,528,528,528,
528,528,528,528,528,528,528,528,528,528,528,528,528,528,528,528,
528,528,528,528,528,528,528,528,528,528,528,528,528,528,528,528,
528,528,528,528,528,528,528,528,528,528,528,528,528,528,528,528,
528,528,528,528,528,528,528,528,528,528,528,528,528,528,528,528,
528,528,528,528,528,528,528,528,528,528,528,528,528,528,528,528,
528,528,528,528,528,528,528,528,528,528,528,528,528,528,528,528
</chunk>
   <chunk x="16" y="0" width="16" height="16">
528,528,528,528,528,528,528,528,528,528,528,528,528,528,528,528,
528,528,528,528,528,528,528,528,528,528,528,528,528,528,528,528,
528,528,528,528,528,528,528,528,528,528,528,528,528,528,528,528,
528,528,528,528,528,528,528,528,528,528,528,528,528,528,528,528,
528,528,528,528,528,528,528,528,528,528,528,528,528,528,528,528,
528,528,528,528,528,528,528,528,528,528,528,528,528,528,528,528,
528,528,528,528,528,528,528,528,528,528,528,528,528,528,528,528,
528,528,528,528,528,528,528,528,528,528,528,528,528,528,528,528,
528,528,528,528,528,528,528,528,528,528,528,528,528,528,528,528,
528,528,528,528,528,528,528,528,528,528,528,528,528,528,528,528,
528,528,528,528,528,528,528,528,528,528,528,528,528,528,528,528,
528,528,528,528,528,528,528,528,528,528,528,528,528,528,528,528,
528,528,528,528,528,528,528,528,528,528,528,528,528,528,528,528,
528,528,528,528,528,528,528,528,528,528,528,528,528,528,528,528,
528,528,528,528,528,528,528,528,528,528,528,528,528,528,528,528,
528,528,528,528,528,528,528,528,528,528,528,528,528,528,528,528
</chunk>
   <chunk x="32" y="0" width="16" height="16">
528,528,528,528,528,528,528,528,528,528,528,528,528,528,528,528,
528,528,528,528,528,528,528,528,528,528,528,528,528,528,528,528,
528,528,528,528,528,528,528,528,528,528,528,528,528,528,528,528,
528,528,528,528,528,528,528,528,528,528,528,528,528,528,528,528,
528,528,528,528,528,528,528,528,528,528,528,528,528,528,528,528,
528,528,528,528,528,528,528,528,528,528,528,528,528,528,528,528,
528,528,528,528,528,528,528,528,528,528,528,528,528,528,528,528,
528,528,528,528,528,528,528,528,528,528,528,528,528,528,528,528,
528,528,528,528,528,528,528,528,528,528,528,528,528,528,528,528,
528,528,528,528,528,528,528,528,528,528,528,528,528,528,528,528,
528,528,528,528,528,528,528,528,528,528,528,528,528,528,528,528,
528,528,528,528,528,528,528,528,528,528,528,528,528,528,528,528,
528,528,528,528,528,528,528,528,528,528,528,528,528,528,528,528,
528,528,528,528,528,528,528,528,528,528,528,528,528,528,528,528,
528,528,528,528,528,528,528,528,528,528,528,528,528,528,528,528,
528,528,528,528,528,528,528,528,528,528,528,528,528,528,528,528
</chunk>
   <chunk x="48" y="0" width="16" height="16">
528,528,528,528,528,0,0,0,0,0,0,0,0,0,0,0,
528,528,528,528,528,0,0,0,0,0,0,0,0,0,0,0,
528,528,528,528,528,0,0,0,0,0,0,0,0,0,0,0,
528,528,528,528,528,0,0,0,0,0,0,0,0,0,0,0,
528,528,528,528,528,0,0,0,0,0,0,0,0,0,0,0,
528,528,528,528,528,0,0,0,0,0,0,0,0,0,0,0,
528,528,528,528,528,0,0,0,0,0,0,0,0,0,0,0,
528,528,528,528,528,0,0,0,0,0,0,0,0,0,0,0,
528,528,528,528,528,0,0,0,0,0,0,0,0,0,0,0,
528,528,528,528,528,0,0,0,0,0,0,0,0,0,0,0,
528,528,528,528,528,0,0,0,0,0,0,0,0,0,0,0,
528,528,528,528,528,0,0,0,0,0,0,0,0,0,0,0,
528,528,528,528,528,0,0,0,0,0,0,0,0,0,0,0,
528,528,528,528,528,0,0,0,0,0,0,0,0,0,0,0,
528,528,528,528,528,0,0,0,0,0,0,0,0,0,0,0,
528,528,528,528,528,0,0,0,0,0,0,0,0,0,0,0
</chunk>
   <chunk x="-16" y="16" width="16" height="16">
0,0,0,0,528,528,528,528,528,528,528,528,528,528,528,528,
0,0,0,0,528,528,528,528,528,528,528,528,528,528,528,528,
0,0,0,0,528,528,528,528,528,528,528,528,528,528,528,528,
0,0,0,0,528,528,528,528,528,528,528,528,528,528,528,528,
0,0,0,0,528,528,528,528,528,528,528,528,528,528,528,528,
0,0,0,0,528,528,528,528,528,528,528,528,528,528,528,528,
0,0,0,0,528,528,528,528,528,528,528,528,528,528,528,528,
0,0,0,0,528,528,528,528,528,528,528,528,528,528,528,528,
0,0,0,0,528,528,528,528,528,528,528,528,528,528,528,528,
0,0,0,0,528,528,528,528,528,528,528,528,528,528,528,528,
0,0,0,0,528,528,528,528,528,528,528,528,528,528,528,528,
0,0,0,0,528,528,528,528,528,528,528,528,528,528,528,528,
0,0,0,0,528,528,528,528,528,528,528,528,528,528,528,528,
0,0,0,0,0,0,0,0,0,0,0,0,0,0,0,0,
0,0,0,0,0,0,0,0,0,0,0,0,0,0,0,0,
0,0,0,0,0,0,0,0,0,0,0,0,0,0,0,0
</chunk>
   <chunk x="0" y="16" width="16" height="16">
528,528,528,528,528,528,528,528,528,528,528,528,528,528,528,528,
528,528,528,528,528,528,528,528,528,528,528,528,528,528,528,528,
528,528,528,528,528,528,528,528,528,528,528,528,528,528,528,528,
528,528,528,528,528,528,528,528,528,528,528,528,528,528,528,528,
528,528,528,528,528,528,528,528,528,528,528,528,528,528,528,528,
528,528,528,528,528,528,528,528,528,528,528,528,528,528,528,528,
528,528,528,528,528,528,528,528,528,528,528,528,528,528,528,528,
528,528,528,528,528,528,528,528,528,528,528,528,528,528,528,528,
528,528,528,528,528,528,528,528,528,528,528,528,528,528,528,528,
528,528,528,528,528,528,528,528,528,528,528,528,528,528,528,528,
528,528,528,528,528,528,528,528,528,528,528,528,528,528,528,528,
528,528,528,528,528,528,528,528,528,528,528,528,528,528,528,528,
528,528,528,528,528,528,528,528,528,528,528,528,528,528,528,528,
0,0,0,0,0,0,0,0,0,0,0,0,0,0,0,0,
0,0,0,0,0,0,0,0,0,0,0,0,0,0,0,0,
0,0,0,0,0,0,0,0,0,0,0,0,0,0,0,0
</chunk>
   <chunk x="16" y="16" width="16" height="16">
528,528,528,528,528,528,528,528,528,528,528,528,528,528,528,528,
528,528,528,528,528,528,528,528,528,528,528,528,528,528,528,528,
528,528,528,528,528,528,528,528,528,528,528,528,528,528,528,528,
528,528,528,528,528,528,528,528,528,528,528,528,528,528,528,528,
528,528,528,528,528,528,528,528,528,528,528,528,528,528,528,528,
528,528,528,528,528,528,528,528,528,528,528,528,528,528,528,528,
528,528,528,528,528,528,528,528,528,528,528,528,528,528,528,528,
528,528,528,528,528,528,528,528,528,528,528,528,528,528,528,528,
528,528,528,528,528,528,528,528,528,528,528,528,528,528,528,528,
528,528,528,528,528,528,528,528,528,528,528,528,528,528,528,528,
528,528,528,528,528,528,528,528,528,528,528,528,528,528,528,528,
528,528,528,528,528,528,528,528,528,528,528,528,528,528,528,528,
528,528,528,528,528,528,528,528,528,528,528,528,528,528,528,528,
0,0,0,0,0,0,0,0,0,0,0,0,0,0,0,0,
0,0,0,0,0,0,0,0,0,0,0,0,0,0,0,0,
0,0,0,0,0,0,0,0,0,0,0,0,0,0,0,0
</chunk>
   <chunk x="32" y="16" width="16" height="16">
528,528,528,528,528,528,528,528,528,528,528,528,528,528,528,528,
528,528,528,528,528,528,528,528,528,528,528,528,528,528,528,528,
528,528,528,528,528,528,528,528,528,528,528,528,528,528,528,528,
528,528,528,528,528,528,528,528,528,528,528,528,528,528,528,528,
528,528,528,528,528,528,528,528,528,528,528,528,528,528,528,528,
528,528,528,528,528,528,528,528,528,528,528,528,528,528,528,528,
528,528,528,528,528,528,528,528,528,528,528,528,528,528,528,528,
528,528,528,528,528,528,528,528,528,528,528,528,528,528,528,528,
528,528,528,528,528,528,528,528,528,528,528,528,528,528,528,528,
528,528,528,528,528,528,528,528,528,528,528,528,528,528,528,528,
528,528,528,528,528,528,528,528,528,528,528,528,528,528,528,528,
528,528,528,528,528,528,528,528,528,528,528,528,528,528,528,528,
528,528,528,528,528,528,528,528,528,528,528,528,528,528,528,528,
0,0,0,0,0,0,0,0,0,0,0,0,0,0,0,0,
0,0,0,0,0,0,0,0,0,0,0,0,0,0,0,0,
0,0,0,0,0,0,0,0,0,0,0,0,0,0,0,0
</chunk>
   <chunk x="48" y="16" width="16" height="16">
528,528,528,528,528,0,0,0,0,0,0,0,0,0,0,0,
528,528,528,528,528,0,0,0,0,0,0,0,0,0,0,0,
528,528,528,528,528,0,0,0,0,0,0,0,0,0,0,0,
528,528,528,528,528,0,0,0,0,0,0,0,0,0,0,0,
528,528,528,528,528,0,0,0,0,0,0,0,0,0,0,0,
528,528,528,528,528,0,0,0,0,0,0,0,0,0,0,0,
528,528,528,528,528,0,0,0,0,0,0,0,0,0,0,0,
528,528,528,528,528,0,0,0,0,0,0,0,0,0,0,0,
528,528,528,528,528,0,0,0,0,0,0,0,0,0,0,0,
528,528,528,528,528,0,0,0,0,0,0,0,0,0,0,0,
528,528,528,528,528,0,0,0,0,0,0,0,0,0,0,0,
528,528,528,528,528,0,0,0,0,0,0,0,0,0,0,0,
528,528,528,528,528,0,0,0,0,0,0,0,0,0,0,0,
0,0,0,0,0,0,0,0,0,0,0,0,0,0,0,0,
0,0,0,0,0,0,0,0,0,0,0,0,0,0,0,0,
0,0,0,0,0,0,0,0,0,0,0,0,0,0,0,0
</chunk>
  </data>
 </layer>
 <layer id="1" name="Ground" width="30" height="20">
  <data encoding="csv">
   <chunk x="0" y="0" width="16" height="16">
0,0,0,0,0,0,0,0,0,0,0,0,0,0,0,0,
0,0,0,0,0,0,0,0,0,0,0,0,0,0,0,0,
0,0,0,0,0,0,0,0,0,0,0,0,0,0,0,0,
0,0,0,0,0,0,0,0,0,0,0,0,1,2,2,2,
0,0,0,0,0,0,0,0,0,0,0,0,41,604,605,605,
0,0,0,0,0,0,0,0,0,0,0,0,41,644,645,645,
0,0,0,0,0,0,0,0,0,0,0,0,41,11,12,11,
0,0,0,0,0,1,2,2,2,2,2,2,5,330,330,330,
0,0,0,0,0,41,481,482,482,482,482,482,483,330,330,330,
0,0,0,0,0,41,764,764,764,764,764,764,764,330,330,330,
0,0,0,0,0,41,530,531,530,531,530,531,530,330,330,330,
0,0,0,0,0,41,570,571,570,571,570,571,570,330,330,330,
0,0,0,0,0,41,530,531,530,531,530,531,530,330,330,330,
0,0,0,0,0,41,570,571,570,571,570,571,570,330,330,330,
0,0,0,0,0,41,570,571,570,571,570,571,570,330,330,330,
0,0,0,0,0,81,82,82,82,82,82,82,45,330,330,330
</chunk>
   <chunk x="16" y="0" width="16" height="16">
0,0,0,0,0,0,0,0,0,0,0,0,0,0,0,0,
0,0,0,0,0,0,0,0,0,0,0,0,0,0,0,0,
0,0,0,0,0,0,0,0,0,0,0,0,0,0,0,0,
2,2,2,2,2,2,2,2,2,2,2,2,2,2,2,2,
605,605,605,605,605,605,605,605,605,605,605,605,605,605,605,605,
645,645,645,645,645,645,645,645,645,645,645,645,645,645,645,645,
12,11,12,11,12,11,12,11,12,11,12,11,12,11,12,11,
330,330,330,330,330,330,330,330,650,651,651,651,650,651,650,650,
330,330,330,330,330,330,330,330,650,651,691,691,690,691,690,690,
330,330,330,330,330,330,330,330,650,651,330,330,650,650,650,650,
330,330,330,330,330,330,330,330,650,650,650,650,690,690,650,690,
330,330,330,330,330,330,330,330,690,690,690,690,690,691,690,690,
330,330,330,330,330,330,330,330,330,330,330,330,330,330,330,330,
330,330,330,330,330,330,330,330,330,330,330,330,330,330,330,330,
330,330,330,330,330,330,330,330,330,330,330,330,330,330,330,330,
330,330,330,330,330,330,330,330,330,330,330,330,330,330,330,330
</chunk>
   <chunk x="32" y="0" width="16" height="16">
0,0,0,0,0,0,0,0,0,0,0,0,0,0,0,0,
0,0,0,0,0,0,0,0,0,0,0,0,0,0,0,0,
0,0,0,0,0,0,0,0,0,0,0,0,0,0,0,0,
2,3,0,0,0,0,0,0,0,0,0,0,0,0,0,0,
606,43,0,0,0,0,0,0,0,0,0,0,0,0,0,0,
646,43,0,0,0,0,0,0,0,0,0,0,0,0,0,0,
12,43,0,0,0,0,0,0,0,0,0,0,0,0,0,0,
651,43,0,0,0,0,0,0,0,0,0,0,0,0,0,0,
691,43,0,0,0,0,0,0,0,0,0,0,0,0,0,0,
651,43,0,0,0,0,0,0,0,0,0,0,0,0,0,0,
691,6,2,2,2,2,2,2,2,3,0,0,0,0,0,0,
691,607,608,608,608,608,608,608,609,43,0,0,0,0,0,0,
330,11,12,11,12,11,12,11,12,43,0,0,0,0,0,0,
330,926,927,926,927,926,927,926,927,43,0,0,0,0,0,0,
330,926,927,926,927,926,927,926,927,43,0,0,0,0,0,0,
330,926,927,926,927,926,927,926,927,43,0,0,0,0,0,0
</chunk>
   <chunk x="0" y="16" width="16" height="16">
0,0,0,0,0,0,0,0,0,0,0,0,41,330,330,330,
0,0,0,0,0,0,0,0,0,0,0,0,41,330,330,330,
0,0,0,0,0,0,0,0,0,0,0,0,81,82,82,82,
0,0,0,0,0,0,0,0,0,0,0,0,0,0,0,0,
0,0,0,0,0,0,0,0,0,0,0,0,0,0,0,0,
0,0,0,0,0,0,0,0,0,0,0,0,0,0,0,0,
0,0,0,0,0,0,0,0,0,0,0,0,0,0,0,0,
0,0,0,0,0,0,0,0,0,0,0,0,0,0,0,0,
0,0,0,0,0,0,0,0,0,0,0,0,0,0,0,0,
0,0,0,0,0,0,0,0,0,0,0,0,0,0,0,0,
0,0,0,0,0,0,0,0,0,0,0,0,0,0,0,0,
0,0,0,0,0,0,0,0,0,0,0,0,0,0,0,0,
0,0,0,0,0,0,0,0,0,0,0,0,0,0,0,0,
0,0,0,0,0,0,0,0,0,0,0,0,0,0,0,0,
0,0,0,0,0,0,0,0,0,0,0,0,0,0,0,0,
0,0,0,0,0,0,0,0,0,0,0,0,0,0,0,0
</chunk>
   <chunk x="16" y="16" width="16" height="16">
330,330,330,330,330,330,330,330,330,330,330,330,330,330,330,330,
330,330,330,330,330,330,330,330,330,330,330,330,330,330,330,330,
82,0,0,0,0,82,82,82,82,82,82,82,82,82,82,82,
0,0,0,0,0,0,0,0,0,0,0,0,0,0,0,0,
0,0,0,0,0,0,0,0,0,0,0,0,0,0,0,0,
0,0,0,0,0,0,0,0,0,0,0,0,0,0,0,0,
0,0,0,0,0,0,0,0,0,0,0,0,0,0,0,0,
0,0,0,0,0,0,0,0,0,0,0,0,0,0,0,0,
0,0,0,0,0,0,0,0,0,0,0,0,0,0,0,0,
0,0,0,0,0,0,0,0,0,0,0,0,0,0,0,0,
0,0,0,0,0,0,0,0,0,0,0,0,0,0,0,0,
0,0,0,0,0,0,0,0,0,0,0,0,0,0,0,0,
0,0,0,0,0,0,0,0,0,0,0,0,0,0,0,0,
0,0,0,0,0,0,0,0,0,0,0,0,0,0,0,0,
0,0,0,0,0,0,0,0,0,0,0,0,0,0,0,0,
0,0,0,0,0,0,0,0,0,0,0,0,0,0,0,0
</chunk>
   <chunk x="32" y="16" width="16" height="16">
330,926,927,926,927,926,927,926,927,43,0,0,0,0,0,0,
330,46,82,82,82,82,82,82,82,83,0,0,0,0,0,0,
82,83,0,0,0,0,0,0,0,0,0,0,0,0,0,0,
0,0,0,0,0,0,0,0,0,0,0,0,0,0,0,0,
0,0,0,0,0,0,0,0,0,0,0,0,0,0,0,0,
0,0,0,0,0,0,0,0,0,0,0,0,0,0,0,0,
0,0,0,0,0,0,0,0,0,0,0,0,0,0,0,0,
0,0,0,0,0,0,0,0,0,0,0,0,0,0,0,0,
0,0,0,0,0,0,0,0,0,0,0,0,0,0,0,0,
0,0,0,0,0,0,0,0,0,0,0,0,0,0,0,0,
0,0,0,0,0,0,0,0,0,0,0,0,0,0,0,0,
0,0,0,0,0,0,0,0,0,0,0,0,0,0,0,0,
0,0,0,0,0,0,0,0,0,0,0,0,0,0,0,0,
0,0,0,0,0,0,0,0,0,0,0,0,0,0,0,0,
0,0,0,0,0,0,0,0,0,0,0,0,0,0,0,0,
0,0,0,0,0,0,0,0,0,0,0,0,0,0,0,0
</chunk>
  </data>
 </layer>
 <layer id="6" name="GroundDeco" width="30" height="20">
  <data encoding="csv">
   <chunk x="0" y="0" width="16" height="16">
0,0,0,0,0,0,0,0,0,0,0,0,0,0,0,0,
0,0,0,0,0,0,0,0,0,0,0,0,0,0,0,0,
0,0,0,0,0,0,0,0,0,0,0,0,0,0,0,0,
0,0,0,0,0,0,0,0,0,0,0,0,0,0,0,0,
0,0,0,0,0,0,0,0,0,0,0,0,0,0,0,0,
0,0,0,0,0,0,0,0,0,0,0,0,0,0,0,0,
0,0,0,0,0,0,0,0,0,0,0,0,0,0,0,0,
0,0,0,0,0,0,0,0,0,0,0,0,0,0,0,0,
0,0,0,0,0,0,0,0,0,0,1310,1311,0,0,0,0,
0,0,0,0,0,0,0,0,0,0,0,0,0,0,0,0,
0,0,0,0,0,0,0,0,0,0,0,0,0,0,0,0,
0,0,0,0,0,0,1353,0,0,0,0,0,0,0,0,0,
0,0,0,0,0,0,1393,0,0,0,0,0,0,0,0,0,
0,0,0,0,0,0,0,0,0,0,0,0,0,0,0,0,
0,0,0,0,0,0,0,0,0,0,0,0,0,0,0,0,
0,0,0,0,0,0,0,0,0,0,0,0,0,0,0,0
</chunk>
   <chunk x="16" y="0" width="16" height="16">
0,0,0,0,0,0,0,0,0,0,0,0,0,0,0,0,
0,0,0,0,0,0,0,0,0,0,0,0,0,0,0,0,
0,0,0,0,0,0,0,0,0,0,0,0,0,0,0,0,
0,0,0,0,0,0,0,0,0,0,0,0,0,0,0,0,
0,0,0,0,0,0,0,0,0,0,0,0,0,0,0,0,
0,0,0,0,0,0,0,0,0,0,0,0,0,0,0,0,
0,0,0,0,0,0,0,0,0,0,0,0,0,0,0,0,
0,0,0,0,0,0,0,0,0,0,0,0,0,0,0,0,
0,1379,1380,0,0,0,0,0,0,0,135,136,0,0,0,0,
1187,1419,1420,1188,0,0,0,0,0,0,175,176,0,0,0,0,
0,0,0,0,0,0,0,0,0,0,215,216,0,0,0,0,
0,0,0,0,0,0,0,0,0,0,0,0,0,0,0,0,
0,0,0,0,0,0,0,0,0,0,0,0,0,0,0,0,
0,0,0,0,0,0,0,0,0,0,0,0,0,0,0,0,
0,0,0,0,0,0,0,0,0,0,0,0,0,0,0,0,
0,0,0,0,0,0,0,0,0,0,0,0,0,0,0,0
</chunk>
   <chunk x="32" y="0" width="16" height="16">
0,0,0,0,0,0,0,0,0,0,0,0,0,0,0,0,
0,0,0,0,0,0,0,0,0,0,0,0,0,0,0,0,
0,0,0,0,0,0,0,0,0,0,0,0,0,0,0,0,
0,0,0,0,0,0,0,0,0,0,0,0,0,0,0,0,
0,0,0,0,0,0,0,0,0,0,0,0,0,0,0,0,
0,0,0,0,0,0,0,0,0,0,0,0,0,0,0,0,
0,0,0,0,0,0,0,0,0,0,0,0,0,0,0,0,
0,0,0,0,0,0,0,0,0,0,0,0,0,0,0,0,
0,0,0,0,0,0,0,0,0,0,0,0,0,0,0,0,
0,0,0,0,0,0,0,0,0,0,0,0,0,0,0,0,
0,0,0,0,0,0,0,0,0,0,0,0,0,0,0,0,
0,0,0,1310,1311,0,0,0,0,0,0,0,0,0,0,0,
0,0,0,0,0,0,0,0,0,0,0,0,0,0,0,0,
0,0,0,0,0,0,0,0,0,0,0,0,0,0,0,0,
0,0,0,0,0,0,0,0,0,0,0,0,0,0,0,0,
0,0,0,0,0,0,0,0,0,0,0,0,0,0,0,0
</chunk>
  </data>
 </layer>
 <layer id="5" name="Furniture" width="30" height="20">
  <data encoding="csv">
   <chunk x="0" y="0" width="16" height="16">
0,0,0,0,0,0,0,0,0,0,0,0,0,0,0,0,
0,0,0,0,0,0,0,0,0,0,0,0,0,0,0,0,
0,0,0,0,0,0,0,0,0,0,0,0,0,0,0,0,
0,0,0,0,0,0,0,0,0,0,0,0,0,0,0,0,
0,0,0,0,0,0,0,0,0,0,0,0,0,0,0,0,
0,0,0,0,0,0,0,0,0,0,0,0,0,0,0,0,
0,0,0,0,0,0,0,0,0,0,0,0,0,0,0,0,
0,0,0,0,0,0,0,0,0,0,0,0,0,0,0,0,
0,0,0,0,0,0,0,1043,0,655,656,0,0,0,0,0,
0,0,0,0,0,0,0,675,676,695,696,757,758,0,0,0,
0,0,0,0,0,0,0,715,716,735,736,797,798,0,0,0,
0,0,0,0,0,0,0,0,0,0,0,0,0,0,0,0,
0,0,0,0,0,0,949,950,0,0,0,394,395,0,0,0,
0,0,0,0,0,0,989,990,0,0,0,434,435,0,0,0,
0,0,0,0,0,0,0,0,0,0,0,0,0,0,0,0,
0,0,0,0,0,0,0,0,0,0,0,0,0,0,0,0
</chunk>
   <chunk x="16" y="0" width="16" height="16">
0,0,0,0,0,0,0,0,0,0,0,0,0,0,0,0,
0,0,0,0,0,0,0,0,0,0,0,0,0,0,0,0,
0,0,0,0,0,0,0,0,0,0,0,0,0,0,0,0,
0,0,0,0,0,0,0,0,0,0,0,0,0,0,0,0,
0,9,10,0,1053,1054,1055,0,0,1053,1054,1055,0,0,0,0,
0,9,10,0,1093,1094,1095,0,0,1093,1094,1095,0,0,0,0,
0,49,50,0,0,0,0,0,0,0,0,0,0,0,0,0,
0,89,90,0,0,0,0,0,0,0,0,0,0,0,0,0,
0,0,0,0,0,0,0,0,0,940,0,0,0,0,0,0,
0,0,0,0,0,0,0,0,0,980,0,0,0,0,0,0,
0,0,0,0,0,0,0,0,0,0,0,0,0,0,0,0,
0,0,0,0,0,0,0,0,0,0,0,0,0,0,0,0,
0,0,0,0,0,0,0,0,0,0,0,0,0,0,0,0,
0,0,0,0,0,0,0,0,0,0,0,0,0,0,0,0,
0,0,0,0,0,0,0,0,0,0,0,0,0,0,0,0,
0,0,0,0,0,0,0,0,0,0,0,0,0,0,0,0
</chunk>
   <chunk x="32" y="0" width="16" height="16">
0,0,0,0,0,0,0,0,0,0,0,0,0,0,0,0,
0,0,0,0,0,0,0,0,0,0,0,0,0,0,0,0,
0,0,0,0,0,0,0,0,0,0,0,0,0,0,0,0,
0,0,0,0,0,0,0,0,0,0,0,0,0,0,0,0,
0,0,0,0,0,0,0,0,0,0,0,0,0,0,0,0,
0,0,0,0,0,0,0,0,0,0,0,0,0,0,0,0,
0,0,0,0,0,0,0,0,0,0,0,0,0,0,0,0,
0,0,0,0,0,0,0,0,0,0,0,0,0,0,0,0,
0,0,0,0,0,0,0,0,0,0,0,0,0,0,0,0,
0,0,0,0,0,0,0,0,0,0,0,0,0,0,0,0,
0,0,0,0,0,0,0,0,0,0,0,0,0,0,0,0,
0,0,0,0,0,0,1042,0,1042,0,0,0,0,0,0,0,
0,0,315,0,0,0,0,0,0,0,0,0,0,0,0,0,
0,357,355,0,0,0,0,0,0,0,0,0,0,0,0,0,
0,0,0,0,0,0,0,0,0,0,0,0,0,0,0,0,
0,0,0,0,0,0,0,0,0,0,0,0,0,0,0,0
</chunk>
  </data>
 </layer>
 <layer id="8" name="WallDeco" width="30" height="20">
  <data encoding="csv">
   <chunk x="0" y="0" width="16" height="16">
0,0,0,0,0,0,0,0,0,0,0,0,0,0,0,0,
0,0,0,0,0,0,0,0,0,0,0,0,0,0,0,0,
0,0,0,0,0,0,0,0,0,0,0,0,0,0,0,0,
0,0,0,0,0,0,0,0,0,0,0,0,0,0,0,0,
0,0,0,0,0,0,0,0,0,0,0,0,0,0,0,0,
0,0,0,0,0,0,0,0,0,0,0,0,0,0,1269,1270,
0,0,0,0,0,0,0,0,0,0,0,0,0,311,312,0,
0,0,0,0,0,0,0,0,0,0,0,0,0,351,352,0,
0,0,0,0,0,0,0,1166,0,0,0,0,0,0,0,0,
0,0,0,0,0,0,0,0,0,0,0,0,0,0,0,0,
0,0,0,0,0,0,0,0,0,0,0,0,0,0,0,0,
0,0,0,0,0,0,0,0,0,0,0,0,0,0,0,0,
0,0,0,0,0,0,0,0,0,0,0,0,0,0,0,0,
0,0,0,0,0,0,0,0,0,0,0,196,0,0,0,0,
0,0,0,0,0,0,0,0,0,0,0,236,0,0,0,0,
0,0,0,0,0,0,0,0,0,0,0,0,0,0,0,0
</chunk>
   <chunk x="16" y="0" width="16" height="16">
0,0,0,0,0,0,0,0,0,0,0,0,0,0,0,0,
0,0,0,0,0,0,0,0,0,0,0,0,0,0,0,0,
0,0,0,0,0,0,0,0,0,0,0,0,0,0,0,0,
0,0,0,0,0,0,0,0,0,0,0,0,0,0,0,0,
0,0,0,0,1442,1443,1444,0,0,1442,1443,1444,0,0,0,0,
1308,0,0,0,1482,1483,1484,0,0,1482,1483,1484,1348,1349,1388,1389,
0,0,0,0,0,0,1356,0,0,1352,0,0,0,839,840,0,
0,0,0,0,0,0,1396,0,0,1392,0,0,0,879,880,0,
0,0,0,0,0,0,0,0,0,0,0,0,941,0,0,0,
0,0,0,0,0,0,0,0,0,0,0,0,981,0,0,0,
0,0,0,0,0,0,0,0,0,0,0,0,0,0,0,0,
0,0,0,0,0,0,0,0,0,0,0,0,0,0,0,791,
0,0,0,0,0,0,0,0,0,0,0,0,0,0,0,0,
0,0,0,0,0,0,0,0,0,0,0,0,0,0,0,0,
0,0,0,0,0,0,0,0,0,0,0,0,0,0,0,0,
0,0,0,0,0,0,0,0,0,0,0,0,0,0,0,0
</chunk>
   <chunk x="32" y="0" width="16" height="16">
0,0,0,0,0,0,0,0,0,0,0,0,0,0,0,0,
0,968,0,0,0,0,0,0,0,0,0,0,0,0,0,0,
0,0,0,0,0,0,0,0,0,0,0,0,0,0,0,0,
0,0,0,0,0,0,0,0,0,0,0,0,0,0,0,0,
0,0,0,0,0,0,0,0,0,0,0,0,0,0,0,0,
0,0,0,0,0,0,0,0,0,0,0,0,0,0,0,0,
1276,0,0,0,0,0,0,0,0,0,0,0,0,0,0,0,
1316,0,0,0,0,0,0,0,0,0,0,0,0,0,0,0,
0,0,0,0,0,0,0,0,0,0,0,0,0,0,0,0,
0,0,0,0,0,0,0,0,0,0,0,0,0,0,0,0,
0,0,0,0,0,0,0,0,0,0,0,0,0,0,0,0,
792,0,0,0,0,0,0,0,0,0,0,0,0,0,0,0,
0,0,0,262,263,0,189,0,192,0,0,0,0,0,0,0,
0,0,0,302,303,0,229,0,232,0,0,0,0,0,0,0,
0,0,0,0,0,0,0,0,0,0,0,0,0,0,0,0,
0,0,0,0,0,0,0,184,185,0,0,0,0,0,0,0
</chunk>
   <chunk x="16" y="16" width="16" height="16">
0,0,0,0,0,0,0,0,0,0,0,0,0,0,0,0,
0,0,0,0,0,0,0,0,0,0,0,0,0,0,0,0,
0,0,0,0,0,0,968,0,0,0,0,0,0,0,0,0,
0,0,0,0,0,0,0,0,0,0,0,0,0,0,0,0,
0,0,0,0,0,0,0,0,0,0,0,0,0,0,0,0,
0,0,0,0,0,0,0,0,0,0,0,0,0,0,0,0,
0,0,0,0,0,0,0,0,0,0,0,0,0,0,0,0,
0,0,0,0,0,0,0,0,0,0,0,0,0,0,0,0,
0,0,0,0,0,0,0,0,0,0,0,0,0,0,0,0,
0,0,0,0,0,0,0,0,0,0,0,0,0,0,0,0,
0,0,0,0,0,0,0,0,0,0,0,0,0,0,0,0,
0,0,0,0,0,0,0,0,0,0,0,0,0,0,0,0,
0,0,0,0,0,0,0,0,0,0,0,0,0,0,0,0,
0,0,0,0,0,0,0,0,0,0,0,0,0,0,0,0,
0,0,0,0,0,0,0,0,0,0,0,0,0,0,0,0,
0,0,0,0,0,0,0,0,0,0,0,0,0,0,0,0
</chunk>
   <chunk x="32" y="16" width="16" height="16">
0,0,0,0,0,0,0,224,225,0,0,0,0,0,0,0,
0,0,0,0,0,0,0,0,0,0,0,0,0,0,0,0,
0,0,0,0,0,0,0,0,0,0,0,0,0,0,0,0,
0,0,0,0,0,0,0,0,0,0,0,0,0,0,0,0,
0,0,0,0,0,0,0,0,0,0,0,0,0,0,0,0,
0,0,0,0,0,0,0,0,0,0,0,0,0,0,0,0,
0,0,0,0,0,0,0,0,0,0,0,0,0,0,0,0,
0,0,0,0,0,0,0,0,0,0,0,0,0,0,0,0,
0,0,0,0,0,0,0,0,0,0,0,0,0,0,0,0,
0,0,0,0,0,0,0,0,0,0,0,0,0,0,0,0,
0,0,0,0,0,0,0,0,0,0,0,0,0,0,0,0,
0,0,0,0,0,0,0,0,0,0,0,0,0,0,0,0,
0,0,0,0,0,0,0,0,0,0,0,0,0,0,0,0,
0,0,0,0,0,0,0,0,0,0,0,0,0,0,0,0,
0,0,0,0,0,0,0,0,0,0,0,0,0,0,0,0,
0,0,0,0,0,0,0,0,0,0,0,0,0,0,0,0
</chunk>
  </data>
 </layer>
 <layer id="3" name="Top" width="30" height="20">
  <data encoding="csv">
   <chunk x="0" y="0" width="16" height="16">
0,0,0,0,0,0,0,0,0,0,0,0,0,0,0,0,
0,0,0,0,0,0,0,0,0,0,0,0,0,0,0,0,
0,0,0,0,0,0,0,0,0,0,0,0,0,0,0,0,
0,0,0,0,0,0,0,0,0,0,0,0,0,0,0,0,
0,0,0,0,0,0,0,0,0,0,0,0,0,0,0,0,
0,0,0,0,0,0,0,0,0,0,0,0,0,0,0,0,
0,0,0,0,0,0,0,0,0,0,0,0,0,0,0,0,
0,0,0,0,0,0,0,0,0,0,0,0,0,0,0,0,
0,0,0,0,0,0,0,0,0,0,0,0,41,0,0,0,
0,0,0,0,0,0,0,0,0,0,0,0,41,0,0,0,
0,0,0,0,0,0,0,0,0,0,0,0,81,0,0,0,
0,0,0,0,0,0,0,0,0,0,0,0,0,0,0,0,
0,0,0,0,0,0,0,0,0,0,0,0,1,0,0,0,
0,0,0,0,0,0,0,0,0,0,0,0,41,0,0,0,
0,0,0,0,0,0,0,0,0,0,0,0,41,0,0,0,
0,0,0,0,0,0,0,0,0,0,0,0,0,0,0,0
</chunk>
   <chunk x="32" y="0" width="16" height="16">
0,0,0,0,0,0,0,0,0,0,0,0,0,0,0,0,
0,0,0,0,0,0,0,0,0,0,0,0,0,0,0,0,
0,0,0,0,0,0,0,0,0,0,0,0,0,0,0,0,
0,0,0,0,0,0,0,0,0,0,0,0,0,0,0,0,
0,0,0,0,0,0,0,0,0,0,0,0,0,0,0,0,
0,0,0,0,0,0,0,0,0,0,0,0,0,0,0,0,
0,0,0,0,0,0,0,0,0,0,0,0,0,0,0,0,
0,0,0,0,0,0,0,0,0,0,0,0,0,0,0,0,
0,0,0,0,0,0,0,0,0,0,0,0,0,0,0,0,
0,0,0,0,0,0,0,0,0,0,0,0,0,0,0,0,
0,0,0,0,0,0,0,0,0,0,0,0,0,0,0,0,
0,43,0,0,0,0,0,0,0,0,0,0,0,0,0,0,
0,43,0,0,0,0,0,0,0,0,0,0,0,0,0,0,
0,43,0,0,0,0,0,0,0,0,0,0,0,0,0,0,
0,83,0,0,0,0,0,0,0,0,0,0,0,0,0,0,
0,3,0,0,0,0,0,0,0,0,0,0,0,0,0,0
</chunk>
   <chunk x="16" y="16" width="16" height="16">
0,0,0,0,0,0,0,0,0,0,0,0,0,0,0,0,
0,0,0,0,0,0,0,0,0,0,0,0,0,0,0,0,
0,83,0,0,81,0,0,0,0,0,0,0,0,0,0,0,
0,0,0,0,0,0,0,0,0,0,0,0,0,0,0,0,
0,0,0,0,0,0,0,0,0,0,0,0,0,0,0,0,
0,0,0,0,0,0,0,0,0,0,0,0,0,0,0,0,
0,0,0,0,0,0,0,0,0,0,0,0,0,0,0,0,
0,0,0,0,0,0,0,0,0,0,0,0,0,0,0,0,
0,0,0,0,0,0,0,0,0,0,0,0,0,0,0,0,
0,0,0,0,0,0,0,0,0,0,0,0,0,0,0,0,
0,0,0,0,0,0,0,0,0,0,0,0,0,0,0,0,
0,0,0,0,0,0,0,0,0,0,0,0,0,0,0,0,
0,0,0,0,0,0,0,0,0,0,0,0,0,0,0,0,
0,0,0,0,0,0,0,0,0,0,0,0,0,0,0,0,
0,0,0,0,0,0,0,0,0,0,0,0,0,0,0,0,
0,0,0,0,0,0,0,0,0,0,0,0,0,0,0,0
</chunk>
   <chunk x="32" y="16" width="16" height="16">
0,43,0,0,0,0,0,0,0,0,0,0,0,0,0,0,
0,0,0,0,0,0,0,0,0,0,0,0,0,0,0,0,
0,0,0,0,0,0,0,0,0,0,0,0,0,0,0,0,
0,0,0,0,0,0,0,0,0,0,0,0,0,0,0,0,
0,0,0,0,0,0,0,0,0,0,0,0,0,0,0,0,
0,0,0,0,0,0,0,0,0,0,0,0,0,0,0,0,
0,0,0,0,0,0,0,0,0,0,0,0,0,0,0,0,
0,0,0,0,0,0,0,0,0,0,0,0,0,0,0,0,
0,0,0,0,0,0,0,0,0,0,0,0,0,0,0,0,
0,0,0,0,0,0,0,0,0,0,0,0,0,0,0,0,
0,0,0,0,0,0,0,0,0,0,0,0,0,0,0,0,
0,0,0,0,0,0,0,0,0,0,0,0,0,0,0,0,
0,0,0,0,0,0,0,0,0,0,0,0,0,0,0,0,
0,0,0,0,0,0,0,0,0,0,0,0,0,0,0,0,
0,0,0,0,0,0,0,0,0,0,0,0,0,0,0,0,
0,0,0,0,0,0,0,0,0,0,0,0,0,0,0,0
</chunk>
  </data>
 </layer>
 <layer id="9" name="TileMark" class="TileMark" width="30" height="20">
  <data encoding="csv">
   <chunk x="0" y="0" width="16" height="16">
0,0,0,0,0,0,0,0,0,0,0,0,0,0,0,0,
0,0,0,0,0,0,0,0,0,0,0,0,0,0,0,0,
0,0,0,0,0,0,0,0,0,0,0,0,0,0,0,0,
0,0,0,0,0,0,0,0,0,0,0,0,1601,1601,1601,1601,
0,0,0,0,0,0,0,0,0,0,0,0,1601,0,0,0,
0,0,0,0,0,0,0,0,0,0,0,0,1601,0,0,0,
0,0,0,0,0,0,0,0,0,0,0,0,1601,1601,1601,1601,
0,0,0,0,0,1601,1601,1601,1601,1601,1601,1601,1601,1601,1601,0,
0,0,0,0,0,1601,0,0,0,0,0,0,1601,0,0,0,
0,0,0,0,0,1601,1601,1601,1601,1601,1601,1601,1601,0,0,0,
0,0,0,0,0,1601,0,1601,1601,1601,1601,1601,1601,0,0,0,
0,0,0,0,0,1601,0,0,0,0,0,0,0,0,0,0,
0,0,0,0,0,1601,1601,1601,0,0,0,0,0,0,0,0,
0,0,0,0,0,1601,1601,1601,0,0,0,1601,1601,0,0,0,
0,0,0,0,0,1601,0,0,0,0,0,1601,1601,0,0,0,
0,0,0,0,0,1601,1601,1601,1601,1601,1601,1601,1601,0,0,0
</chunk>
   <chunk x="16" y="0" width="16" height="16">
0,0,0,0,0,0,0,0,0,0,0,0,0,0,0,0,
0,0,0,0,0,0,0,0,0,0,0,0,0,0,0,0,
0,0,0,0,0,0,0,0,0,0,0,0,0,0,0,0,
1601,1601,1601,1601,1601,1601,1601,1601,1601,1601,1601,1601,1601,1601,1601,1601,
0,0,0,0,0,0,0,0,0,0,0,0,0,0,0,0,
0,0,0,0,0,0,0,0,0,0,0,0,0,0,0,0,
1601,1601,1601,1601,1601,1601,1601,1601,1601,1601,1601,1601,1601,1601,1601,1601,
0,1601,1601,0,0,0,1601,0,0,1601,0,0,0,1601,1601,0,
0,1601,1601,0,0,0,0,0,0,1601,0,0,1601,0,0,0,
1601,1601,1601,1601,0,0,0,0,0,1601,0,0,1601,0,0,0,
0,0,0,0,0,0,0,0,0,0,0,0,0,0,0,0,
0,0,0,0,0,0,0,0,0,0,0,0,0,0,0,1601,
0,0,0,0,0,0,0,0,0,0,0,0,0,0,0,0,
0,0,0,0,0,0,0,0,0,0,0,0,0,0,0,0,
0,0,0,0,0,0,0,0,0,0,0,0,0,0,0,0,
0,0,0,0,0,0,0,0,0,0,0,0,0,0,0,0
</chunk>
   <chunk x="32" y="0" width="16" height="16">
0,0,0,0,0,0,0,0,0,0,0,0,0,0,0,0,
0,0,0,0,0,0,0,0,0,0,0,0,0,0,0,0,
0,0,0,0,0,0,0,0,0,0,0,0,0,0,0,0,
1601,1601,0,0,0,0,0,0,0,0,0,0,0,0,0,0,
0,1601,0,0,0,0,0,0,0,0,0,0,0,0,0,0,
0,1601,0,0,0,0,0,0,0,0,0,0,0,0,0,0,
1601,1601,0,0,0,0,0,0,0,0,0,0,0,0,0,0,
1601,1601,0,0,0,0,0,0,0,0,0,0,0,0,0,0,
0,1601,0,0,0,0,0,0,0,0,0,0,0,0,0,0,
0,1601,0,0,0,0,0,0,0,0,0,0,0,0,0,0,
0,1601,1601,1601,1601,1601,1601,1601,1601,1601,0,0,0,0,0,0,
1601,1601,0,0,0,0,0,0,0,1601,0,0,0,0,0,0,
0,1601,0,0,1601,1601,1601,1601,1601,1601,0,0,0,0,0,0,
0,1601,1601,1601,1601,0,1601,0,1601,1601,0,0,0,0,0,0,
0,0,0,0,0,0,0,0,0,1601,0,0,0,0,0,0,
0,0,0,0,0,0,0,0,0,1601,0,0,0,0,0,0
</chunk>
   <chunk x="0" y="16" width="16" height="16">
0,0,0,0,0,0,0,0,0,0,0,0,1601,0,0,0,
0,0,0,0,0,0,0,0,0,0,0,0,1601,0,0,0,
0,0,0,0,0,0,0,0,0,0,0,0,1601,1601,1601,1601,
0,0,0,0,0,0,0,0,0,0,0,0,0,0,0,0,
0,0,0,0,0,0,0,0,0,0,0,0,0,0,0,0,
0,0,0,0,0,0,0,0,0,0,0,0,0,0,0,0,
0,0,0,0,0,0,0,0,0,0,0,0,0,0,0,0,
0,0,0,0,0,0,0,0,0,0,0,0,0,0,0,0,
0,0,0,0,0,0,0,0,0,0,0,0,0,0,0,0,
0,0,0,0,0,0,0,0,0,0,0,0,0,0,0,0,
0,0,0,0,0,0,0,0,0,0,0,0,0,0,0,0,
0,0,0,0,0,0,0,0,0,0,0,0,0,0,0,0,
0,0,0,0,0,0,0,0,0,0,0,0,0,0,0,0,
0,0,0,0,0,0,0,0,0,0,0,0,0,0,0,0,
0,0,0,0,0,0,0,0,0,0,0,0,0,0,0,0,
0,0,0,0,0,0,0,0,0,0,0,0,0,0,0,0
</chunk>
   <chunk x="16" y="16" width="16" height="16">
0,0,0,0,0,0,0,0,0,0,0,0,0,0,0,0,
0,0,0,0,0,0,0,0,0,0,0,0,0,0,0,0,
1601,0,0,0,0,1601,1601,1601,1601,1601,1601,1601,1601,1601,1601,1601,
1601,1601,1601,1601,1601,1601,0,0,0,0,0,0,0,0,0,0,
0,0,0,0,0,0,0,0,0,0,0,0,0,0,0,0,
0,0,0,0,0,0,0,0,0,0,0,0,0,0,0,0,
0,0,0,0,0,0,0,0,0,0,0,0,0,0,0,0,
0,0,0,0,0,0,0,0,0,0,0,0,0,0,0,0,
0,0,0,0,0,0,0,0,0,0,0,0,0,0,0,0,
0,0,0,0,0,0,0,0,0,0,0,0,0,0,0,0,
0,0,0,0,0,0,0,0,0,0,0,0,0,0,0,0,
0,0,0,0,0,0,0,0,0,0,0,0,0,0,0,0,
0,0,0,0,0,0,0,0,0,0,0,0,0,0,0,0,
0,0,0,0,0,0,0,0,0,0,0,0,0,0,0,0,
0,0,0,0,0,0,0,0,0,0,0,0,0,0,0,0,
0,0,0,0,0,0,0,0,0,0,0,0,0,0,0,0
</chunk>
   <chunk x="32" y="16" width="16" height="16">
0,1601,0,0,0,0,0,1601,1601,1601,0,0,0,0,0,0,
0,1601,1601,1601,1601,1601,1601,1601,1601,1601,0,0,0,0,0,0,
1601,1601,0,0,0,0,0,0,0,0,0,0,0,0,0,0,
0,0,0,0,0,0,0,0,0,0,0,0,0,0,0,0,
0,0,0,0,0,0,0,0,0,0,0,0,0,0,0,0,
0,0,0,0,0,0,0,0,0,0,0,0,0,0,0,0,
0,0,0,0,0,0,0,0,0,0,0,0,0,0,0,0,
0,0,0,0,0,0,0,0,0,0,0,0,0,0,0,0,
0,0,0,0,0,0,0,0,0,0,0,0,0,0,0,0,
0,0,0,0,0,0,0,0,0,0,0,0,0,0,0,0,
0,0,0,0,0,0,0,0,0,0,0,0,0,0,0,0,
0,0,0,0,0,0,0,0,0,0,0,0,0,0,0,0,
0,0,0,0,0,0,0,0,0,0,0,0,0,0,0,0,
0,0,0,0,0,0,0,0,0,0,0,0,0,0,0,0,
0,0,0,0,0,0,0,0,0,0,0,0,0,0,0,0,
0,0,0,0,0,0,0,0,0,0,0,0,0,0,0,0
</chunk>
  </data>
 </layer>
</map>
