<?xml version="1.0" encoding="UTF-8"?>
<map version="1.10" tiledversion="1.11.1" orientation="orthogonal" renderorder="right-down" width="30" height="20" tilewidth="16" tileheight="16" infinite="1" nextlayerid="10" nextobjectid="1">
 <tileset firstgid="1" source="OutsideTileset.tsx"/>
 <tileset firstgid="4051" source="TileMark.tsx"/>
 <layer id="1" name="BaseGround" width="30" height="20">
  <data encoding="csv">
   <chunk x="0" y="0" width="16" height="16">
164,164,164,164,164,164,164,164,164,164,164,164,164,164,164,164,
164,164,164,164,164,164,164,164,164,164,164,164,164,164,164,164,
164,164,164,164,164,164,164,164,164,164,164,164,164,164,164,164,
164,164,164,164,164,164,164,164,164,164,164,164,164,164,164,164,
164,164,164,164,164,164,164,164,164,164,164,164,164,164,164,164,
164,164,164,164,164,164,164,164,164,164,164,164,164,164,164,164,
164,164,164,164,164,164,164,164,164,164,164,164,164,164,164,164,
164,164,164,164,164,164,164,164,164,164,164,164,164,164,164,164,
164,164,164,164,164,164,164,164,164,164,164,164,164,164,164,164,
164,164,164,164,164,164,164,164,164,164,164,164,164,164,164,164,
164,164,164,164,164,164,164,164,164,164,164,164,164,164,164,164,
164,164,164,164,164,164,164,164,164,164,164,164,164,164,164,164,
164,164,164,164,164,164,164,164,164,164,164,164,164,164,164,164,
164,164,164,164,164,164,164,164,164,164,164,164,164,164,164,164,
164,164,164,164,164,164,164,164,164,164,164,164,164,164,164,164,
164,164,164,164,164,164,164,164,164,164,164,164,164,164,164,164
</chunk>
   <chunk x="16" y="0" width="16" height="16">
164,164,164,164,164,164,164,164,164,164,164,164,164,164,164,164,
164,164,164,164,164,164,164,164,164,164,164,164,164,164,164,164,
164,164,164,164,164,164,164,164,164,164,164,164,164,164,164,164,
164,164,164,164,164,164,164,164,164,164,164,164,164,164,164,164,
164,164,164,164,164,164,164,164,164,164,164,164,164,164,164,164,
164,164,164,164,164,164,164,164,164,164,164,164,164,164,164,164,
164,164,164,164,164,164,164,164,164,164,164,164,164,164,164,164,
164,164,164,164,164,164,164,164,164,164,164,164,164,164,164,164,
164,164,164,164,164,164,164,164,164,164,164,164,164,164,164,164,
164,164,164,164,164,164,164,164,164,164,164,164,164,164,164,164,
164,164,164,164,164,164,164,164,164,164,164,164,164,164,164,164,
164,164,164,164,164,164,164,164,164,164,164,164,164,164,164,164,
164,164,164,164,164,164,164,164,164,164,164,164,164,164,164,164,
164,164,164,164,164,164,164,164,164,164,164,164,164,164,164,164,
164,164,164,164,164,164,164,164,164,164,164,164,164,164,164,164,
164,164,164,164,164,164,164,164,164,164,164,164,164,164,164,164
</chunk>
   <chunk x="32" y="0" width="16" height="16">
164,164,164,164,164,164,164,164,164,164,164,164,164,164,164,164,
164,164,164,164,164,164,164,164,164,164,164,164,164,164,164,164,
164,164,164,164,164,164,164,164,164,164,164,164,164,164,164,164,
164,164,164,164,164,164,164,164,164,164,164,164,164,164,164,164,
164,164,164,164,164,164,164,164,164,164,164,164,164,164,164,164,
164,164,164,164,164,164,164,164,164,164,164,164,164,164,164,164,
164,164,164,164,164,164,164,164,164,164,164,164,164,164,164,164,
164,164,164,164,164,164,164,164,164,164,164,164,164,164,164,164,
164,164,164,164,164,164,164,164,164,164,164,164,164,164,164,164,
164,164,164,164,164,164,164,164,164,164,164,164,164,164,164,164,
164,164,164,164,164,164,164,164,164,164,164,164,164,164,164,164,
164,164,164,164,164,164,164,164,164,164,164,164,164,164,164,164,
164,164,164,164,164,164,164,164,164,164,164,164,164,164,164,164,
164,164,164,164,164,164,164,164,164,164,164,164,164,164,164,164,
164,164,164,164,164,164,164,164,164,164,164,164,164,164,164,164,
164,164,164,164,164,164,164,164,164,164,164,164,164,164,164,164
</chunk>
   <chunk x="48" y="0" width="16" height="16">
164,164,164,164,164,164,164,164,164,164,164,164,164,164,164,164,
164,164,164,164,164,164,164,164,164,164,164,164,164,164,164,164,
164,164,164,164,164,164,164,164,164,164,164,164,164,164,164,164,
164,164,164,164,164,164,164,164,164,164,164,164,164,164,164,164,
164,164,164,164,164,164,164,164,164,164,164,164,164,164,164,164,
164,164,164,164,164,164,164,164,164,164,164,164,164,164,164,164,
164,164,164,164,164,164,164,164,164,164,164,164,164,164,164,164,
164,164,164,164,164,164,164,164,164,164,164,164,164,164,164,164,
164,164,164,164,164,164,164,164,164,164,164,164,164,164,164,164,
164,164,164,164,164,164,164,164,164,164,164,164,164,164,164,164,
164,164,164,164,164,164,164,164,164,164,164,164,164,164,164,164,
164,164,164,164,164,164,164,164,164,164,164,164,164,164,164,164,
164,164,164,164,164,164,164,164,164,164,164,164,164,164,164,164,
164,164,164,164,164,164,164,164,164,164,164,164,164,164,164,164,
164,164,164,164,164,164,164,164,164,164,164,164,164,164,164,164,
164,164,164,164,164,164,164,164,164,164,164,164,164,164,164,164
</chunk>
   <chunk x="64" y="0" width="16" height="16">
164,164,164,164,164,164,164,164,164,164,164,164,164,164,164,164,
164,164,164,164,164,164,164,164,164,164,164,164,164,164,164,164,
164,164,164,164,164,164,164,164,164,164,164,164,164,164,164,164,
164,164,164,164,164,164,164,164,164,164,164,164,164,164,164,164,
164,164,164,164,164,164,164,164,164,164,164,164,164,164,164,164,
164,164,164,164,164,164,164,164,164,164,164,164,164,164,164,164,
164,164,164,164,164,164,164,164,164,164,164,164,164,164,164,164,
164,164,164,164,164,164,164,164,164,164,164,164,164,164,164,164,
164,164,164,164,164,164,164,164,164,164,164,164,164,164,164,164,
164,164,164,164,164,164,164,164,164,164,164,164,164,164,164,164,
164,164,164,164,164,164,164,164,164,164,164,164,164,164,164,164,
164,164,164,164,164,164,164,164,164,164,164,164,164,164,164,164,
164,164,164,164,164,164,164,164,164,164,164,164,164,164,164,164,
164,164,164,164,164,164,164,164,164,164,164,164,164,164,164,164,
164,164,164,164,164,164,164,164,164,164,164,164,164,164,164,164,
164,164,164,164,164,164,164,164,164,164,164,164,164,164,164,164
</chunk>
   <chunk x="80" y="0" width="16" height="16">
164,164,164,164,164,164,164,164,164,164,164,164,164,164,164,164,
164,164,164,164,164,164,164,164,164,164,164,164,164,164,164,164,
164,164,164,164,164,164,164,164,164,164,164,164,164,164,164,164,
164,164,164,164,164,164,164,164,164,164,164,164,164,164,164,164,
164,164,164,164,164,164,164,164,164,164,164,164,164,164,164,164,
164,164,164,164,164,164,164,164,164,164,164,164,164,164,164,164,
164,164,164,164,164,164,164,164,164,164,164,164,164,164,164,164,
164,164,164,164,164,164,164,164,164,164,164,164,164,164,164,164,
164,164,164,164,164,164,164,164,164,164,164,164,164,164,164,164,
164,164,164,164,164,164,164,164,164,164,164,164,164,164,164,164,
164,164,164,164,164,164,164,164,164,164,164,164,164,164,164,164,
164,164,164,164,164,164,164,164,164,164,164,164,164,164,164,164,
164,164,164,164,164,164,164,164,164,164,164,164,164,164,164,164,
164,164,164,164,164,164,164,164,164,164,164,164,164,164,164,164,
164,164,164,164,164,164,164,164,164,164,164,164,164,164,164,164,
164,164,164,164,164,164,164,164,164,164,164,164,164,164,164,164
</chunk>
   <chunk x="96" y="0" width="16" height="16">
164,164,164,164,164,164,164,164,164,164,164,164,164,164,0,0,
164,164,164,164,164,164,164,164,164,164,164,164,164,164,0,0,
164,164,164,164,164,164,164,164,164,164,164,164,164,164,0,0,
164,164,164,164,164,164,164,164,164,164,164,164,164,164,0,0,
164,164,164,164,164,164,164,164,164,164,164,164,164,164,0,0,
164,164,164,164,164,164,164,164,164,164,164,164,164,164,0,0,
164,164,164,164,164,164,164,164,164,164,164,164,164,164,0,0,
164,164,164,164,164,164,164,164,164,164,164,164,164,164,0,0,
164,164,164,164,164,164,164,164,164,164,164,164,164,164,0,0,
164,164,164,164,164,164,164,164,164,164,164,164,164,164,0,0,
164,164,164,164,164,164,164,164,164,164,164,164,164,164,0,0,
164,164,164,164,164,164,164,164,164,164,164,164,164,164,0,0,
164,164,164,164,164,164,164,164,164,164,164,164,164,164,0,0,
164,164,164,164,164,164,164,164,164,164,164,164,164,164,0,0,
164,164,164,164,164,164,164,164,164,164,164,164,164,164,0,0,
164,164,164,164,164,164,164,164,164,164,164,164,164,164,0,0
</chunk>
   <chunk x="0" y="16" width="16" height="16">
164,164,164,164,164,164,164,164,164,164,164,164,164,164,164,164,
164,164,164,164,164,164,164,164,164,164,164,164,164,164,164,164,
164,164,164,164,164,164,164,164,164,164,164,164,164,164,164,164,
164,164,164,164,164,164,164,164,164,164,164,164,164,164,164,164,
164,164,164,164,164,164,164,164,164,164,164,164,164,164,164,164,
164,164,164,164,164,164,164,164,164,164,164,164,164,164,164,164,
164,164,164,164,164,164,164,164,164,164,164,164,164,164,164,164,
164,164,164,164,164,164,164,164,164,164,164,164,164,164,164,164,
164,164,164,164,164,164,164,164,164,164,164,164,164,164,164,164,
164,164,164,164,164,164,164,164,164,164,164,164,164,164,164,164,
164,164,164,164,164,164,164,164,164,164,164,164,164,164,164,164,
164,164,164,164,164,164,164,164,164,164,164,164,164,164,164,164,
164,164,164,164,164,164,164,164,164,164,164,164,164,164,164,164,
164,164,164,164,164,164,164,164,164,164,164,164,164,164,164,164,
164,164,164,164,164,164,164,164,164,164,164,164,164,164,164,164,
164,164,164,164,164,164,164,164,164,164,164,164,164,164,164,164
</chunk>
   <chunk x="16" y="16" width="16" height="16">
164,164,164,164,164,164,164,164,164,164,164,164,164,164,164,164,
164,164,164,164,164,164,164,164,164,164,164,164,164,164,164,164,
164,164,164,164,164,164,164,164,164,164,164,164,164,164,164,164,
164,164,164,164,164,164,164,164,164,164,164,164,164,164,164,164,
164,164,164,164,164,164,164,164,164,164,164,164,164,164,164,164,
164,164,164,164,164,164,164,164,164,164,164,164,164,164,164,164,
164,164,164,164,164,164,164,164,164,164,164,164,164,164,164,164,
164,164,164,164,164,164,164,164,164,164,164,164,164,164,164,164,
164,164,164,164,164,164,164,164,164,164,164,164,164,164,164,164,
164,164,164,164,164,164,164,164,164,164,164,164,164,164,164,164,
164,164,164,164,164,164,164,164,164,164,164,164,164,164,164,164,
164,164,164,164,164,164,164,164,164,164,164,164,164,164,164,164,
164,164,164,164,164,164,164,164,164,164,164,164,164,164,164,164,
164,164,164,164,164,164,164,164,164,164,164,164,164,164,164,164,
164,164,164,164,164,164,164,164,164,164,164,164,164,164,164,164,
164,164,164,164,164,164,164,164,164,164,164,164,164,164,164,164
</chunk>
   <chunk x="32" y="16" width="16" height="16">
164,164,164,164,164,164,164,164,164,164,164,164,164,164,164,164,
164,164,164,164,164,164,164,164,164,164,164,164,164,164,164,164,
164,164,164,164,164,164,164,164,164,164,164,164,164,164,164,164,
164,164,164,164,164,164,164,164,164,164,164,164,164,164,164,164,
164,164,164,164,164,164,164,164,164,164,164,164,164,164,164,164,
164,164,164,164,164,164,164,164,164,164,164,164,164,164,164,164,
164,164,164,164,164,164,164,164,164,164,164,164,164,164,164,164,
164,164,164,164,164,164,164,164,164,164,164,164,164,164,164,164,
164,164,164,164,164,164,164,164,164,164,164,164,164,164,164,164,
164,164,164,164,164,164,164,164,164,164,164,164,164,164,164,164,
164,164,164,164,164,164,164,164,164,164,164,164,164,164,164,164,
164,164,164,164,164,164,164,164,164,164,164,164,164,164,164,164,
164,164,164,164,164,164,164,164,164,164,164,164,164,164,164,164,
164,164,164,164,164,164,164,164,164,164,164,164,164,164,164,164,
164,164,164,164,164,164,164,164,164,164,164,164,164,164,164,164,
164,164,164,164,164,164,164,164,164,164,164,164,164,164,164,164
</chunk>
   <chunk x="48" y="16" width="16" height="16">
164,164,164,164,164,164,164,164,164,164,164,164,164,164,164,164,
164,164,164,164,164,164,164,164,164,164,164,164,164,164,164,164,
164,164,164,164,164,164,164,164,164,164,164,164,164,164,164,164,
164,164,164,164,164,164,164,164,164,164,164,164,164,164,164,164,
164,164,164,164,164,164,164,164,164,164,164,164,164,164,164,164,
164,164,164,164,164,164,164,164,164,164,164,164,164,164,164,164,
164,164,164,164,164,164,164,164,164,164,164,164,164,164,164,164,
164,164,164,164,164,164,164,164,164,164,164,164,164,164,164,164,
164,164,164,164,164,164,164,164,164,164,164,164,164,164,164,164,
164,164,164,164,164,164,164,164,164,164,164,164,164,164,164,164,
164,164,164,164,164,164,164,164,164,164,164,164,164,164,164,164,
164,164,164,164,164,164,164,164,164,164,164,164,164,164,164,164,
164,164,164,164,164,164,164,164,164,164,164,164,164,164,164,164,
164,164,164,164,164,164,164,164,164,164,164,164,164,164,164,164,
164,164,164,164,164,164,164,164,164,164,164,164,164,164,164,164,
164,164,164,164,164,164,164,164,164,164,164,164,164,164,164,164
</chunk>
   <chunk x="64" y="16" width="16" height="16">
164,164,164,164,164,164,164,164,164,164,164,164,164,164,164,164,
164,164,164,164,164,164,164,164,164,164,164,164,164,164,164,164,
164,164,164,164,164,164,164,164,164,164,164,164,164,164,164,164,
164,164,164,164,164,164,164,164,164,164,164,164,164,164,164,164,
164,164,164,164,164,164,164,164,164,164,164,164,164,164,164,164,
164,164,164,164,164,164,164,164,164,164,164,164,164,164,164,164,
164,164,164,164,164,164,164,164,164,164,164,164,164,164,164,164,
164,164,164,164,164,164,164,164,164,164,164,164,164,164,164,164,
164,164,164,164,164,164,164,164,164,164,164,164,164,164,164,164,
164,164,164,164,164,164,164,164,164,164,164,164,164,164,164,164,
164,164,164,164,164,164,164,164,164,164,164,164,164,164,164,164,
164,164,164,164,164,164,164,164,164,164,164,164,164,164,164,164,
164,164,164,164,164,164,164,164,164,164,164,164,164,164,164,164,
164,164,164,164,164,164,164,164,164,164,164,164,164,164,164,164,
164,164,164,164,164,164,164,164,164,164,164,164,164,164,164,164,
164,164,164,164,164,164,164,164,164,164,164,164,164,164,164,164
</chunk>
   <chunk x="80" y="16" width="16" height="16">
164,164,164,164,164,164,164,164,164,164,164,164,164,164,164,164,
164,164,164,164,164,164,164,164,164,164,164,164,164,164,164,164,
164,164,164,164,164,164,164,164,164,164,164,164,164,164,164,164,
164,164,164,164,164,164,164,164,164,164,164,164,164,164,164,164,
164,164,164,164,164,164,164,164,164,164,164,164,164,164,164,164,
164,164,164,164,164,164,164,164,164,164,164,164,164,164,164,164,
164,164,164,164,164,164,164,164,164,164,164,164,164,164,164,164,
164,164,164,164,164,164,164,164,164,164,164,164,164,164,164,164,
164,164,164,164,164,164,164,164,164,164,164,164,164,164,164,164,
164,164,164,164,164,164,164,164,164,164,164,164,164,164,164,164,
164,164,164,164,164,164,164,164,164,164,164,164,164,164,164,164,
164,164,164,164,164,164,164,164,164,164,164,164,164,164,164,164,
164,164,164,164,164,164,164,164,164,164,164,164,164,164,164,164,
164,164,164,164,164,164,164,164,164,164,164,164,164,164,164,164,
164,164,164,164,164,164,164,164,164,164,164,164,164,164,164,164,
164,164,164,164,164,164,164,164,164,164,164,164,164,164,164,164
</chunk>
   <chunk x="96" y="16" width="16" height="16">
164,164,164,164,164,164,164,164,164,164,164,164,164,164,0,0,
164,164,164,164,164,164,164,164,164,164,164,164,164,164,0,0,
164,164,164,164,164,164,164,164,164,164,164,164,164,164,0,0,
164,164,164,164,164,164,164,164,164,164,164,164,164,164,0,0,
164,164,164,164,164,164,164,164,164,164,164,164,164,164,0,0,
164,164,164,164,164,164,164,164,164,164,164,164,164,164,0,0,
164,164,164,164,164,164,164,164,164,164,164,164,164,164,0,0,
164,164,164,164,164,164,164,164,164,164,164,164,164,164,0,0,
164,164,164,164,164,164,164,164,164,164,164,164,164,164,0,0,
164,164,164,164,164,164,164,164,164,164,164,164,164,164,0,0,
164,164,164,164,164,164,164,164,164,164,164,164,164,164,0,0,
164,164,164,164,164,164,164,164,164,164,164,164,164,164,0,0,
164,164,164,164,164,164,164,164,164,164,164,164,164,164,0,0,
164,164,164,164,164,164,164,164,164,164,164,164,164,164,0,0,
164,164,164,164,164,164,164,164,164,164,164,164,164,164,0,0,
164,164,164,164,164,164,164,164,164,164,164,164,164,164,0,0
</chunk>
   <chunk x="0" y="32" width="16" height="16">
164,164,164,164,164,164,164,164,164,164,164,164,164,164,164,164,
164,164,164,164,164,164,164,164,164,164,164,164,164,164,164,164,
164,164,164,164,164,164,164,164,164,164,164,164,164,164,164,164,
164,164,164,164,164,164,164,164,164,164,164,164,164,164,164,164,
164,164,164,164,164,164,164,164,164,164,164,164,164,164,164,164,
164,164,164,164,164,164,164,164,164,164,164,164,164,164,164,164,
164,164,164,164,164,164,164,164,164,164,164,164,164,164,164,164,
164,164,164,164,164,164,164,164,164,164,164,164,164,164,164,164,
164,164,164,164,164,164,164,164,164,164,164,164,164,164,164,164,
164,164,164,164,164,164,164,164,164,164,164,164,164,164,164,164,
164,164,164,164,164,164,164,164,164,164,164,164,164,164,164,164,
164,164,164,164,164,164,164,164,164,164,164,164,164,164,164,164,
164,164,164,164,164,164,164,164,164,164,164,164,164,164,164,164,
164,164,164,164,164,164,164,164,164,164,164,164,164,164,164,164,
164,164,164,164,164,164,164,164,164,164,164,164,164,164,164,164,
164,164,164,164,164,164,164,164,164,164,164,164,164,164,164,164
</chunk>
   <chunk x="16" y="32" width="16" height="16">
164,164,164,164,164,164,164,164,164,164,164,164,164,164,164,164,
164,164,164,164,164,164,164,164,164,164,164,164,164,164,164,164,
164,164,164,164,164,164,164,164,164,164,164,164,164,164,164,164,
164,164,164,164,164,164,164,164,164,164,164,164,164,164,164,164,
164,164,164,164,164,164,164,164,164,164,164,164,164,164,164,164,
164,164,164,164,164,164,164,164,164,164,164,164,164,164,164,164,
164,164,164,164,164,164,164,164,164,164,164,164,164,164,164,164,
164,164,164,164,164,164,164,164,164,164,164,164,164,164,164,164,
164,164,164,164,164,164,164,164,164,164,164,164,164,164,164,164,
164,164,164,164,164,164,164,164,164,164,164,164,164,164,164,164,
164,164,164,164,164,164,164,164,164,164,164,164,164,164,164,164,
164,164,164,164,164,164,164,164,164,164,164,164,164,164,164,164,
164,164,164,164,164,164,164,164,164,164,164,164,164,164,164,164,
164,164,164,164,164,164,164,164,164,164,164,164,164,164,164,164,
164,164,164,164,164,164,164,164,164,164,164,164,164,164,164,164,
164,164,164,164,164,164,164,164,164,164,164,164,164,164,164,164
</chunk>
   <chunk x="32" y="32" width="16" height="16">
164,164,164,164,164,164,164,164,164,164,164,164,164,164,164,164,
164,164,164,164,164,164,164,164,164,164,164,164,164,164,164,164,
164,164,164,164,164,164,164,164,164,164,164,164,164,164,164,164,
164,164,164,164,164,164,164,164,164,164,164,164,164,164,164,164,
164,164,164,164,164,164,164,164,164,164,164,164,164,164,164,164,
164,164,164,164,164,164,164,164,164,164,164,164,164,164,164,164,
164,164,164,164,164,164,164,164,164,164,164,164,164,164,164,164,
164,164,164,164,164,164,164,164,164,164,164,164,164,164,164,164,
164,164,164,164,164,164,164,164,164,164,164,164,164,164,164,164,
164,164,164,164,164,164,164,164,164,164,164,164,164,164,164,164,
164,164,164,164,164,164,164,164,164,164,164,164,164,164,164,164,
164,164,164,164,164,164,164,164,164,164,164,164,164,164,164,164,
164,164,164,164,164,164,164,164,164,164,164,164,164,164,164,164,
164,164,164,164,164,164,164,164,164,164,164,164,164,164,164,164,
164,164,164,164,164,164,164,164,164,164,164,164,164,164,164,164,
164,164,164,164,164,164,164,164,164,164,164,164,164,164,164,164
</chunk>
   <chunk x="48" y="32" width="16" height="16">
164,164,164,164,164,164,164,164,164,164,164,164,164,164,164,164,
164,164,164,164,164,164,164,164,164,164,164,164,164,164,164,164,
164,164,164,164,164,164,164,164,164,164,164,164,164,164,164,164,
164,164,164,164,164,164,164,164,164,164,164,164,164,164,164,164,
164,164,164,164,164,164,164,164,164,164,164,164,164,164,164,164,
164,164,164,164,164,164,164,164,164,164,164,164,164,164,164,164,
164,164,164,164,164,164,164,164,164,164,164,164,164,164,164,164,
164,164,164,164,164,164,164,164,164,164,164,164,164,164,164,164,
164,164,164,164,164,164,164,164,164,164,164,164,164,164,164,164,
164,164,164,164,164,164,164,164,164,164,164,164,164,164,164,164,
164,164,164,164,164,164,164,164,164,164,164,164,164,164,164,164,
164,164,164,164,164,164,164,164,164,164,164,164,164,164,164,164,
164,164,164,164,164,164,164,164,164,164,164,164,164,164,164,164,
164,164,164,164,164,164,164,164,164,164,164,164,164,164,164,164,
164,164,164,164,164,164,164,164,164,164,164,164,164,164,164,164,
164,164,164,164,164,164,164,164,164,164,164,164,164,164,164,164
</chunk>
   <chunk x="64" y="32" width="16" height="16">
164,164,164,164,164,164,164,164,164,164,164,164,164,164,164,164,
164,164,164,164,164,164,164,164,164,164,164,164,164,164,164,164,
164,164,164,164,164,164,164,164,164,164,164,164,164,164,164,164,
164,164,164,164,164,164,164,164,164,164,164,164,164,164,164,164,
164,164,164,164,164,164,164,164,164,164,164,164,164,164,164,164,
164,164,164,164,164,164,164,164,164,164,164,164,164,164,164,164,
164,164,164,164,164,164,164,164,164,164,164,164,164,164,164,164,
164,164,164,164,164,164,164,164,164,164,164,164,164,164,164,164,
164,164,164,164,164,164,164,164,164,164,164,164,164,164,164,164,
164,164,164,164,164,164,164,164,164,164,164,164,164,164,164,164,
164,164,164,164,164,164,164,164,164,164,164,164,164,164,164,164,
164,164,164,164,164,164,164,164,164,164,164,164,164,164,164,164,
164,164,164,164,164,164,164,164,164,164,164,164,164,164,164,164,
164,164,164,164,164,164,164,164,164,164,164,164,164,164,164,164,
164,164,164,164,164,164,164,164,164,164,164,164,164,164,164,164,
164,164,164,164,164,164,164,164,164,164,164,164,164,164,164,164
</chunk>
   <chunk x="80" y="32" width="16" height="16">
164,164,164,164,164,164,164,164,164,164,164,164,164,164,164,164,
164,164,164,164,164,164,164,164,164,164,164,164,164,164,164,164,
164,164,164,164,164,164,164,164,164,164,164,164,164,164,164,164,
164,164,164,164,164,164,164,164,164,164,164,164,164,164,164,164,
164,164,164,164,164,164,164,164,164,164,164,164,164,164,164,164,
164,164,164,164,164,164,164,164,164,164,164,164,164,164,164,164,
164,164,164,164,164,164,164,164,164,164,164,164,164,164,164,164,
164,164,164,164,164,164,164,164,164,164,164,164,164,164,164,164,
164,164,164,164,164,164,164,164,164,164,164,164,164,164,164,164,
164,164,164,164,164,164,164,164,164,164,164,164,164,164,164,164,
164,164,164,164,164,164,164,164,164,164,164,164,164,164,164,164,
164,164,164,164,164,164,164,164,164,164,164,164,164,164,164,164,
164,164,164,164,164,164,164,164,164,164,164,164,164,164,164,164,
164,164,164,164,164,164,164,164,164,164,164,164,164,164,164,164,
164,164,164,164,164,164,164,164,164,164,164,164,164,164,164,164,
164,164,164,164,164,164,164,164,164,164,164,164,164,164,164,164
</chunk>
   <chunk x="96" y="32" width="16" height="16">
164,164,164,164,164,164,164,164,164,164,164,164,164,164,0,0,
164,164,164,164,164,164,164,164,164,164,164,164,164,164,0,0,
164,164,164,164,164,164,164,164,164,164,164,164,164,164,0,0,
164,164,164,164,164,164,164,164,164,164,164,164,164,164,0,0,
164,164,164,164,164,164,164,164,164,164,164,164,164,164,0,0,
164,164,164,164,164,164,164,164,164,164,164,164,164,164,0,0,
164,164,164,164,164,164,164,164,164,164,164,164,164,164,0,0,
164,164,164,164,164,164,164,164,164,164,164,164,164,164,0,0,
164,164,164,164,164,164,164,164,164,164,164,164,164,164,0,0,
164,164,164,164,164,164,164,164,164,164,164,164,164,164,0,0,
164,164,164,164,164,164,164,164,164,164,164,164,164,164,0,0,
164,164,164,164,164,164,164,164,164,164,164,164,164,164,0,0,
164,164,164,164,164,164,164,164,164,164,164,164,164,164,0,0,
164,164,164,164,164,164,164,164,164,164,164,164,164,164,0,0,
164,164,164,164,164,164,164,164,164,164,164,164,164,164,0,0,
164,164,164,164,164,164,164,164,164,164,164,164,164,164,0,0
</chunk>
   <chunk x="0" y="48" width="16" height="16">
164,164,164,164,164,164,164,164,164,164,164,164,164,164,164,164,
164,164,164,164,164,164,164,164,164,164,164,164,164,164,164,164,
164,164,164,164,164,164,164,164,164,164,164,164,164,164,164,164,
164,164,164,164,164,164,164,164,164,164,164,164,164,164,164,164,
164,164,164,164,164,164,164,164,164,164,164,164,164,164,164,164,
164,164,164,164,164,164,164,164,164,164,164,164,164,164,164,164,
164,164,164,164,164,164,164,164,164,164,164,164,164,164,164,164,
164,164,164,164,164,164,164,164,164,164,164,164,164,164,164,164,
164,164,164,164,164,164,164,164,164,164,164,164,164,164,164,164,
164,164,164,164,164,164,164,164,164,164,164,164,164,164,164,164,
164,164,164,164,164,164,164,164,164,164,164,164,164,164,164,164,
164,164,164,164,164,164,164,164,164,164,164,164,164,164,164,164,
164,164,164,164,164,164,164,164,164,164,164,164,164,164,164,164,
164,164,164,164,164,164,164,164,164,164,164,164,164,164,164,164,
164,164,164,164,164,164,164,164,164,164,164,164,164,164,164,164,
164,164,164,164,164,164,164,164,164,164,164,164,164,164,164,164
</chunk>
   <chunk x="16" y="48" width="16" height="16">
164,164,164,164,164,164,164,164,164,164,164,164,164,164,164,164,
164,164,164,164,164,164,164,164,164,164,164,164,164,164,164,164,
164,164,164,164,164,164,164,164,164,164,164,164,164,164,164,164,
164,164,164,164,164,164,164,164,164,164,164,164,164,164,164,164,
164,164,164,164,164,164,164,164,164,164,164,164,164,164,164,164,
164,164,164,164,164,164,164,164,164,164,164,164,164,164,164,164,
164,164,164,164,164,164,164,164,164,164,164,164,164,164,164,164,
164,164,164,164,164,164,164,164,164,164,164,164,164,164,164,164,
164,164,164,164,164,164,164,164,164,164,164,164,164,164,164,164,
164,164,164,164,164,164,164,164,164,164,164,164,164,164,164,164,
164,164,164,164,164,164,164,164,164,164,164,164,164,164,164,164,
164,164,164,164,164,164,164,164,164,164,164,164,164,164,164,164,
164,164,164,164,164,164,164,164,164,164,164,164,164,164,164,164,
164,164,164,164,164,164,164,164,164,164,164,164,164,164,164,164,
164,164,164,164,164,164,164,164,164,164,164,164,164,164,164,164,
164,164,164,164,164,164,164,164,164,164,164,164,164,164,164,164
</chunk>
   <chunk x="32" y="48" width="16" height="16">
164,164,164,164,164,164,164,164,164,164,164,164,164,164,164,164,
164,164,164,164,164,164,164,164,164,164,164,164,164,164,164,164,
164,164,164,164,164,164,164,164,164,164,164,164,164,164,164,164,
164,164,164,164,164,164,164,164,164,164,164,164,164,164,164,164,
164,164,164,164,164,164,164,164,164,164,164,164,164,164,164,164,
164,164,164,164,164,164,164,164,164,164,164,164,164,164,164,164,
164,164,164,164,164,164,164,164,164,164,164,164,164,164,164,164,
164,164,164,164,164,164,164,164,164,164,164,164,164,164,164,164,
164,164,164,164,164,164,164,164,164,164,164,164,164,164,164,164,
164,164,164,164,164,164,164,164,164,164,164,164,164,164,164,164,
164,164,164,164,164,164,164,164,164,164,164,164,164,164,164,164,
164,164,164,164,164,164,164,164,164,164,164,164,164,164,164,164,
164,164,164,164,164,164,164,164,164,164,164,164,164,164,164,164,
164,164,164,164,164,164,164,164,164,164,164,164,164,164,164,164,
164,164,164,164,164,164,164,164,164,164,164,164,164,164,164,164,
164,164,164,164,164,164,164,164,164,164,164,164,164,164,164,164
</chunk>
   <chunk x="48" y="48" width="16" height="16">
164,164,164,164,164,164,164,164,164,164,164,164,164,164,164,164,
164,164,164,164,164,164,164,164,164,164,164,164,164,164,164,164,
164,164,164,164,164,164,164,164,164,164,164,164,164,164,164,164,
164,164,164,164,164,164,164,164,164,164,164,164,164,164,164,164,
164,164,164,164,164,164,164,164,164,164,164,164,164,164,164,164,
164,164,164,164,164,164,164,164,164,164,164,164,164,164,164,164,
164,164,164,164,164,164,164,164,164,164,164,164,164,164,164,164,
164,164,164,164,164,164,164,164,164,164,164,164,164,164,164,164,
164,164,164,164,164,164,164,164,164,164,164,164,164,164,164,164,
164,164,164,164,164,164,164,164,164,164,164,164,164,164,164,164,
164,164,164,164,164,164,164,164,164,164,164,164,164,164,164,164,
164,164,164,164,164,164,164,164,164,164,164,164,164,164,164,164,
164,164,164,164,164,164,164,164,164,164,164,164,164,164,164,164,
164,164,164,164,164,164,164,164,164,164,164,164,164,164,164,164,
164,164,164,164,164,164,164,164,164,164,164,164,164,164,164,164,
164,164,164,164,164,164,164,164,164,164,164,164,164,164,164,164
</chunk>
   <chunk x="64" y="48" width="16" height="16">
164,164,164,164,164,164,164,164,164,164,164,164,164,164,164,164,
164,164,164,164,164,164,164,164,164,164,164,164,164,164,164,164,
164,164,164,164,164,164,164,164,164,164,164,164,164,164,164,164,
164,164,164,164,164,164,164,164,164,164,164,164,164,164,164,164,
164,164,164,164,164,164,164,164,164,164,164,164,164,164,164,164,
164,164,164,164,164,164,164,164,164,164,164,164,164,164,164,164,
164,164,164,164,164,164,164,164,164,164,164,164,164,164,164,164,
164,164,164,164,164,164,164,164,164,164,164,164,164,164,164,164,
164,164,164,164,164,164,164,164,164,164,164,164,164,164,164,164,
164,164,164,164,164,164,164,164,164,164,164,164,164,164,164,164,
164,164,164,164,164,164,164,164,164,164,164,164,164,164,164,164,
164,164,164,164,164,164,164,164,164,164,164,164,164,164,164,164,
164,164,164,164,164,164,164,164,164,164,164,164,164,164,164,164,
164,164,164,164,164,164,164,164,164,164,164,164,164,164,164,164,
164,164,164,164,164,164,164,164,164,164,164,164,164,164,164,164,
164,164,164,164,164,164,164,164,164,164,164,164,164,164,164,164
</chunk>
   <chunk x="80" y="48" width="16" height="16">
164,164,164,164,164,164,164,164,164,164,164,164,164,164,164,164,
164,164,164,164,164,164,164,164,164,164,164,164,164,164,164,164,
164,164,164,164,164,164,164,164,164,164,164,164,164,164,164,164,
164,164,164,164,164,164,164,164,164,164,164,164,164,164,164,164,
164,164,164,164,164,164,164,164,164,164,164,164,164,164,164,164,
164,164,164,164,164,164,164,164,164,164,164,164,164,164,164,164,
164,164,164,164,164,164,164,164,164,164,164,164,164,164,164,164,
164,164,164,164,164,164,164,164,164,164,164,164,164,164,164,164,
164,164,164,164,164,164,164,164,164,164,164,164,164,164,164,164,
164,164,164,164,164,164,164,164,164,164,164,164,164,164,164,164,
164,164,164,164,164,164,164,164,164,164,164,164,164,164,164,164,
164,164,164,164,164,164,164,164,164,164,164,164,164,164,164,164,
164,164,164,164,164,164,164,164,164,164,164,164,164,164,164,164,
164,164,164,164,164,164,164,164,164,164,164,164,164,164,164,164,
164,164,164,164,164,164,164,164,164,164,164,164,164,164,164,164,
164,164,164,164,164,164,164,164,164,164,164,164,164,164,164,164
</chunk>
   <chunk x="96" y="48" width="16" height="16">
164,164,164,164,164,164,164,164,164,164,164,164,164,164,0,0,
164,164,164,164,164,164,164,164,164,164,164,164,164,164,0,0,
164,164,164,164,164,164,164,164,164,164,164,164,164,164,0,0,
164,164,164,164,164,164,164,164,164,164,164,164,164,164,0,0,
164,164,164,164,164,164,164,164,164,164,164,164,164,164,0,0,
164,164,164,164,164,164,164,164,164,164,164,164,164,164,0,0,
164,164,164,164,164,164,164,164,164,164,164,164,164,164,0,0,
164,164,164,164,164,164,164,164,164,164,164,164,164,164,0,0,
164,164,164,164,164,164,164,164,164,164,164,164,164,164,0,0,
164,164,164,164,164,164,164,164,164,164,164,164,164,164,0,0,
164,164,164,164,164,164,164,164,164,164,164,164,164,164,0,0,
164,164,164,164,164,164,164,164,164,164,164,164,164,164,0,0,
164,164,164,164,164,164,164,164,164,164,164,164,164,164,0,0,
164,164,164,164,164,164,164,164,164,164,164,164,164,164,0,0,
164,164,164,164,164,164,164,164,164,164,164,164,164,164,0,0,
164,164,164,164,164,164,164,164,164,164,164,164,164,164,0,0
</chunk>
  </data>
 </layer>
 <layer id="5" name="Water" width="30" height="20">
  <data encoding="csv"/>
 </layer>
 <layer id="3" name="GroundDecoration" width="30" height="20">
  <data encoding="csv">
   <chunk x="0" y="0" width="16" height="16">
162,162,162,162,162,162,162,162,162,162,162,162,162,162,162,162,
162,162,162,162,162,162,162,162,162,162,162,162,162,162,162,162,
162,162,162,162,162,162,162,162,162,162,162,162,162,162,162,162,
162,162,162,162,162,162,162,162,162,162,162,162,162,162,162,162,
162,162,162,162,162,162,162,162,162,162,162,162,162,162,162,162,
162,162,162,162,162,162,162,162,162,162,162,162,162,162,162,162,
12,12,12,12,12,12,12,12,12,12,12,12,12,12,12,12,
87,87,87,87,87,87,87,87,87,87,87,87,87,87,87,87,
0,0,0,0,0,0,0,0,0,0,0,0,0,0,0,0,
0,0,0,0,0,0,0,0,0,0,0,0,0,0,0,0,
0,0,0,0,0,0,0,0,0,0,0,0,0,0,0,0,
0,0,0,0,0,0,0,0,0,0,0,0,0,0,0,0,
0,0,0,0,0,0,0,0,0,0,0,0,0,0,0,0,
0,0,0,0,231,0,0,0,0,0,0,0,0,0,0,0,
0,0,0,0,0,0,0,0,0,0,0,0,0,0,0,0,
0,0,0,0,0,0,0,0,0,0,0,0,0,0,0,0
</chunk>
   <chunk x="16" y="0" width="16" height="16">
162,162,162,162,162,162,162,162,162,162,162,162,162,162,162,162,
162,162,162,162,162,162,162,162,162,162,162,162,162,162,162,162,
162,162,162,162,162,162,162,162,162,162,162,162,162,162,162,162,
162,162,162,162,162,162,162,162,162,162,162,162,162,162,162,162,
162,162,162,162,162,162,162,162,162,162,162,162,162,162,162,162,
162,162,162,162,162,162,162,162,162,162,162,162,162,162,162,162,
12,12,12,12,12,12,12,12,12,12,12,12,12,12,12,12,
87,87,87,87,87,87,87,87,87,87,87,87,87,87,87,87,
0,0,0,0,0,0,0,0,0,0,0,0,0,0,0,0,
0,0,0,0,0,0,0,0,0,0,0,0,0,0,0,0,
0,0,0,0,0,0,0,0,0,0,0,0,0,0,0,0,
0,0,0,0,0,235,0,0,0,0,0,0,0,0,0,0,
0,0,0,0,0,0,0,0,0,0,0,0,0,0,0,0,
0,0,0,0,0,0,0,0,0,0,0,0,0,0,0,0,
0,0,0,0,0,0,0,0,0,0,0,0,0,0,0,0,
0,0,0,0,0,0,0,0,0,0,0,0,0,0,0,0
</chunk>
   <chunk x="32" y="0" width="16" height="16">
162,162,162,162,162,162,162,162,162,162,162,162,162,162,162,162,
162,162,162,162,162,162,162,162,162,162,162,162,162,162,162,162,
162,162,162,162,162,162,162,162,162,162,162,162,162,162,162,162,
162,162,162,162,162,162,162,162,162,162,162,162,162,162,162,162,
162,162,162,162,162,162,162,162,162,162,162,162,162,162,162,162,
162,162,162,162,162,162,162,162,162,162,162,162,162,162,162,162,
12,12,12,12,12,12,12,12,12,12,12,12,12,12,12,12,
87,87,87,87,87,87,87,87,87,87,87,87,87,87,87,87,
0,0,0,0,0,0,0,0,0,0,0,0,0,0,0,0,
0,0,0,0,0,0,0,0,0,0,231,0,0,0,0,0,
0,0,0,0,0,0,0,0,0,0,0,0,0,0,0,0,
231,0,0,0,0,0,0,0,0,0,0,0,0,0,0,0,
0,0,0,0,0,0,0,0,0,0,0,0,0,0,0,0,
0,0,0,0,0,0,0,0,0,0,0,0,0,0,0,0,
0,0,0,0,0,0,0,0,0,0,0,0,0,0,0,0,
0,0,0,0,0,0,0,0,0,0,0,0,0,0,0,0
</chunk>
   <chunk x="48" y="0" width="16" height="16">
162,162,162,162,162,162,162,162,162,162,162,162,162,162,162,162,
162,162,162,162,162,162,162,162,162,162,162,162,162,162,162,162,
162,162,162,162,162,162,162,162,162,162,162,162,162,162,162,162,
162,162,162,162,162,162,162,162,162,162,162,162,162,162,162,162,
162,162,162,162,162,162,162,162,162,162,162,162,162,162,162,162,
162,162,162,162,162,162,162,162,162,162,162,162,162,162,162,162,
12,12,12,12,12,12,12,12,12,12,12,12,12,12,12,12,
87,87,87,87,87,87,87,87,87,87,87,87,87,87,87,87,
0,0,0,0,0,0,0,0,0,0,0,0,0,0,0,0,
0,0,0,0,0,0,0,0,0,0,0,0,0,235,0,0,
0,0,0,0,0,0,0,0,0,0,0,0,0,0,0,0,
0,0,0,0,0,0,0,0,0,0,0,0,0,0,0,0,
0,0,0,0,0,0,0,0,0,0,0,0,0,0,0,0,
0,0,0,0,0,231,0,0,0,0,0,0,0,0,0,0,
0,0,0,0,0,0,0,0,0,0,0,0,0,0,0,0,
0,0,0,0,0,0,0,0,0,0,0,0,0,0,0,0
</chunk>
   <chunk x="64" y="0" width="16" height="16">
162,162,162,162,162,162,162,162,162,162,162,162,162,162,162,162,
162,162,162,162,162,162,162,162,162,162,162,162,162,162,162,162,
162,162,162,162,162,162,162,162,162,162,162,162,162,162,162,162,
162,162,162,162,162,162,162,162,162,162,162,162,162,162,162,162,
162,162,162,162,162,162,162,162,162,162,162,162,162,162,162,162,
162,162,162,162,162,162,162,162,162,162,162,162,162,162,162,162,
12,12,12,12,12,12,12,12,12,12,12,12,12,12,12,12,
87,87,87,87,87,87,87,87,87,87,87,87,87,87,87,87,
0,0,0,0,0,0,0,0,0,0,0,0,0,0,0,0,
0,0,0,0,0,0,0,0,0,0,0,0,0,0,0,0,
0,0,0,0,0,0,0,0,0,0,0,0,0,0,0,0,
0,0,0,0,0,0,0,0,0,0,0,0,0,0,0,0,
0,0,0,0,0,0,0,0,0,0,0,0,0,0,0,0,
0,0,0,0,0,0,0,0,0,0,0,0,0,0,0,0,
0,0,0,0,0,0,235,0,0,0,0,0,0,0,0,0,
0,0,0,0,0,0,0,0,0,0,0,0,0,0,0,0
</chunk>
   <chunk x="80" y="0" width="16" height="16">
162,162,162,162,162,162,162,162,162,162,162,162,162,162,162,162,
162,162,162,162,162,162,162,162,162,162,162,162,162,162,162,162,
162,162,162,162,162,162,162,162,162,162,162,162,162,162,162,162,
162,162,162,162,162,162,162,162,162,162,162,162,162,162,162,162,
162,162,162,162,162,162,162,162,162,162,162,162,162,162,162,162,
162,162,162,162,162,162,162,162,162,162,162,162,162,162,162,162,
12,15,162,162,162,162,162,162,162,162,162,162,162,162,162,162,
87,161,162,162,162,162,162,162,162,162,162,162,162,162,162,162,
0,161,162,162,162,162,162,162,162,162,162,162,162,162,162,162,
0,161,162,162,162,162,162,162,162,162,162,162,162,162,162,162,
0,90,12,12,12,12,12,12,12,12,12,12,12,12,12,12,
0,87,87,87,87,87,87,87,87,87,87,87,87,87,87,87,
0,0,0,0,0,0,0,0,0,0,0,0,0,0,0,0,
0,0,0,0,0,0,0,0,0,0,0,0,0,0,0,0,
0,0,0,0,0,0,0,0,0,0,0,0,0,0,231,0,
0,0,0,0,0,0,0,0,0,0,0,0,0,0,0,0
</chunk>
   <chunk x="96" y="0" width="16" height="16">
162,162,162,162,162,162,162,162,162,162,162,162,162,162,0,0,
162,162,162,162,162,162,162,162,162,162,162,162,162,162,0,0,
162,162,162,162,162,162,162,162,162,162,162,162,162,162,0,0,
162,162,162,162,162,162,162,162,162,162,162,162,162,162,0,0,
162,162,162,162,162,162,162,162,162,162,162,162,162,162,0,0,
162,162,162,162,162,162,162,162,162,162,162,162,162,162,0,0,
162,162,162,162,162,162,162,162,162,162,162,162,162,162,0,0,
162,162,162,162,162,162,162,162,162,162,162,162,162,162,0,0,
162,162,162,162,162,162,162,162,162,162,162,162,162,162,0,0,
162,162,162,162,162,162,162,162,162,162,162,162,162,162,0,0,
12,12,12,12,12,12,12,12,12,12,12,12,12,12,0,0,
87,87,87,87,87,87,87,87,87,87,87,87,87,87,0,0,
0,0,0,0,0,0,0,0,0,0,0,0,0,0,0,0,
0,0,0,0,0,0,0,0,0,0,0,0,0,0,0,0,
0,0,0,0,0,0,0,0,0,0,0,0,0,0,0,0,
0,0,0,0,0,0,0,0,0,0,0,0,0,0,0,0
</chunk>
   <chunk x="0" y="16" width="16" height="16">
0,0,0,0,0,0,0,0,0,0,0,0,0,0,0,0,
0,0,0,0,0,0,0,0,0,0,0,0,0,0,0,0,
0,0,0,0,0,0,0,0,0,0,0,0,0,0,0,0,
0,0,0,0,0,0,0,0,0,0,0,0,0,0,0,0,
0,0,0,0,0,0,0,0,0,0,0,0,0,0,0,0,
0,0,0,0,0,0,0,0,0,0,0,0,0,0,0,0,
0,0,0,0,0,0,0,0,0,0,0,0,0,0,0,0,
0,0,0,0,0,0,0,0,0,0,0,0,0,0,0,0,
159,159,159,159,7,0,0,0,0,0,0,0,0,0,0,0,
162,162,162,162,83,0,0,0,0,0,0,0,0,231,0,0,
162,162,162,162,83,0,0,0,0,0,0,0,0,0,0,0,
162,162,162,162,83,0,0,0,0,0,0,0,0,0,0,0,
162,162,162,162,83,0,0,0,0,0,0,0,0,0,0,0,
162,162,162,162,83,0,0,0,0,0,0,0,0,0,0,0,
162,162,162,162,83,0,0,0,0,0,0,0,0,0,0,0,
162,162,162,162,83,0,0,0,0,0,0,0,0,0,0,0
</chunk>
   <chunk x="16" y="16" width="16" height="16">
0,0,0,0,0,0,0,0,0,0,0,0,0,0,0,0,
0,0,0,0,0,0,0,0,0,0,0,0,0,0,0,0,
0,0,231,0,0,0,0,0,0,0,0,0,0,0,0,0,
0,0,0,0,0,0,0,0,0,0,0,0,0,0,0,0,
0,0,0,0,0,0,0,0,0,0,0,0,0,0,0,0,
0,0,0,0,0,0,0,0,0,0,0,0,0,0,0,0,
0,0,0,0,0,0,0,0,0,0,0,0,0,0,0,0,
0,0,0,0,0,0,0,0,0,0,0,0,0,0,0,0,
0,0,0,0,0,0,0,0,0,0,231,0,0,0,0,0,
0,0,0,0,0,0,0,0,0,0,231,0,0,0,0,0,
0,0,0,0,0,0,0,0,0,0,0,0,0,0,0,0,
0,0,0,0,0,0,0,0,0,0,0,0,0,0,0,0,
0,0,0,0,0,0,0,0,0,0,0,0,0,0,0,0,
0,0,0,0,0,0,0,0,0,0,0,0,0,0,0,0,
0,0,0,0,0,0,0,0,0,0,0,0,0,0,0,0,
0,0,0,0,0,0,0,0,0,0,0,0,0,0,0,0
</chunk>
   <chunk x="32" y="16" width="16" height="16">
0,0,0,0,0,0,0,0,0,0,0,0,0,0,0,0,
0,0,0,0,0,0,0,0,0,0,0,0,0,0,0,0,
0,0,0,0,0,0,0,0,0,0,0,0,0,0,235,0,
0,0,0,0,0,0,0,0,0,0,0,0,0,0,0,0,
0,0,0,0,231,0,0,0,0,0,0,0,0,0,0,0,
0,0,0,0,0,0,0,0,0,0,0,0,0,0,0,0,
0,0,0,0,0,0,0,0,0,0,0,0,0,0,0,0,
0,0,0,0,0,0,0,0,0,0,0,0,0,0,0,0,
0,0,0,0,0,0,0,0,0,0,0,0,0,0,0,0,
0,0,231,0,0,0,0,0,0,0,0,0,0,0,0,0,
0,0,0,0,0,0,0,0,0,235,235,0,0,0,0,0,
0,0,0,0,0,0,0,0,0,0,0,0,0,0,0,0,
0,0,0,0,0,0,0,0,0,0,0,0,0,0,0,0,
0,0,0,0,0,0,0,0,0,0,0,0,0,0,0,0,
0,0,0,0,0,0,0,0,0,0,0,0,0,0,0,0,
0,231,0,0,0,0,0,0,0,0,0,0,0,0,0,0
</chunk>
   <chunk x="48" y="16" width="16" height="16">
0,0,0,0,0,0,0,0,0,0,0,0,0,0,0,0,
0,0,0,0,0,0,0,0,0,0,0,231,0,0,0,0,
0,0,0,0,0,0,0,0,0,0,0,0,0,0,0,0,
0,0,0,0,0,0,0,0,0,0,0,0,0,0,0,0,
0,0,0,0,0,0,0,0,0,0,0,0,0,0,0,0,
0,0,0,0,235,0,0,0,0,0,0,0,0,0,0,0,
0,0,0,0,0,0,0,0,0,0,0,0,0,0,0,0,
0,0,0,0,0,0,0,0,0,0,0,0,0,0,0,0,
0,0,0,0,0,0,0,0,0,0,0,0,0,0,0,0,
0,0,0,0,0,0,0,0,0,0,0,0,0,0,0,0,
0,0,0,0,0,0,0,0,0,0,0,0,0,0,0,0,
0,0,0,0,0,0,0,231,0,0,0,0,0,0,0,0,
0,0,0,0,0,0,0,0,0,0,0,0,0,0,0,0,
0,0,0,0,0,0,0,0,0,0,0,0,0,0,0,235,
0,0,0,0,0,0,0,0,0,0,0,0,0,0,0,0,
0,0,0,0,0,0,0,0,0,0,0,0,0,0,0,0
</chunk>
   <chunk x="64" y="16" width="16" height="16">
0,0,0,0,0,0,0,0,0,0,0,0,0,0,0,0,
0,0,0,0,0,0,0,0,0,0,0,0,0,235,0,0,
0,0,0,0,0,0,0,0,0,0,0,0,0,0,0,0,
0,0,0,0,0,0,0,0,0,0,0,0,0,0,0,0,
0,0,0,0,0,0,0,0,0,0,0,0,0,0,0,0,
0,235,0,0,0,0,0,0,0,0,0,0,0,0,0,0,
0,0,0,0,0,0,0,0,0,0,0,0,0,0,0,0,
0,0,0,0,0,0,0,231,0,0,0,0,0,0,0,0,
0,0,0,0,0,0,0,0,0,0,0,0,0,0,0,0,
0,0,0,0,0,0,0,0,0,0,0,0,0,0,0,0,
0,0,0,0,0,0,0,0,0,0,0,0,0,0,0,0,
0,0,0,0,0,0,0,0,0,0,0,0,0,0,0,0,
0,0,0,0,0,0,0,0,0,0,0,0,0,0,0,0,
0,0,0,0,0,0,0,0,0,0,0,0,0,0,0,0,
0,0,0,0,0,0,0,0,0,0,0,0,0,0,0,0,
0,0,0,0,0,0,0,0,231,0,0,0,0,0,0,0
</chunk>
   <chunk x="80" y="16" width="16" height="16">
0,0,0,0,0,0,0,0,0,0,0,0,0,0,0,0,
0,0,0,0,0,0,0,0,0,0,0,0,0,0,0,0,
0,0,0,0,0,0,0,0,0,0,0,0,0,0,0,0,
0,0,0,0,0,0,0,0,0,0,0,0,0,0,0,0,
0,0,0,0,0,0,0,0,0,0,0,0,0,0,0,0,
0,0,0,0,0,0,0,0,0,0,0,0,0,0,0,0,
0,0,0,0,0,0,0,0,0,0,0,0,235,0,0,0,
0,0,0,0,0,0,0,0,0,0,0,0,0,0,0,0,
0,0,0,0,0,0,0,0,0,0,0,0,0,0,0,0,
0,0,0,0,0,0,0,0,0,0,0,0,0,0,0,0,
0,0,0,0,0,0,0,0,0,0,0,231,0,0,0,0,
0,0,0,0,0,0,0,0,0,0,0,0,0,0,0,0,
0,0,0,0,0,0,0,0,0,0,0,0,0,0,0,0,
0,0,0,0,0,0,0,0,0,0,0,0,0,0,0,0,
0,0,0,0,0,0,0,0,0,0,0,0,0,0,0,0,
0,0,0,0,0,0,0,0,0,0,0,0,0,0,0,0
</chunk>
   <chunk x="96" y="16" width="16" height="16">
0,0,0,0,0,0,0,0,0,0,0,0,0,0,0,0,
0,0,0,235,0,0,0,0,0,0,235,0,0,0,0,0,
0,0,0,0,0,0,0,0,0,0,0,0,0,0,0,0,
0,0,0,0,0,0,0,0,0,0,0,0,0,0,0,0,
0,0,0,0,0,0,0,0,0,0,0,0,0,0,0,0,
0,0,0,0,0,0,0,0,0,0,0,0,0,0,0,0,
0,0,0,0,0,0,0,0,0,0,0,0,0,0,0,0,
0,0,0,0,0,0,0,0,0,235,0,0,0,0,0,0,
0,0,0,0,0,0,0,0,0,0,0,0,0,0,0,0,
0,0,0,0,0,0,0,0,0,0,6,159,159,159,0,0,
0,0,0,0,0,0,0,0,0,0,85,162,162,162,0,0,
0,0,0,0,0,0,0,0,0,0,85,162,162,162,0,0,
0,0,0,0,0,0,0,0,0,0,85,162,162,162,0,0,
0,0,0,0,0,231,0,0,0,0,85,162,162,162,0,0,
0,0,0,0,0,0,0,0,0,0,85,162,162,162,0,0,
0,0,0,0,0,0,0,0,0,0,85,162,162,162,0,0
</chunk>
   <chunk x="0" y="32" width="16" height="16">
162,162,162,162,83,0,0,0,0,0,0,0,234,231,0,0,
162,162,162,162,83,0,0,0,0,0,0,0,0,0,0,0,
162,162,162,162,83,0,0,0,0,0,0,0,0,0,0,0,
162,162,162,162,83,0,0,0,0,0,0,0,0,0,0,0,
162,162,162,162,83,0,0,0,0,0,0,0,0,0,0,0,
162,162,162,162,83,0,0,0,0,0,0,0,0,0,0,0,
162,162,162,162,83,0,0,0,0,0,0,0,0,0,0,0,
162,162,162,162,83,0,0,0,0,0,0,0,0,0,0,0,
162,162,162,162,83,0,0,0,0,0,0,0,0,0,0,0,
162,162,162,162,83,0,0,0,0,0,0,0,0,0,0,0,
162,162,162,162,83,0,0,0,0,0,0,0,0,0,0,0,
162,162,162,162,83,0,0,0,0,0,0,231,0,0,0,0,
162,162,162,162,83,0,0,0,0,0,0,0,0,0,0,0,
162,162,162,162,83,0,0,0,0,0,0,0,0,0,0,0,
162,162,162,162,83,0,0,0,0,0,0,0,0,0,0,0,
162,162,162,162,83,0,0,0,0,0,0,0,0,0,0,0
</chunk>
   <chunk x="16" y="32" width="16" height="16">
0,0,0,0,0,0,231,0,0,0,0,0,0,0,0,0,
0,0,0,0,0,0,0,0,0,0,0,0,0,0,0,0,
0,0,0,0,0,0,0,0,0,0,0,0,0,0,0,0,
0,0,0,0,0,0,0,0,0,0,0,0,0,0,0,0,
0,0,0,0,0,0,0,0,0,0,0,0,0,0,0,0,
0,0,0,0,0,231,0,0,0,0,0,0,0,0,0,0,
0,0,0,0,0,0,0,0,0,0,0,0,0,0,0,0,
0,0,0,0,0,0,0,0,0,0,0,0,0,0,0,0,
0,0,0,0,0,0,0,0,0,0,0,0,0,0,0,234,
0,0,0,0,0,0,0,0,0,0,0,0,0,0,0,0,
0,0,0,0,0,0,0,0,0,0,0,0,0,0,0,0,
0,0,0,0,0,0,0,0,0,0,0,0,0,0,0,0,
0,0,0,0,0,0,0,0,0,0,0,0,0,0,0,0,
0,0,0,0,0,0,0,0,0,0,0,0,0,0,0,0,
0,0,0,0,0,0,0,0,0,0,0,0,0,0,0,0,
0,0,0,0,0,0,0,0,0,0,0,0,0,0,0,0
</chunk>
   <chunk x="32" y="32" width="16" height="16">
0,0,0,0,0,0,0,0,0,0,0,0,0,0,0,0,
0,0,0,0,0,231,0,0,0,0,0,0,0,0,0,0,
0,0,0,0,0,231,0,0,0,0,0,0,0,0,0,0,
0,0,0,0,0,0,0,0,0,0,0,0,0,0,0,0,
0,0,0,0,0,0,0,0,0,0,0,0,0,0,0,0,
0,0,0,0,0,0,0,0,0,0,0,0,0,0,0,0,
0,0,0,0,0,0,0,0,0,0,0,0,0,0,0,0,
0,0,0,0,0,0,0,0,0,0,0,0,0,0,0,0,
0,0,0,0,0,0,0,0,0,0,0,0,0,0,0,0,
0,0,0,0,0,0,0,0,0,0,0,0,0,0,0,0,
0,0,0,0,0,0,0,0,0,0,0,0,0,0,0,0,
0,0,0,0,0,0,0,0,0,0,0,0,0,0,0,0,
0,0,0,0,0,0,0,0,0,0,0,0,0,0,0,0,
0,0,0,0,0,0,0,0,0,0,0,0,0,0,0,0,
0,0,0,0,0,0,0,0,0,0,0,0,0,0,0,0,
0,0,0,0,0,0,0,0,0,0,0,0,0,0,0,0
</chunk>
   <chunk x="48" y="32" width="16" height="16">
0,0,0,0,0,0,0,0,0,0,0,0,0,0,0,0,
0,0,0,0,0,0,0,0,0,0,0,0,0,0,0,0,
0,0,0,0,0,0,0,0,0,0,231,0,0,0,0,0,
0,0,0,0,234,0,0,0,0,0,0,0,0,0,0,0,
0,0,0,0,0,0,0,0,0,0,0,0,0,0,0,0,
0,0,0,0,0,0,0,0,0,0,0,0,0,0,0,0,
0,0,0,0,0,0,0,0,0,0,0,0,0,0,0,0,
231,0,0,0,0,0,0,0,0,0,0,0,0,0,0,0,
0,0,0,0,0,0,0,0,0,0,0,0,0,0,0,0,
0,0,0,0,0,0,0,0,0,0,231,0,0,0,0,0,
0,0,0,0,0,0,0,0,0,0,0,0,0,0,0,0,
0,0,0,0,0,0,0,0,0,0,0,0,0,0,0,0,
0,0,0,0,0,0,0,0,0,0,0,0,0,0,0,0,
0,0,0,0,0,0,0,0,0,0,0,0,0,0,0,0,
0,0,0,0,0,0,0,0,0,0,0,0,0,0,0,0,
0,0,0,234,0,0,0,0,231,231,0,0,0,0,0,0
</chunk>
   <chunk x="64" y="32" width="16" height="16">
0,0,0,0,0,0,0,0,0,0,0,0,0,0,0,0,
0,0,0,0,0,0,0,0,0,0,0,0,0,0,0,0,
0,0,0,0,0,0,0,0,0,0,0,0,0,0,0,0,
0,0,0,0,0,0,0,0,0,0,0,0,0,0,0,0,
0,0,0,0,0,0,0,0,0,0,0,0,0,0,0,0,
0,0,0,234,0,0,0,0,0,0,0,0,0,0,0,0,
0,0,0,0,0,0,0,0,0,0,0,0,0,0,0,0,
0,0,0,0,0,0,0,0,0,0,0,0,0,0,0,0,
0,0,0,0,0,0,0,0,0,0,0,0,0,0,0,0,
0,0,0,0,0,0,0,0,0,0,0,231,0,0,0,0,
0,0,0,0,0,0,0,0,0,0,0,0,0,0,0,0,
0,0,0,0,0,0,0,0,0,0,0,0,0,0,0,0,
0,0,0,0,0,0,0,0,0,0,0,0,0,0,0,0,
0,0,0,0,0,0,0,0,0,0,0,0,0,0,0,0,
0,0,0,0,0,0,0,0,0,0,0,0,0,0,0,0,
0,0,0,0,0,0,0,0,0,0,0,0,0,0,0,0
</chunk>
   <chunk x="80" y="32" width="16" height="16">
0,0,0,0,0,0,0,0,0,0,0,0,0,0,0,0,
0,0,0,0,0,0,0,0,0,0,0,0,0,0,0,0,
0,0,0,234,0,0,0,0,0,0,0,0,0,0,0,0,
0,0,0,0,0,0,0,0,0,0,0,0,0,0,0,0,
0,0,0,0,0,0,0,0,0,0,0,0,235,0,0,0,
0,0,0,0,0,0,0,0,0,0,0,0,0,0,0,0,
0,0,0,0,0,0,0,0,0,0,0,0,0,0,0,0,
0,0,0,0,0,0,0,0,0,0,0,0,0,0,0,235,
0,0,0,0,0,0,0,0,0,0,0,0,0,0,0,0,
0,0,0,0,0,0,0,0,0,0,0,0,0,0,0,0,
0,0,0,0,0,0,0,0,0,0,0,0,0,0,0,0,
0,0,0,0,0,0,0,0,0,0,0,0,0,0,0,0,
0,0,0,0,0,0,0,0,0,0,0,0,0,0,0,0,
0,0,0,0,0,0,0,0,0,0,0,0,0,0,0,0,
0,0,0,0,0,0,234,0,0,0,0,0,0,0,0,0,
0,0,0,0,0,0,0,0,0,0,0,0,0,0,0,0
</chunk>
   <chunk x="96" y="32" width="16" height="16">
0,0,0,0,0,0,0,0,0,0,85,162,162,162,0,0,
0,0,235,0,0,0,0,0,0,0,85,162,162,162,0,0,
0,0,0,0,0,0,0,0,0,0,85,162,162,162,0,0,
0,0,0,0,0,0,0,0,0,0,85,162,162,162,0,0,
0,0,0,0,0,234,0,0,0,0,85,162,162,162,0,0,
0,0,0,0,0,0,0,0,0,0,85,162,162,162,0,0,
0,0,0,0,0,0,0,0,0,0,85,162,162,162,0,0,
235,0,0,0,0,0,0,0,0,0,85,162,162,162,0,0,
0,0,0,0,0,0,0,0,0,0,85,162,162,162,0,0,
234,0,0,0,0,0,0,0,0,0,85,162,162,162,0,0,
0,0,0,0,0,0,0,0,0,0,85,162,162,162,0,0,
0,0,0,0,235,0,0,0,234,0,85,162,162,162,0,0,
0,0,0,0,0,0,0,0,0,0,85,162,162,162,0,0,
0,0,0,0,0,0,0,0,0,0,85,162,162,162,0,0,
0,0,0,0,0,0,0,0,0,0,85,162,162,162,0,0,
0,0,0,0,0,0,0,0,0,0,85,162,162,162,0,0
</chunk>
   <chunk x="0" y="48" width="16" height="16">
162,162,162,162,83,0,0,0,0,0,0,0,0,0,0,0,
162,162,162,162,83,0,0,0,0,0,0,0,0,0,231,0,
162,162,162,162,83,0,0,0,0,0,0,0,0,0,0,0,
162,162,162,162,83,0,0,0,0,0,0,0,0,0,0,0,
162,162,162,162,83,0,0,0,0,0,0,0,0,0,0,0,
162,162,162,162,83,0,0,0,0,0,0,0,0,0,0,0,
162,162,162,162,83,0,0,0,0,0,0,0,0,0,0,0,
162,162,162,162,83,0,0,0,0,0,0,0,0,0,0,0,
162,162,162,162,83,0,0,0,0,0,0,0,0,0,0,0,
162,162,162,162,83,0,0,0,0,0,0,0,0,0,0,0,
162,162,162,162,158,159,159,159,159,159,159,159,159,159,159,159,
162,162,162,162,162,162,162,162,162,162,162,162,162,162,162,162,
162,162,162,162,162,162,162,162,162,162,162,162,162,162,162,162,
162,162,162,162,162,162,162,162,162,162,162,162,162,162,162,162,
162,162,162,162,162,162,162,162,162,162,162,162,162,162,162,162,
162,162,162,162,162,162,162,162,162,162,162,162,162,162,162,162
</chunk>
   <chunk x="16" y="48" width="16" height="16">
0,0,0,0,0,0,0,0,0,0,0,0,0,0,0,0,
0,0,0,0,0,0,0,0,0,0,0,0,0,0,0,0,
0,0,0,0,0,0,0,0,0,0,0,0,0,0,234,0,
0,0,0,0,0,0,231,0,0,0,0,0,0,0,0,0,
0,0,0,0,0,0,0,0,0,0,0,0,0,0,0,0,
0,0,0,0,0,0,0,0,0,0,0,0,0,0,0,0,
0,0,0,0,231,0,0,0,0,0,0,0,0,0,0,0,
0,0,0,0,0,0,0,0,0,0,0,0,0,0,0,0,
0,0,0,0,0,0,0,0,0,0,0,0,0,0,0,0,
0,0,0,0,0,0,0,0,0,0,0,0,0,0,0,0,
159,159,159,159,159,159,159,159,159,159,159,159,159,159,159,159,
162,162,162,162,162,162,162,162,162,162,162,162,162,162,162,162,
162,162,162,162,162,162,162,162,162,162,162,162,162,162,162,162,
162,162,162,162,162,162,162,162,162,162,162,162,162,162,162,162,
162,162,162,162,162,162,162,162,162,162,162,162,162,162,162,162,
162,162,162,162,162,162,162,162,162,162,162,162,162,162,162,162
</chunk>
   <chunk x="32" y="48" width="16" height="16">
0,0,0,0,231,0,0,0,0,0,0,0,0,0,0,0,
0,0,0,0,0,0,0,0,0,0,0,0,0,0,0,0,
0,0,0,0,0,0,0,0,0,0,0,0,0,0,0,0,
0,0,0,0,0,0,0,0,0,0,0,0,0,0,0,0,
0,0,0,0,0,0,0,0,0,0,0,0,0,0,0,0,
0,0,0,0,0,0,0,0,0,0,0,0,0,0,0,0,
0,0,0,0,0,0,0,0,0,0,0,0,0,0,0,0,
0,0,0,0,0,0,0,0,0,0,0,0,0,0,0,0,
0,0,0,0,0,0,231,0,0,0,0,0,0,0,0,0,
0,0,0,0,0,0,0,0,0,0,0,0,0,0,0,0,
159,159,159,159,159,7,0,0,0,0,0,0,0,0,0,0,
162,162,162,162,162,83,0,0,0,0,0,0,0,0,0,0,
162,162,162,162,162,83,0,0,0,0,0,0,0,0,0,0,
162,162,162,162,162,158,159,159,7,0,0,0,0,0,0,0,
162,162,162,162,162,162,162,162,83,0,0,0,0,0,0,0,
162,162,162,162,162,162,162,162,83,0,0,0,0,0,0,0
</chunk>
   <chunk x="48" y="48" width="16" height="16">
0,0,0,0,0,0,0,0,0,231,0,0,0,0,0,0,
0,0,0,0,0,0,0,0,0,0,0,0,0,0,0,0,
0,0,0,0,0,0,0,0,0,0,0,0,0,0,0,0,
0,0,0,0,0,0,0,0,0,0,0,0,0,0,0,0,
0,0,0,0,0,0,0,0,0,0,0,0,0,0,0,0,
0,0,0,0,0,0,0,0,0,0,0,0,0,0,0,0,
0,0,0,0,0,0,0,0,0,0,0,0,0,0,0,0,
0,0,234,0,0,0,0,0,0,0,0,0,0,0,0,0,
0,0,0,0,0,0,0,0,0,0,0,0,0,0,0,0,
0,0,0,0,0,0,0,0,0,0,0,0,0,0,0,0,
0,0,0,0,0,0,0,0,0,0,0,0,0,0,0,0,
0,0,0,0,0,0,0,0,0,0,0,0,0,0,0,0,
0,0,0,6,159,159,159,159,159,159,159,159,159,159,159,159,
0,0,0,85,162,162,162,162,162,162,162,162,162,162,162,162,
0,0,0,85,162,162,162,162,162,162,162,162,162,162,162,162,
0,0,0,85,162,162,162,162,162,162,162,162,162,162,162,162
</chunk>
   <chunk x="64" y="48" width="16" height="16">
0,0,0,0,0,231,0,0,0,0,0,0,0,0,0,0,
0,0,0,0,0,0,0,0,0,0,0,0,0,0,0,0,
0,0,0,0,0,0,0,0,0,0,0,0,0,0,0,0,
0,0,0,0,0,0,0,0,0,0,0,0,0,0,0,0,
0,0,0,0,0,0,0,0,0,0,0,0,0,0,0,0,
0,0,0,0,0,0,0,0,0,0,0,0,0,0,0,0,
0,0,0,0,0,0,0,0,0,0,0,0,0,0,0,0,
0,0,0,0,0,0,0,0,0,0,0,0,0,0,0,0,
0,0,0,0,0,0,234,0,0,0,0,0,0,0,0,234,
234,0,0,0,0,0,0,0,0,0,0,0,0,0,0,0,
0,0,0,0,0,0,0,0,0,0,0,0,0,0,0,0,
0,0,0,0,0,0,0,0,0,0,0,0,0,0,0,0,
159,159,159,159,159,159,159,159,159,159,159,159,159,159,159,159,
162,162,162,162,162,162,162,162,162,162,162,162,162,162,162,162,
162,162,162,162,162,162,162,162,162,162,162,162,162,162,162,162,
162,162,162,162,162,162,162,162,162,162,162,162,162,162,162,162
</chunk>
   <chunk x="80" y="48" width="16" height="16">
0,0,0,0,0,0,0,0,0,0,0,0,0,0,0,0,
0,0,0,0,0,0,0,0,0,0,0,0,0,0,0,0,
0,0,0,0,0,0,0,0,0,0,0,0,0,234,0,0,
0,0,0,0,0,0,0,0,0,0,0,0,0,0,0,0,
0,0,0,0,0,0,0,0,235,0,0,0,0,0,0,0,
0,0,0,0,0,0,0,0,0,0,0,0,0,0,0,0,
0,0,0,0,0,0,0,0,0,0,0,0,0,0,0,0,
0,0,0,0,0,0,0,0,0,0,0,0,0,0,0,0,
0,0,0,0,0,0,0,0,0,0,0,0,0,235,0,0,
0,0,0,0,0,0,0,0,0,0,0,0,0,0,0,0,
0,0,0,0,0,0,0,0,0,0,0,0,0,0,0,0,
0,0,0,0,0,0,0,0,0,0,0,0,0,0,0,0,
159,159,159,159,159,159,159,159,159,159,159,159,159,159,159,159,
162,162,162,162,162,162,162,162,162,162,162,162,162,162,162,162,
162,162,162,162,162,162,162,162,162,162,162,162,162,162,162,162,
162,162,162,162,162,162,162,162,162,162,162,162,162,162,162,162
</chunk>
   <chunk x="96" y="48" width="16" height="16">
0,0,0,0,0,0,0,0,0,0,85,162,162,162,0,0,
0,0,0,0,0,0,0,0,0,0,85,162,162,162,0,0,
0,0,0,0,0,0,0,0,0,0,85,162,162,162,0,0,
0,0,234,0,0,0,0,0,0,0,85,162,162,162,0,0,
0,0,0,0,0,0,0,0,0,0,85,162,162,162,0,0,
0,0,0,0,6,159,159,159,159,159,160,162,162,162,0,0,
0,0,0,0,85,162,162,162,162,162,162,162,162,162,0,0,
0,0,0,0,85,162,162,162,162,162,162,162,162,162,0,0,
0,0,0,0,85,162,162,162,162,162,162,162,162,162,0,0,
0,0,0,0,85,162,162,162,162,162,162,162,162,162,0,0,
0,0,0,0,85,162,162,162,162,162,162,162,162,162,0,0,
0,0,0,0,85,162,162,162,162,162,162,162,162,162,0,0,
159,159,159,159,160,162,162,162,162,162,162,162,162,162,0,0,
162,162,162,162,162,162,162,162,162,162,162,162,162,162,0,0,
162,162,162,162,162,162,162,162,162,162,162,162,162,162,0,0,
162,162,162,162,162,162,162,162,162,162,162,162,162,162,0,0
</chunk>
  </data>
 </layer>
 <layer id="6" name="House" width="30" height="20">
  <data encoding="csv">
   <chunk x="0" y="0" width="16" height="16">
0,0,0,0,0,0,0,0,0,0,0,0,0,0,0,0,
0,0,0,0,0,0,0,0,0,0,0,0,0,0,0,0,
0,0,0,0,0,0,0,0,0,0,0,0,0,0,0,0,
0,0,0,0,0,0,0,0,0,0,0,0,0,0,0,0,
0,0,0,0,0,0,0,0,0,0,0,0,0,0,0,0,
0,0,0,0,0,0,0,0,0,0,0,0,0,0,0,0,
0,0,0,0,0,0,0,0,0,0,0,0,0,0,0,0,
0,0,0,0,0,0,0,0,0,0,0,0,0,0,0,0,
0,0,0,0,0,0,0,0,0,0,0,0,0,0,0,0,
0,0,0,0,0,0,0,0,0,0,0,0,0,0,0,0,
0,0,0,0,0,0,0,0,0,0,0,0,0,0,0,0,
0,0,0,0,0,0,0,0,0,0,0,0,0,0,0,0,
2178,2178,2178,2178,2178,2178,2178,2178,2178,2178,2178,2178,2178,2178,2553,2178,
2328,2328,2328,2328,2328,2328,2328,2328,2328,2328,2328,2328,2328,2328,2328,2328,
0,0,0,0,0,0,0,0,0,0,0,0,0,0,0,0,
0,0,0,0,0,0,0,0,0,0,0,0,0,0,0,0
</chunk>
   <chunk x="16" y="0" width="16" height="16">
0,0,0,0,0,0,0,0,0,0,0,0,0,0,0,0,
0,0,0,0,0,0,0,0,0,0,0,0,0,0,0,0,
0,0,0,0,0,0,0,0,0,0,0,0,0,0,0,0,
0,0,0,0,0,0,0,0,0,0,0,0,0,0,0,0,
0,0,0,0,0,0,0,0,0,0,0,0,0,0,0,0,
0,0,0,0,0,0,0,0,0,0,0,0,0,0,0,0,
0,0,238,239,0,0,0,0,0,0,0,0,0,0,0,0,
0,0,313,314,0,0,0,0,0,0,0,0,0,0,0,0,
0,0,238,239,0,0,0,0,0,0,0,0,0,0,0,0,
0,0,2627,2254,0,0,0,0,0,0,0,0,0,0,0,0,
0,0,2627,2254,0,0,0,0,0,0,0,0,0,0,0,0,
0,0,2252,2254,0,0,0,0,0,0,0,0,0,0,0,0,
2553,2553,2419,2254,0,0,0,0,0,0,0,0,0,0,0,0,
2328,2328,2703,2704,0,0,0,0,0,0,0,0,0,0,0,0,
0,0,0,0,0,0,0,0,0,0,0,0,0,0,0,0,
0,0,0,0,0,0,0,0,0,0,0,0,0,0,0,0
</chunk>
   <chunk x="80" y="0" width="16" height="16">
0,0,0,0,0,0,0,0,0,0,0,0,0,0,0,0,
0,0,0,0,0,0,0,0,0,0,0,0,0,42,43,44,
0,0,0,0,0,0,0,0,0,0,0,0,0,117,118,119,
0,0,0,0,0,0,0,0,0,0,0,0,0,192,193,194,
0,0,0,0,0,0,0,0,0,0,0,0,0,267,268,269,
0,0,0,0,0,0,0,0,0,0,0,0,0,342,343,344,
0,0,0,0,0,0,0,0,0,0,0,0,0,417,418,419,
0,0,0,0,0,0,0,0,0,0,0,0,0,492,493,494,
0,0,0,0,0,0,0,0,0,0,0,0,0,0,0,0,
0,0,0,0,0,0,0,0,0,0,0,0,0,0,0,0,
0,0,0,0,0,0,0,0,0,0,0,0,0,0,0,0,
0,0,0,0,0,0,0,0,0,0,0,0,0,0,0,0,
0,0,0,0,0,0,0,0,0,0,0,0,0,0,0,0,
0,0,0,0,0,0,0,0,0,0,0,0,0,0,0,0,
0,0,0,0,0,0,0,0,0,0,0,0,0,0,0,0,
0,0,0,0,0,0,0,0,0,0,0,0,0,0,0,0
</chunk>
   <chunk x="96" y="0" width="16" height="16">
0,0,0,0,0,0,0,0,0,0,0,0,0,0,0,0,
45,46,47,48,49,50,51,0,0,0,0,0,0,0,0,0,
120,121,122,123,124,125,126,0,0,0,0,0,0,0,0,0,
195,196,197,198,199,200,201,0,0,0,0,0,0,0,0,0,
270,271,272,273,274,275,276,0,0,0,0,0,0,0,0,0,
345,346,347,348,349,350,351,0,0,0,0,0,0,0,0,0,
420,421,422,423,424,425,426,0,0,0,0,0,0,0,0,0,
2177,2179,497,498,499,500,501,0,0,0,0,0,0,0,0,0,
2252,2254,0,0,0,0,0,0,0,0,0,0,0,0,0,0,
2252,2629,0,0,0,0,0,0,0,0,0,0,0,0,0,0,
238,239,0,0,0,0,0,0,0,0,0,0,0,0,0,0,
313,314,0,0,0,0,0,0,0,0,0,0,0,0,0,0,
313,314,0,0,0,0,0,0,0,0,0,0,0,0,0,0,
2552,2554,0,0,0,0,0,0,0,0,0,0,0,0,0,0,
2627,2254,0,0,0,0,0,0,0,0,0,0,0,0,0,0,
2252,2254,0,0,0,0,0,0,0,0,0,0,0,0,0,0
</chunk>
   <chunk x="0" y="16" width="16" height="16">
0,0,0,0,0,0,0,0,0,0,0,0,0,0,0,0,
0,0,0,0,0,0,0,0,0,0,0,0,0,0,0,0,
0,0,0,0,0,0,0,0,0,0,0,0,0,0,0,0,
0,0,0,0,0,0,0,0,0,0,0,0,0,0,0,0,
0,0,0,0,0,0,0,0,0,0,0,0,0,0,0,0,
0,0,0,0,0,0,0,0,0,0,0,0,0,0,0,0,
0,0,0,0,0,0,0,0,0,0,0,0,0,0,0,0,
0,0,0,0,0,0,0,0,0,0,0,0,0,0,0,0,
0,0,0,0,0,0,0,0,0,0,0,0,0,0,0,0,
0,0,0,0,0,0,0,0,0,0,0,0,0,0,0,0,
0,0,0,0,0,0,0,0,0,0,0,0,0,0,0,0,
0,383,0,0,0,0,0,0,0,0,0,0,0,0,0,0,
0,0,0,0,0,0,0,0,0,0,0,0,0,0,0,0,
0,0,0,0,0,0,0,0,0,0,0,0,0,0,0,0,
0,0,0,0,0,0,0,0,0,0,0,0,0,0,0,0,
0,307,0,383,0,0,0,0,0,0,0,0,0,0,0,0
</chunk>
   <chunk x="96" y="16" width="16" height="16">
2627,2254,0,0,0,0,0,0,0,0,0,0,0,0,0,0,
2252,2254,0,0,0,0,0,0,0,0,0,0,0,0,0,0,
2627,2254,0,0,0,0,0,0,0,0,0,0,0,0,0,0,
2252,2418,2553,2553,2178,2178,2178,2178,2178,2178,2178,2178,2178,2178,0,0,
2327,2328,2328,2328,2328,2328,2328,2328,2328,2328,2328,2328,2328,2328,0,0,
0,0,0,0,0,0,0,0,0,0,0,0,0,0,0,0,
0,0,0,0,0,0,0,0,0,0,0,0,0,0,0,0,
0,0,0,0,0,0,0,0,0,0,0,0,0,0,0,0,
0,0,0,0,0,0,0,0,0,0,0,0,0,0,0,0,
0,0,0,0,0,0,0,0,0,0,0,0,0,0,0,0,
0,0,0,0,0,0,0,0,0,0,0,0,0,0,0,0,
0,0,0,0,0,0,0,0,0,0,0,3404,0,0,0,0,
0,0,0,0,0,0,0,0,0,0,0,3479,0,3477,0,0,
0,0,0,0,0,0,0,0,0,0,0,0,0,0,0,0,
0,0,0,0,0,0,0,0,0,0,0,0,0,0,0,0,
0,0,0,0,0,0,0,0,0,0,0,0,3404,0,0,0
</chunk>
   <chunk x="0" y="32" width="16" height="16">
0,0,0,0,0,0,0,0,0,0,0,0,0,0,0,0,
0,0,0,0,0,0,0,0,0,0,0,0,0,0,0,0,
0,0,0,0,0,0,0,0,0,0,0,0,0,0,0,0,
0,383,0,0,0,0,0,0,0,0,0,0,0,0,0,0,
0,0,0,307,0,0,0,0,0,0,0,0,0,0,0,0,
0,0,0,0,0,0,0,0,0,0,0,0,0,0,0,0,
0,0,0,0,0,0,0,0,0,0,0,0,0,0,0,0,
0,0,0,0,0,0,0,0,0,0,0,0,0,0,0,0,
0,383,383,0,0,0,0,0,0,0,0,0,0,0,0,0,
0,383,0,0,0,0,0,0,0,0,0,0,0,0,0,0,
0,0,0,0,0,0,0,0,0,0,0,0,0,0,0,0,
0,0,0,0,0,0,0,0,0,0,0,0,0,0,0,0,
0,0,0,0,0,0,0,0,0,0,0,0,0,0,0,0,
0,0,0,0,0,0,0,0,0,0,0,0,0,0,0,0,
0,0,383,383,0,0,0,0,0,0,0,0,0,0,0,0,
0,0,0,0,0,0,0,0,0,0,0,0,0,0,0,0
</chunk>
   <chunk x="96" y="32" width="16" height="16">
0,0,0,0,0,0,0,0,0,0,0,0,3479,0,0,0,
0,0,0,0,0,0,0,0,0,0,0,0,0,0,0,0,
0,0,0,0,0,0,0,0,0,0,0,0,3475,0,0,0,
0,0,0,0,0,0,0,0,0,0,0,0,0,0,0,0,
0,0,0,0,0,0,0,0,0,0,0,3475,0,0,0,0,
0,0,0,0,0,0,0,0,0,0,0,0,0,0,0,0,
0,0,0,0,0,0,0,0,0,0,0,0,3475,0,0,0,
0,0,0,0,0,0,0,0,0,0,0,0,0,0,0,0,
0,0,0,0,0,0,0,0,0,0,0,0,0,0,0,0,
0,0,0,0,0,0,0,0,0,0,0,3477,0,0,0,0,
0,0,0,0,0,0,0,0,0,0,0,0,0,3477,0,0,
0,0,0,0,0,0,0,0,0,0,0,0,0,0,0,0,
0,0,0,0,0,0,0,0,0,0,0,0,0,0,0,0,
0,0,0,0,0,0,0,0,0,0,0,0,0,0,0,0,
0,0,0,0,0,0,0,0,0,0,0,0,3477,0,0,0,
0,0,0,0,0,0,0,0,0,0,0,0,0,0,0,0
</chunk>
   <chunk x="0" y="48" width="16" height="16">
0,0,0,0,0,0,0,0,0,0,0,0,0,0,0,0,
0,0,0,0,0,0,0,0,0,0,0,0,0,0,0,0,
0,307,0,0,0,0,0,0,0,0,0,0,0,0,0,0,
0,0,0,307,0,0,0,0,0,0,0,0,0,0,0,0,
0,0,0,0,0,0,0,0,0,0,0,0,0,0,0,0,
0,0,0,0,0,0,0,0,0,0,0,0,0,0,0,0,
0,0,307,0,0,0,0,0,0,0,0,0,0,0,0,0,
0,0,0,0,0,0,0,0,0,0,0,0,0,0,0,0,
0,0,0,0,0,0,0,0,0,0,0,0,0,0,0,0,
0,307,0,0,0,0,0,0,0,0,0,0,0,0,0,0,
0,0,0,0,0,0,0,0,0,0,0,0,0,0,0,0,
0,0,0,0,0,0,0,0,0,0,0,0,0,0,0,0,
0,0,0,0,0,0,0,0,0,0,0,0,0,0,0,0,
0,0,0,0,0,0,0,0,0,0,0,0,0,0,0,0,
0,0,0,0,0,0,0,0,0,0,0,0,0,0,0,0,
0,0,0,0,0,0,0,0,0,0,0,0,0,0,0,0
</chunk>
   <chunk x="80" y="48" width="16" height="16">
0,0,0,0,0,0,0,0,0,0,0,0,0,0,0,0,
0,0,0,0,0,0,0,0,0,0,0,0,0,0,0,0,
0,0,0,0,0,0,0,0,0,0,0,0,0,0,0,0,
0,0,0,0,0,0,0,0,0,0,0,0,0,0,0,0,
0,0,0,0,0,0,0,0,0,0,0,0,0,0,0,0,
0,0,0,0,0,0,0,0,0,0,0,0,0,0,0,0,
0,0,0,0,0,0,0,0,0,0,0,0,0,0,0,0,
0,0,0,0,0,0,0,0,0,0,0,0,0,0,0,0,
0,0,0,0,0,0,0,0,0,0,0,0,0,0,0,0,
0,0,0,0,0,0,0,0,0,0,0,0,0,0,0,0,
0,0,0,0,0,0,0,0,0,0,0,0,0,0,0,0,
0,0,0,0,0,0,0,0,0,0,0,0,0,0,0,0,
0,0,0,0,0,0,0,0,0,0,0,0,0,0,0,0,
0,0,0,0,0,0,0,0,0,0,0,0,0,0,0,0,
0,0,0,0,0,307,0,0,0,0,0,0,0,0,0,0,
0,0,0,0,0,0,0,0,0,0,0,0,0,0,0,0
</chunk>
   <chunk x="96" y="48" width="16" height="16">
0,0,0,0,0,0,0,0,0,0,0,0,0,0,0,0,
0,0,0,0,0,0,0,0,0,0,0,0,0,3477,0,0,
0,0,0,0,0,0,0,0,0,0,0,0,0,0,0,0,
0,0,0,0,0,0,0,0,0,0,0,3477,0,0,0,0,
0,0,0,0,0,0,0,0,0,0,0,0,0,0,0,0,
0,0,0,0,0,0,0,0,0,0,0,0,0,0,0,0,
0,0,0,0,0,0,6,154,154,154,154,154,7,0,0,0,
0,0,0,0,0,0,161,0,0,307,0,0,163,0,0,0,
0,0,0,0,0,0,161,0,0,307,0,0,163,0,0,0,
0,0,0,0,0,0,90,12,15,162,307,12,89,0,0,0,
0,0,0,0,0,0,86,87,87,87,87,87,88,0,0,0,
0,0,0,0,0,0,0,0,0,0,0,0,0,0,0,0,
0,0,0,0,0,0,0,0,0,0,0,0,0,0,0,0,
0,0,0,0,0,0,0,0,0,0,0,0,0,0,0,0,
0,0,0,0,0,0,0,0,0,0,0,0,0,0,0,0,
0,0,0,0,0,0,0,0,0,0,0,0,0,0,0,0
</chunk>
  </data>
 </layer>
 <layer id="7" name="GrassWall" width="30" height="20">
  <data encoding="csv">
   <chunk x="0" y="0" width="16" height="16">
0,0,0,0,0,0,0,0,0,0,0,0,0,0,0,0,
0,0,0,0,0,0,0,0,0,0,0,0,0,0,0,0,
0,0,0,0,0,0,0,0,0,0,0,0,0,0,0,0,
0,0,232,0,0,0,0,0,0,0,0,0,0,0,0,0,
0,0,0,0,234,0,232,0,232,0,0,231,0,1583,0,0,
0,0,232,0,0,0,0,0,0,233,0,0,231,0,0,0,
0,0,0,0,0,0,0,0,0,0,0,0,0,0,0,0,
0,0,0,0,0,0,0,0,0,0,0,0,0,0,0,0,
0,0,0,0,0,0,0,0,0,0,0,0,0,0,0,0,
0,0,0,0,0,0,0,0,0,0,0,0,0,0,0,0,
0,0,0,0,0,0,0,0,0,0,0,0,0,0,0,0,
0,0,0,0,0,0,0,0,0,0,0,0,0,0,0,0,
0,0,0,0,0,0,0,0,0,0,0,0,0,0,0,0,
0,0,0,0,0,0,0,0,0,0,0,0,0,0,0,0,
0,0,0,0,0,0,0,0,0,0,0,0,0,0,0,0,
0,0,0,0,0,0,0,0,0,0,0,0,0,0,0,0
</chunk>
   <chunk x="16" y="0" width="16" height="16">
0,0,0,0,0,0,0,0,0,0,0,0,0,0,0,0,
234,0,0,0,0,0,0,0,0,0,0,0,0,0,0,0,
0,0,0,0,0,234,0,0,0,0,0,0,0,0,0,0,
233,0,0,0,0,0,0,0,0,0,0,0,0,0,0,0,
0,0,0,0,0,0,234,231,0,0,0,231,0,232,0,0,
1582,1583,0,0,1582,1579,0,0,0,233,0,0,0,0,0,232,
0,0,0,0,0,0,0,0,0,0,0,0,0,0,0,0,
0,0,0,0,0,0,0,0,0,0,0,0,0,0,0,0,
0,0,0,0,0,0,0,0,0,0,0,0,0,0,0,0,
0,0,0,0,0,0,0,0,0,0,0,0,0,0,0,0,
0,0,0,0,0,0,0,0,0,0,0,0,0,0,0,0,
0,0,0,0,0,0,0,0,0,0,0,0,0,0,0,0,
0,0,0,0,0,0,0,0,0,0,0,0,0,0,0,0,
0,0,0,0,0,0,0,0,0,0,0,0,0,0,0,0,
0,0,0,0,0,0,0,0,0,0,0,0,0,0,0,0,
0,0,0,0,0,0,0,0,0,0,0,0,0,0,0,0
</chunk>
   <chunk x="32" y="0" width="16" height="16">
0,0,0,0,0,0,0,0,0,0,0,0,0,0,0,0,
0,0,0,0,0,0,0,0,0,0,0,0,0,0,0,0,
0,0,0,0,0,0,0,232,0,0,0,0,0,0,0,0,
0,0,0,0,232,0,0,0,0,0,0,232,0,0,232,0,
231,0,232,0,0,0,232,231,232,233,0,0,234,0,0,0,
0,0,0,233,0,0,0,0,232,0,0,0,232,0,0,232,
0,0,0,0,0,0,0,0,0,0,0,0,0,0,0,0,
0,0,0,0,0,0,0,0,0,0,0,0,0,0,0,0,
0,0,0,0,0,0,0,0,0,0,0,0,0,0,0,0,
0,0,0,0,0,0,0,0,0,0,0,0,0,0,0,0,
0,0,0,0,0,0,0,0,0,0,0,0,0,0,0,0,
0,0,0,0,0,0,0,0,0,0,0,0,0,0,0,0,
0,0,0,0,0,0,0,0,0,0,0,0,0,0,0,0,
0,0,0,0,0,0,0,0,0,0,0,0,0,0,0,0,
0,0,0,0,0,0,0,0,0,0,0,0,0,0,0,0,
0,0,0,0,0,0,0,0,0,0,0,0,0,0,0,0
</chunk>
   <chunk x="48" y="0" width="16" height="16">
0,0,0,0,0,0,0,0,0,0,0,0,0,0,0,0,
0,0,0,0,0,0,0,0,0,0,0,0,0,0,0,0,
0,0,0,0,0,0,0,231,0,0,0,0,0,0,0,0,
0,232,0,0,0,232,0,0,0,0,0,232,0,0,0,0,
0,231,0,0,232,234,0,0,0,233,0,0,0,0,232,0,
0,0,0,0,0,0,0,0,0,0,0,231,0,0,0,0,
0,0,0,0,0,0,0,0,0,0,0,0,0,0,0,0,
0,0,0,0,0,0,0,0,0,0,0,0,0,0,0,0,
0,0,0,0,0,0,0,0,0,0,0,0,0,0,0,0,
0,0,0,0,0,0,0,0,0,0,0,0,0,0,0,0,
0,0,0,0,0,0,0,0,0,0,0,0,0,0,0,0,
0,0,0,0,0,0,0,0,0,0,0,0,0,0,0,0,
0,0,0,0,0,0,0,0,0,0,0,0,0,0,0,0,
0,0,0,0,0,0,0,0,0,0,0,0,0,0,0,0,
0,0,0,0,0,0,0,0,0,0,0,0,0,0,0,0,
0,0,0,0,0,0,0,0,0,0,0,0,0,0,0,0
</chunk>
   <chunk x="64" y="0" width="16" height="16">
0,0,0,0,0,0,0,0,0,0,0,0,0,0,0,0,
0,0,0,0,0,0,0,0,0,0,0,0,0,0,0,0,
0,0,0,0,0,0,0,0,0,0,0,0,0,0,0,0,
231,0,0,0,0,0,232,0,0,0,0,0,232,0,0,0,
234,0,0,232,0,0,0,0,0,0,0,0,0,0,0,233,
0,0,0,0,0,0,0,0,234,0,232,0,233,0,0,0,
0,0,0,0,0,0,0,0,0,0,0,0,0,0,0,0,
0,0,0,0,0,0,0,0,0,0,0,0,0,0,0,0,
0,0,0,0,0,0,0,0,0,0,0,0,0,0,0,0,
0,0,0,0,0,0,0,0,0,0,0,0,0,0,0,0,
0,0,0,0,0,0,0,0,0,0,0,0,0,0,0,0,
0,0,0,0,0,0,0,0,0,0,0,0,0,0,0,0,
0,0,0,0,0,0,0,0,0,0,0,0,0,0,0,0,
0,0,0,0,0,0,0,0,0,0,0,0,0,0,0,0,
0,0,0,0,0,0,0,0,0,0,0,0,0,0,0,0,
0,0,0,0,0,0,0,0,0,0,0,0,0,0,0,0
</chunk>
   <chunk x="80" y="0" width="16" height="16">
0,0,0,0,0,0,0,0,0,0,0,0,0,0,0,0,
0,0,0,0,0,0,0,0,0,0,0,1042,0,0,0,0,
232,0,0,0,0,0,0,0,0,0,0,1042,0,0,0,0,
0,0,0,0,232,0,0,0,0,0,0,1042,0,0,0,0,
0,0,0,0,0,232,0,0,0,0,0,1042,0,0,0,0,
0,0,0,232,0,0,0,232,0,0,0,1042,0,0,0,0,
0,0,0,0,0,233,0,232,0,0,0,1042,0,0,0,0,
0,0,0,232,0,0,0,0,0,0,0,1117,1118,1118,1118,1118,
0,0,0,0,0,0,232,0,0,0,232,0,0,0,0,0,
0,0,0,0,0,0,0,0,0,0,0,0,0,0,0,0,
0,0,0,0,0,0,0,0,0,0,0,0,0,0,0,0,
0,0,0,0,0,0,0,0,0,0,0,0,0,0,0,0,
0,0,0,0,0,0,0,0,0,0,0,0,0,0,0,0,
0,0,0,0,0,0,0,0,0,0,0,0,0,0,0,0,
0,0,0,0,0,0,0,0,0,0,0,0,0,0,0,0,
0,0,0,0,0,0,0,0,0,0,0,0,0,0,0,0
</chunk>
   <chunk x="96" y="0" width="16" height="16">
0,0,0,0,0,0,0,0,0,0,0,0,0,0,0,0,
0,0,0,0,0,0,0,0,1046,0,0,0,0,0,0,0,
0,0,0,0,0,0,0,0,1046,0,0,0,0,0,0,0,
0,0,0,0,0,0,0,0,1046,0,0,0,0,0,0,0,
0,0,0,0,0,0,0,0,1046,0,0,0,0,0,0,0,
0,0,0,0,0,0,0,0,1046,0,0,0,0,0,0,0,
0,0,0,0,0,0,0,0,1046,0,234,0,0,0,0,0,
0,0,1118,1118,1118,1118,1118,1118,1121,232,0,0,0,0,0,0,
0,0,0,0,0,0,0,0,0,0,0,0,0,0,0,0,
0,0,0,0,232,0,232,0,0,232,0,232,0,0,0,0,
0,0,0,0,0,0,0,0,0,0,0,0,0,0,0,0,
0,0,0,0,0,0,0,0,0,0,0,0,0,0,0,0,
0,0,0,0,0,0,0,0,0,0,0,0,0,0,0,0,
0,0,0,0,0,0,0,0,0,0,0,0,0,0,0,0,
0,0,0,0,0,0,0,0,0,0,0,0,0,0,0,0,
0,0,0,0,0,0,0,0,0,0,0,0,0,0,0,0
</chunk>
   <chunk x="0" y="16" width="16" height="16">
0,0,0,0,0,0,0,0,0,0,0,0,0,0,0,0,
0,0,0,0,0,0,0,0,0,0,0,0,0,0,0,0,
0,0,0,0,0,0,0,0,0,0,0,0,0,0,0,0,
0,0,0,0,0,0,0,0,0,0,0,0,0,0,0,0,
0,0,0,0,0,0,0,0,0,0,0,0,0,0,0,0,
0,0,0,0,0,0,0,0,0,0,0,0,0,0,0,0,
0,0,0,0,0,0,0,0,0,0,0,0,0,0,0,0,
0,0,0,0,0,0,0,0,0,0,0,0,0,0,0,0,
0,0,0,0,0,0,0,0,0,0,0,0,0,0,0,0,
0,0,0,231,0,0,0,0,0,0,0,0,0,0,0,0,
231,0,0,0,0,0,0,0,0,0,0,0,0,0,0,0,
0,0,0,0,0,0,0,0,0,0,0,0,0,0,0,0,
0,0,0,0,0,0,0,0,0,0,0,0,0,0,0,0,
231,0,0,231,0,0,0,0,0,0,0,0,0,0,0,0,
0,0,0,0,0,0,0,0,0,0,0,0,0,0,0,0,
0,0,0,0,0,0,0,0,0,0,0,0,0,0,0,0
</chunk>
   <chunk x="0" y="32" width="16" height="16">
0,0,0,0,0,0,0,0,0,0,0,0,0,0,0,0,
0,231,0,0,0,0,0,0,0,0,0,0,0,0,0,0,
0,0,0,0,0,0,0,0,0,0,0,0,0,0,0,0,
0,0,0,0,0,0,0,0,0,0,0,0,0,0,0,0,
0,0,0,0,0,0,0,0,0,0,0,0,0,0,0,0,
0,0,232,0,0,0,0,0,0,0,0,0,0,0,0,0,
0,232,0,0,0,0,0,0,0,0,0,0,0,0,0,0,
0,0,0,0,0,0,0,0,0,0,0,0,0,0,0,0,
0,0,0,0,0,0,0,0,0,0,0,0,0,0,0,0,
0,0,0,0,0,0,0,0,0,0,0,0,0,0,0,0,
0,0,0,0,0,0,0,0,0,0,0,0,0,0,0,0,
232,0,232,0,0,0,0,0,0,0,0,0,0,0,0,0,
0,0,0,232,0,0,0,0,0,0,0,0,0,0,0,0,
232,0,0,0,0,0,0,0,0,0,0,0,0,0,0,0,
0,0,0,0,0,0,0,0,0,0,0,0,0,0,0,0,
0,0,0,0,0,0,0,0,0,0,0,0,0,0,0,0
</chunk>
   <chunk x="0" y="48" width="16" height="16">
0,232,0,232,0,0,0,0,0,0,0,0,0,0,0,0,
0,0,0,0,0,0,0,0,0,0,0,0,0,0,0,0,
0,0,0,0,0,0,0,0,0,0,0,0,0,0,0,0,
0,232,0,0,0,0,0,0,0,0,0,0,0,0,0,0,
0,0,232,0,0,0,0,0,0,0,0,0,0,0,0,0,
0,0,0,0,0,0,0,0,0,0,0,0,0,0,0,0,
0,0,0,0,0,0,0,0,0,0,0,0,0,0,0,0,
0,0,0,0,0,0,0,0,0,0,0,0,0,0,0,0,
0,0,0,0,0,0,0,0,0,0,0,0,0,0,0,0,
0,0,0,0,0,0,0,0,0,0,0,0,0,0,0,0,
0,0,0,0,0,0,0,0,0,0,0,0,0,0,0,0,
0,0,0,0,0,0,0,231,0,0,0,0,0,0,0,0,
0,486,487,487,487,487,487,487,487,487,487,487,487,487,487,487,
0,561,562,562,562,562,562,562,562,562,562,562,562,562,562,562,
487,566,562,562,562,562,562,562,562,562,562,562,562,562,562,562,
562,562,562,562,562,562,562,562,562,562,562,562,562,562,562,562
</chunk>
   <chunk x="16" y="48" width="16" height="16">
0,0,0,0,0,0,0,0,0,0,0,0,0,0,0,0,
0,0,0,0,0,0,0,0,0,0,0,0,0,0,0,0,
0,0,0,0,0,0,0,0,0,0,0,0,0,0,0,0,
0,0,0,0,0,0,0,0,0,0,0,0,0,0,0,0,
0,0,0,0,0,0,0,0,0,0,0,0,0,0,0,0,
0,0,0,0,0,0,0,0,0,0,0,0,0,0,0,0,
0,0,0,0,0,0,0,0,0,0,0,0,0,0,0,0,
0,0,0,0,0,0,0,0,0,0,0,0,0,0,0,0,
0,0,0,0,0,0,0,0,0,0,0,0,0,0,0,0,
0,0,0,0,0,0,0,0,0,0,0,0,0,0,0,0,
0,0,0,0,0,0,0,0,0,0,0,0,0,0,0,0,
0,0,0,0,0,0,0,0,0,0,0,0,0,0,0,231,
487,487,487,487,487,487,487,487,487,487,487,487,487,487,487,487,
562,562,562,562,562,562,562,562,562,562,562,562,562,562,562,562,
562,562,562,562,562,562,562,562,562,562,562,562,562,562,562,562,
562,562,562,562,562,562,562,562,562,562,562,562,562,562,562,562
</chunk>
   <chunk x="32" y="48" width="16" height="16">
0,0,0,0,0,0,0,0,0,0,0,0,0,0,0,0,
0,0,0,0,0,0,0,0,0,0,0,0,0,0,0,0,
0,0,0,0,0,0,0,0,0,0,0,0,0,0,0,0,
0,0,0,0,0,0,0,0,0,0,0,0,0,0,0,0,
0,0,0,0,0,0,0,0,0,0,0,0,0,0,0,0,
0,0,0,0,0,0,0,0,0,0,0,0,0,0,0,0,
0,0,0,0,0,0,0,0,0,0,0,0,0,0,0,0,
0,0,0,0,0,0,0,0,0,0,0,0,0,0,0,0,
0,0,0,0,0,0,0,0,0,0,0,0,0,0,0,0,
0,0,0,0,0,0,0,0,0,0,0,0,0,0,0,0,
0,0,0,0,0,0,0,0,0,0,0,0,0,0,0,0,
0,0,0,0,0,0,0,0,0,0,0,0,0,0,0,0,
487,488,0,0,0,0,0,0,0,0,0,0,0,0,0,0,
562,563,0,231,0,0,0,0,0,0,0,0,0,0,0,0,
562,565,487,487,488,232,0,0,0,0,0,0,0,0,0,0,
562,562,562,562,563,0,232,0,0,0,0,0,0,0,0,0
</chunk>
   <chunk x="48" y="48" width="16" height="16">
0,0,0,0,0,0,0,0,0,0,0,0,0,0,0,0,
0,0,0,0,0,0,0,0,0,0,0,0,0,0,0,0,
0,0,0,0,0,0,0,0,0,0,0,0,0,0,0,0,
0,0,0,0,0,0,0,0,0,0,0,0,0,0,0,0,
0,0,0,0,0,0,0,0,0,0,0,0,0,0,0,0,
0,0,0,0,0,0,0,0,0,0,0,0,0,0,0,0,
0,0,0,0,0,0,0,0,0,0,0,0,0,0,0,0,
0,0,0,0,0,0,0,0,0,0,0,0,0,0,0,0,
0,0,0,0,0,0,0,0,0,0,0,0,0,0,0,0,
0,0,0,0,0,0,0,0,0,0,0,0,0,0,0,0,
0,0,0,0,0,0,0,0,0,0,0,0,0,0,0,0,
0,0,0,0,0,0,0,0,0,0,0,0,0,0,0,0,
0,0,0,0,0,0,0,0,0,0,0,0,0,0,0,0,
0,0,0,0,231,231,0,0,232,0,0,0,0,0,0,0,
0,0,0,0,0,0,0,0,0,0,0,0,0,0,0,0,
0,0,0,0,0,0,232,0,0,0,0,0,0,0,0,0
</chunk>
   <chunk x="64" y="48" width="16" height="16">
0,0,0,0,0,0,0,0,0,0,0,0,0,0,0,0,
0,0,0,0,0,0,0,0,0,0,0,0,0,0,0,0,
0,0,0,0,0,0,0,0,0,0,0,0,0,0,0,0,
0,0,0,0,0,0,0,0,0,0,0,0,0,0,0,0,
0,0,0,0,0,0,0,0,0,0,0,0,0,0,0,0,
0,0,0,0,0,0,0,0,0,0,0,0,0,0,0,0,
0,0,0,0,0,0,0,0,0,0,0,0,0,0,0,0,
0,0,0,0,0,0,0,0,0,0,0,0,0,0,0,0,
0,0,0,0,0,0,0,0,0,0,0,0,0,0,0,0,
0,0,0,0,0,0,0,0,0,0,0,0,0,0,0,0,
0,0,0,0,0,0,0,0,0,0,0,0,0,0,0,0,
0,0,0,0,0,0,0,0,0,0,0,0,0,0,0,0,
0,0,0,0,0,0,0,0,0,0,0,0,0,0,0,0,
0,0,231,0,0,0,0,0,0,0,0,0,0,0,0,0,
0,0,0,0,0,231,0,0,0,0,0,233,0,0,0,0,
231,0,0,0,0,0,0,0,0,0,0,0,231,0,0,0
</chunk>
   <chunk x="80" y="48" width="16" height="16">
0,0,0,0,0,0,0,0,0,0,0,0,0,0,0,0,
0,0,0,0,0,0,0,0,0,0,0,0,0,0,0,0,
0,0,0,0,0,0,0,0,0,0,0,0,0,0,0,0,
0,0,0,0,0,0,0,0,0,0,0,0,0,0,0,0,
0,0,0,0,0,0,0,0,0,0,0,0,0,0,0,0,
0,0,0,0,0,0,0,0,0,0,0,0,0,0,0,0,
0,0,0,0,0,0,0,0,0,0,0,0,0,0,0,0,
0,0,0,0,0,0,0,0,0,0,0,0,0,0,0,0,
0,0,0,0,0,0,0,0,0,0,0,0,0,0,0,0,
0,0,0,0,0,0,0,0,0,0,0,0,0,0,0,0,
0,0,0,0,0,0,0,0,0,0,0,0,0,0,0,0,
0,0,0,0,0,0,0,0,0,0,0,0,0,0,0,0,
0,0,0,0,0,0,0,0,0,0,0,0,0,0,0,0,
0,0,0,0,0,0,0,232,0,0,0,6,7,0,0,0,
0,0,0,0,0,0,0,0,233,0,0,81,82,0,0,0,
0,233,0,0,0,0,0,0,0,0,0,0,0,0,0,0
</chunk>
   <chunk x="96" y="48" width="16" height="16">
0,0,0,0,0,0,0,0,0,0,0,0,0,0,0,0,
0,0,0,0,0,0,0,0,0,0,0,0,0,0,0,0,
0,0,0,0,0,0,0,0,0,0,0,0,0,0,0,0,
0,0,0,0,0,0,0,0,0,0,0,0,0,0,0,0,
0,0,0,0,0,0,0,0,0,0,0,0,0,0,0,0,
0,0,0,0,0,0,0,0,0,0,0,0,0,0,0,0,
0,0,0,0,0,0,0,0,0,0,0,0,0,0,0,0,
0,0,0,0,0,0,0,0,0,0,0,0,0,0,0,0,
0,0,0,0,0,0,0,0,0,0,0,0,0,0,0,0,
0,0,0,0,0,0,0,0,0,0,162,162,83,0,0,0,
0,0,0,0,0,0,0,0,85,162,162,162,163,0,0,0,
0,0,0,0,0,0,0,0,85,162,162,0,158,154,0,0,
0,0,0,0,0,0,0,0,11,12,12,12,12,12,0,0,
0,0,0,0,0,0,0,0,86,87,87,87,87,87,0,0,
0,0,0,0,0,6,7,0,0,0,0,0,0,0,0,0,
0,0,0,0,0,81,82,0,0,0,0,0,0,0,0,0
</chunk>
  </data>
 </layer>
 <layer id="8" name="Deco" width="30" height="20">
  <data encoding="csv">
   <chunk x="0" y="0" width="16" height="16">
562,562,562,562,562,562,562,562,562,562,562,562,562,562,562,563,
562,562,562,562,562,562,562,562,562,562,562,562,562,562,562,563,
637,637,637,637,637,637,637,637,637,637,637,637,637,637,637,638,
0,0,0,0,0,0,0,0,0,0,0,0,0,0,0,0,
0,0,0,0,0,0,0,0,0,0,0,0,0,0,0,0,
0,0,0,0,0,0,0,0,0,0,0,0,0,0,0,0,
0,0,0,0,0,0,0,0,0,0,0,0,0,0,0,0,
0,0,0,0,0,0,0,0,0,0,0,0,0,0,0,0,
0,0,0,0,0,0,0,0,0,0,0,0,0,0,0,0,
0,0,0,0,0,0,0,0,0,0,0,0,0,0,0,0,
0,0,0,0,0,0,0,0,0,0,0,0,0,0,0,0,
0,0,0,0,0,0,0,0,0,0,0,0,0,0,0,0,
0,0,0,0,0,0,0,0,0,0,0,0,0,0,0,0,
0,0,0,0,0,0,0,0,0,0,0,0,0,0,0,0,
0,0,0,0,0,0,0,0,0,0,0,0,0,0,0,0,
0,0,0,0,0,0,0,0,0,0,0,0,0,0,0,0
</chunk>
   <chunk x="16" y="0" width="16" height="16">
0,0,0,0,0,0,561,562,562,562,562,562,562,562,562,562,
0,0,0,0,0,0,561,562,562,562,562,562,562,562,562,562,
0,0,0,0,0,0,636,637,637,637,637,637,637,637,637,637,
0,0,0,0,0,0,0,0,0,0,0,0,0,0,0,0,
0,0,0,0,0,0,0,0,0,0,0,0,0,0,0,0,
0,0,0,0,0,0,0,0,0,0,0,0,0,0,0,0,
0,0,0,0,0,0,0,0,0,0,0,0,0,0,0,0,
0,0,0,0,0,0,0,0,0,0,0,0,0,0,0,0,
0,0,0,0,0,0,0,0,0,0,0,0,0,0,0,0,
0,0,0,0,0,0,0,0,0,0,0,0,0,0,0,0,
0,0,0,0,0,0,0,0,0,0,0,0,0,0,0,0,
0,0,0,0,0,0,0,0,0,0,0,0,0,0,0,0,
0,0,0,0,0,0,0,0,0,0,0,0,0,0,0,0,
0,0,0,0,0,0,0,0,0,0,0,0,0,0,0,0,
0,0,0,0,0,0,0,0,0,0,0,0,0,0,0,0,
0,0,0,0,0,0,0,0,0,0,0,0,0,0,0,0
</chunk>
   <chunk x="32" y="0" width="16" height="16">
562,562,562,562,562,562,562,562,562,562,562,562,562,562,562,562,
562,562,562,490,637,637,637,637,637,637,637,637,637,637,637,637,
637,637,637,638,0,0,0,0,0,0,0,0,0,0,0,0,
0,0,0,0,0,0,0,0,0,0,0,0,0,0,0,0,
0,0,0,0,0,0,0,0,0,0,0,0,0,0,0,0,
0,0,0,0,0,0,0,0,0,0,0,0,0,0,0,0,
0,0,0,0,0,0,0,0,0,0,0,0,0,0,0,0,
0,0,0,0,0,0,0,0,0,0,0,0,0,0,0,0,
0,0,0,0,0,0,0,0,0,0,0,0,0,0,0,0,
0,0,0,0,0,0,0,0,0,0,0,0,0,0,0,0,
0,0,0,0,0,0,0,0,0,0,0,0,0,0,0,0,
0,0,0,0,0,0,0,0,0,0,0,0,0,0,0,0,
0,0,0,0,0,0,0,0,0,0,0,0,0,0,0,0,
0,0,0,0,0,0,0,0,0,0,0,0,0,0,0,0,
0,0,0,0,0,0,0,0,0,0,0,0,0,0,0,0,
0,0,0,0,0,0,0,0,0,0,0,0,0,0,0,0
</chunk>
   <chunk x="48" y="0" width="16" height="16">
562,562,562,562,562,562,562,562,562,562,562,562,562,562,562,562,
637,637,637,637,637,637,637,637,637,637,637,637,637,637,637,637,
0,0,0,0,0,0,0,0,0,0,0,0,0,0,0,0,
0,0,0,0,0,0,0,0,0,0,0,0,0,0,0,0,
0,0,0,0,0,0,0,0,0,0,0,0,0,0,0,0,
0,0,0,0,0,0,0,0,0,0,0,0,0,0,0,0,
0,0,0,0,0,0,0,0,0,0,0,0,0,0,0,0,
0,0,0,0,0,0,0,0,0,0,0,0,0,0,0,0,
0,0,0,0,0,0,0,0,0,0,0,0,0,0,0,0,
0,0,0,0,0,0,0,0,0,0,0,0,0,0,0,0,
0,0,0,0,0,0,0,0,0,0,0,0,0,0,0,0,
0,0,0,0,0,0,0,0,0,0,0,0,0,0,0,0,
0,0,0,0,0,0,0,0,0,0,0,0,0,0,0,0,
0,0,0,0,0,0,0,0,0,0,0,0,0,0,0,0,
0,0,0,0,0,0,0,0,0,0,0,0,0,0,0,0,
0,0,0,0,0,0,0,0,0,0,0,0,0,0,0,0
</chunk>
   <chunk x="64" y="0" width="16" height="16">
562,562,562,562,562,562,562,562,562,562,562,562,562,562,562,562,
637,637,637,637,637,637,637,637,637,637,637,637,637,637,637,637,
0,0,0,0,0,0,0,0,0,0,0,0,0,0,0,0,
0,0,0,0,0,0,0,0,0,0,0,0,0,0,0,0,
0,0,0,0,0,0,0,0,0,0,0,0,0,0,0,0,
0,0,0,0,0,0,0,0,0,0,0,0,0,0,0,0,
0,0,0,0,0,0,0,0,0,0,0,0,0,0,0,0,
0,0,0,0,0,0,0,0,0,0,0,0,0,0,0,0,
0,0,0,0,0,0,0,0,0,0,0,0,0,0,0,0,
0,0,0,0,0,0,0,0,0,0,0,0,0,0,0,0,
0,0,0,0,0,0,0,0,0,0,0,0,0,0,0,0,
0,0,0,0,0,0,0,0,0,0,0,0,0,0,0,0,
0,0,0,0,0,0,0,0,0,0,0,0,0,0,0,0,
0,0,0,0,0,0,0,0,0,0,0,0,0,0,0,0,
0,0,0,0,0,0,0,0,0,0,0,0,0,0,0,0,
0,0,0,0,0,0,0,0,0,0,0,0,0,0,0,0
</chunk>
   <chunk x="80" y="0" width="16" height="16">
562,562,562,562,562,562,562,562,562,562,562,562,562,562,562,562,
637,637,637,637,637,637,491,562,562,490,637,637,637,637,637,637,
0,0,0,0,0,0,636,637,637,638,0,0,382,384,0,0,
0,0,0,0,0,0,0,0,0,2196,2348,0,382,384,0,0,
0,0,0,0,0,0,0,0,0,0,2346,0,382,384,0,0,
0,0,0,0,0,0,0,0,0,0,2271,0,382,384,0,0,
0,0,0,0,0,0,0,0,0,0,0,0,382,382,0,0,
0,0,0,0,0,0,0,0,0,0,0,0,0,0,0,0,
0,0,0,0,0,0,0,0,0,0,0,0,0,0,0,0,
0,0,0,0,0,0,0,0,0,0,0,0,0,0,0,0,
0,0,0,0,0,0,0,0,0,0,0,0,0,0,0,0,
0,0,0,0,0,0,0,0,0,0,0,0,0,0,0,0,
0,0,0,0,0,0,0,0,0,0,0,0,0,0,0,0,
0,0,0,0,0,0,0,0,0,0,0,0,0,0,0,0,
0,0,0,0,0,0,0,0,0,0,0,0,0,0,0,0,
0,0,0,0,0,0,0,0,0,0,0,0,0,0,0,0
</chunk>
   <chunk x="96" y="0" width="16" height="16">
562,562,562,562,562,562,562,562,562,562,562,562,562,562,0,0,
637,637,637,637,637,637,637,637,637,637,491,562,562,562,0,0,
0,0,0,0,0,0,384,382,0,2499,561,562,562,562,0,0,
0,0,0,0,0,0,384,382,0,2499,561,562,562,562,0,0,
0,0,0,0,0,0,384,382,0,2500,636,637,491,562,0,0,
0,0,0,0,0,0,384,382,0,2501,0,0,561,562,0,0,
0,0,0,0,0,0,382,382,0,0,0,0,561,562,0,0,
0,0,0,0,0,0,0,0,0,0,0,0,636,637,0,0,
0,0,0,0,0,0,0,0,0,0,0,0,0,0,0,0,
0,0,0,0,0,0,0,0,0,0,0,0,0,0,0,0,
0,0,0,0,0,0,0,0,0,0,0,0,0,0,0,0,
0,0,0,0,0,0,0,0,0,0,0,0,0,0,0,0,
0,0,0,0,0,0,0,0,0,0,0,0,0,0,0,0,
0,0,0,0,0,0,0,0,0,0,0,0,0,0,0,0,
0,0,0,0,0,0,0,0,0,0,0,0,0,0,0,0,
0,0,0,0,0,0,0,0,0,0,0,0,0,0,0,0
</chunk>
   <chunk x="0" y="48" width="16" height="16">
0,0,0,0,0,0,0,0,0,0,0,0,0,0,0,0,
0,0,0,0,0,0,0,0,0,0,0,0,0,0,0,0,
0,0,0,0,0,0,0,0,0,0,0,0,0,0,0,0,
0,0,0,0,0,0,0,0,0,0,0,0,0,0,0,0,
0,0,0,0,0,0,0,0,0,0,0,0,0,0,0,0,
0,0,0,0,0,0,0,0,0,0,0,0,0,0,0,0,
0,0,0,0,0,0,0,0,0,0,0,0,0,0,0,0,
0,0,0,0,0,0,0,0,0,0,0,0,0,0,0,0,
0,0,0,0,0,0,0,0,0,0,0,0,0,0,0,0,
0,0,0,0,0,0,0,0,0,0,0,0,0,0,0,0,
0,0,0,0,0,0,0,0,0,0,0,0,0,0,0,0,
0,0,0,0,234,0,0,0,0,0,234,0,0,0,0,234,
0,0,0,0,0,0,0,0,0,0,0,0,0,0,0,0,
0,0,0,0,0,0,0,0,309,0,0,0,0,0,0,0,
0,0,0,0,309,0,0,309,0,0,0,0,0,0,0,0,
0,0,0,0,0,0,0,0,0,0,0,0,0,0,0,0
</chunk>
   <chunk x="16" y="48" width="16" height="16">
0,0,0,0,0,0,0,0,0,0,0,0,0,0,0,0,
0,0,0,0,0,0,0,0,0,0,0,0,0,0,0,0,
0,0,0,0,0,0,0,0,0,0,0,0,0,0,0,0,
0,0,0,0,0,0,0,0,0,0,0,0,0,0,0,0,
0,0,0,0,0,0,0,0,0,0,0,0,0,0,0,0,
0,0,0,0,0,0,0,0,0,0,0,0,0,0,0,0,
0,0,0,0,0,0,0,0,0,0,0,0,0,0,0,0,
0,0,0,0,0,0,0,0,0,0,0,0,0,0,0,0,
0,0,0,0,0,0,0,0,0,0,0,0,0,0,0,0,
0,0,0,0,0,0,0,0,0,0,0,0,0,0,0,0,
0,0,0,0,0,0,0,0,0,0,0,0,0,0,0,0,
0,0,234,0,0,0,0,0,234,0,0,234,234,0,0,0,
0,0,0,0,0,0,0,0,0,0,0,0,0,0,0,0,
156,0,0,0,0,0,0,0,0,0,0,0,0,0,0,0,
156,0,0,0,0,0,0,0,157,0,0,309,0,0,0,309,
0,0,0,157,0,0,0,0,0,0,0,0,0,0,0,0
</chunk>
   <chunk x="32" y="48" width="16" height="16">
0,0,0,0,0,0,0,0,0,0,0,0,0,0,0,0,
0,0,0,0,0,0,0,0,0,0,0,0,0,0,0,0,
0,0,0,0,0,0,0,0,0,0,0,0,0,0,0,0,
0,0,0,0,0,0,0,0,0,0,0,0,0,0,0,0,
0,0,0,0,0,0,0,0,0,0,0,0,0,0,0,0,
0,0,0,0,0,0,0,0,0,0,0,0,0,0,0,0,
0,0,0,0,0,0,0,0,0,0,0,0,0,0,0,0,
0,0,0,0,0,0,0,0,0,0,0,0,0,0,0,0,
0,0,0,0,0,0,0,0,0,0,0,0,0,0,0,0,
0,0,0,0,0,0,0,0,0,0,0,0,0,0,0,0,
0,0,0,0,0,0,0,0,0,0,0,0,0,0,0,0,
0,0,0,234,0,0,0,0,0,0,0,0,0,0,0,0,
0,0,0,0,234,0,0,0,0,0,0,0,0,0,0,0,
0,0,0,0,0,0,0,0,0,0,0,0,0,0,0,0,
0,0,0,0,0,0,0,234,0,0,0,0,0,0,0,0,
0,0,0,0,0,0,0,234,0,0,0,0,0,0,0,0
</chunk>
   <chunk x="48" y="48" width="16" height="16">
0,0,0,0,0,0,0,0,0,0,0,0,0,0,0,0,
0,0,0,0,0,0,0,0,0,0,0,0,0,0,0,0,
0,0,0,0,0,0,0,0,0,0,0,0,0,0,0,0,
0,0,0,0,0,0,0,0,0,0,0,0,0,0,0,0,
0,0,0,0,0,0,0,0,0,0,0,0,0,0,0,0,
0,0,0,0,0,0,0,0,0,0,0,0,0,0,0,0,
0,0,0,0,0,0,0,0,0,0,0,0,0,0,0,0,
0,0,0,0,0,0,0,0,0,0,0,0,0,0,0,0,
0,0,0,0,0,0,0,0,0,0,0,0,0,0,0,0,
0,0,0,0,0,0,0,0,0,0,0,0,0,0,0,0,
0,0,0,0,0,0,0,0,0,0,0,0,0,0,0,0,
0,0,0,0,0,0,0,0,0,0,0,0,0,0,0,0,
0,0,0,0,0,0,0,0,0,0,0,0,0,0,0,0,
0,0,0,0,0,0,0,0,0,0,3541,0,0,3539,3540,0,
0,0,0,0,0,0,0,0,0,0,3616,0,3541,3614,3615,0,
0,0,0,0,0,0,0,0,0,0,0,0,3616,0,0,0
</chunk>
   <chunk x="64" y="48" width="16" height="16">
0,0,0,0,0,0,0,0,0,0,0,0,0,0,0,0,
0,0,0,0,0,0,0,0,0,0,0,0,0,0,0,0,
0,0,0,0,0,0,0,0,0,0,0,0,0,0,0,0,
0,0,0,0,0,0,0,0,0,0,0,0,0,0,0,0,
0,0,0,0,0,0,0,0,0,0,0,0,0,0,0,0,
0,0,0,0,0,0,0,0,0,0,0,0,0,0,0,0,
0,0,0,0,0,0,0,0,0,0,0,0,0,0,0,0,
0,0,0,0,0,0,0,0,0,0,0,0,0,0,0,0,
0,0,0,0,0,0,0,0,0,0,0,0,0,0,0,0,
0,0,0,0,0,0,0,0,0,0,0,0,0,0,0,0,
0,0,0,0,0,0,0,0,0,3246,3247,3248,3249,0,0,0,
0,0,0,0,0,0,0,0,0,3321,3322,3323,3324,0,0,0,
0,0,0,0,0,0,0,0,0,0,0,0,0,0,0,0,
3541,0,0,0,0,0,3317,3318,3319,3320,3317,0,0,3543,3544,3545,
3616,0,0,3464,3465,0,3392,3393,3394,3395,3392,0,0,3618,3619,3620,
0,0,0,0,0,0,3467,3468,3469,3470,3467,0,0,0,0,0
</chunk>
   <chunk x="80" y="48" width="16" height="16">
0,0,0,0,0,0,0,0,0,0,0,0,0,0,0,0,
0,0,0,0,0,0,0,0,0,0,0,0,0,0,0,0,
0,0,0,0,0,0,0,0,0,0,0,0,0,0,0,0,
0,0,0,0,0,0,0,0,0,0,0,0,0,0,0,0,
0,0,0,0,0,0,0,0,0,0,0,0,0,0,0,0,
0,0,0,0,0,0,0,0,0,0,0,0,0,0,0,0,
0,0,0,0,0,0,0,0,0,0,0,0,0,0,0,0,
0,0,0,0,0,0,0,0,0,0,0,0,0,0,0,0,
0,0,0,0,0,0,0,0,0,0,0,0,0,0,0,0,
0,0,0,0,0,0,0,0,0,0,0,0,0,0,0,0,
0,0,0,0,0,0,0,0,0,0,0,0,0,0,0,0,
0,0,0,0,0,0,0,0,0,0,0,0,0,0,0,0,
0,0,0,0,0,0,0,0,0,0,0,0,0,0,0,0,
3546,0,0,0,0,0,0,0,0,0,0,0,0,0,0,0,
3621,0,0,0,0,0,0,0,0,0,0,0,0,0,0,0,
0,0,0,0,0,0,0,0,0,0,0,0,0,0,0,0
</chunk>
   <chunk x="96" y="48" width="16" height="16">
0,0,0,0,0,0,0,0,0,0,0,0,0,0,0,0,
0,0,0,0,0,0,0,0,0,0,0,0,0,0,0,0,
0,0,0,0,0,0,0,0,0,0,0,0,0,0,0,0,
0,0,0,0,0,0,0,0,0,0,0,0,0,0,0,0,
0,0,0,0,0,0,0,0,0,0,0,0,0,0,0,0,
0,0,0,0,0,0,0,0,0,0,0,0,0,0,0,0,
0,0,0,0,0,0,0,0,0,0,0,0,0,0,0,0,
0,0,0,0,0,0,0,0,0,0,0,0,0,0,0,0,
0,0,0,0,0,0,0,0,0,0,0,0,0,0,0,0,
0,0,0,0,0,0,0,0,0,0,307,0,0,0,0,0,
0,0,0,0,0,0,0,0,0,0,0,0,0,0,0,0,
0,0,0,0,0,0,0,0,0,0,0,0,0,0,0,0,
0,0,0,0,0,0,0,0,0,0,0,0,0,0,0,0,
0,0,0,0,0,0,0,0,0,0,0,0,0,0,0,0,
0,0,0,0,0,0,0,0,0,0,0,0,0,0,0,0,
0,0,0,0,0,0,0,0,0,0,0,0,0,0,0,0
</chunk>
  </data>
 </layer>
 <layer id="9" name="Deco2" width="30" height="20">
  <data encoding="csv">
   <chunk x="16" y="0" width="16" height="16">
0,0,2627,2629,0,0,0,0,0,0,0,0,0,0,0,0,
0,0,2627,2629,0,0,0,0,0,0,0,0,0,0,0,0,
0,0,2252,2254,0,0,0,0,0,0,0,0,0,0,0,0,
0,0,2627,2254,0,0,0,0,0,0,0,0,0,0,0,0,
0,0,2252,2254,0,0,0,0,0,0,0,0,0,0,0,0,
0,0,2252,2254,0,0,0,0,0,0,0,0,0,0,0,0,
0,0,0,0,0,0,0,0,0,0,0,0,0,0,0,0,
0,0,0,0,0,0,0,0,0,0,0,0,0,0,0,0,
0,0,0,0,0,0,0,0,0,0,0,0,0,0,0,0,
0,0,0,0,0,0,0,0,0,0,0,0,0,0,0,0,
0,0,0,0,0,0,0,0,0,0,0,0,0,0,0,0,
0,0,0,0,0,0,0,0,0,0,0,0,0,0,0,0,
0,0,0,0,0,0,0,0,0,0,0,0,0,0,0,0,
0,0,0,0,0,0,0,0,0,0,0,0,0,0,0,0,
0,0,0,0,0,0,0,0,0,0,0,0,0,0,0,0,
0,0,0,0,0,0,0,0,0,0,0,0,0,0,0,0
</chunk>
   <chunk x="64" y="0" width="16" height="16">
0,0,0,0,0,0,0,0,234,0,0,0,0,0,234,0,
0,0,0,0,0,0,0,0,0,0,0,0,0,0,0,0,
0,0,0,0,0,0,0,0,0,0,0,0,0,0,0,0,
0,0,0,0,0,0,0,0,0,0,0,0,0,0,0,0,
0,0,0,0,0,0,0,0,0,0,0,0,0,0,0,0,
0,0,0,0,0,0,0,0,0,0,0,0,0,0,0,0,
0,0,0,0,0,0,0,0,0,0,0,0,0,0,0,0,
0,0,0,0,0,0,0,0,0,0,0,0,0,0,0,0,
0,0,0,0,0,0,0,0,0,0,0,0,0,0,0,0,
0,0,0,0,0,0,0,0,0,0,0,0,0,0,0,0,
0,0,0,0,0,0,0,0,0,0,0,0,0,0,0,0,
0,0,0,0,0,0,0,0,0,0,0,0,0,0,0,0,
0,0,0,0,0,0,0,0,0,0,0,0,0,0,0,0,
0,0,0,0,0,0,0,0,0,0,0,0,0,0,0,0,
0,0,0,0,0,0,0,0,0,0,0,0,0,0,0,0,
0,0,0,0,0,0,0,0,0,0,0,0,0,0,0,0
</chunk>
   <chunk x="80" y="0" width="16" height="16">
0,0,0,0,0,0,0,0,0,0,0,234,234,0,0,0,
0,0,0,0,0,0,0,307,234,0,0,0,0,0,0,0,
0,0,0,0,0,0,0,0,0,0,0,0,0,0,0,0,
0,0,0,0,0,0,0,0,0,0,0,0,0,0,0,0,
0,0,0,0,0,0,0,0,0,0,0,0,0,0,0,0,
0,0,0,0,0,0,0,0,0,0,0,0,0,0,0,0,
0,0,0,0,0,0,0,0,0,0,0,0,0,0,0,0,
0,0,0,0,0,0,0,0,0,0,0,0,0,0,0,0,
0,0,0,0,0,0,0,0,0,0,0,0,0,0,0,0,
0,0,0,0,0,0,0,0,0,0,0,0,0,0,0,0,
0,0,0,0,0,0,0,0,0,0,0,0,0,0,0,0,
0,0,0,0,0,0,0,0,0,0,0,0,0,0,0,0,
0,0,0,0,0,0,0,0,0,0,0,0,0,0,0,0,
0,0,0,0,0,0,0,0,0,0,0,0,0,0,0,0,
0,0,0,0,0,0,0,0,0,0,0,0,0,0,0,0,
0,0,0,0,0,0,0,0,0,0,0,0,0,0,0,0
</chunk>
  </data>
 </layer>
 <layer id="2" name="TileMark" class="TileMark" width="30" height="20" visible="0">
  <data encoding="csv">
   <chunk x="0" y="-16" width="16" height="16">
0,0,0,0,0,0,0,0,0,0,0,0,0,0,0,0,
0,0,0,0,0,0,0,0,0,0,0,0,0,0,0,0,
0,0,0,0,0,0,0,0,0,0,0,0,0,0,0,0,
0,0,0,0,0,0,0,0,0,0,0,0,0,0,0,0,
0,0,0,0,0,0,0,0,0,0,0,0,0,0,0,0,
0,0,0,0,0,0,0,0,0,0,0,0,0,0,0,0,
0,0,0,0,0,0,0,0,0,0,0,0,0,0,0,0,
0,0,0,0,0,0,0,0,0,0,0,0,0,0,0,0,
0,0,0,0,0,0,0,0,0,0,0,0,0,0,0,0,
0,0,0,0,0,0,0,0,0,0,0,0,0,0,0,0,
0,0,0,0,0,0,0,0,0,0,0,0,0,0,0,0,
0,0,0,0,0,0,0,0,0,0,0,0,0,0,0,0,
0,0,0,0,0,0,0,0,0,0,0,0,0,0,0,0,
0,0,0,0,0,0,0,0,0,0,0,0,0,0,0,0,
0,0,0,0,0,0,0,0,0,0,0,0,0,0,0,4051,
0,0,0,0,0,0,0,0,0,0,0,0,0,0,0,4051
</chunk>
   <chunk x="16" y="-16" width="16" height="16">
0,0,0,0,0,0,0,0,0,0,0,0,0,0,0,0,
0,0,0,0,0,0,0,0,0,0,0,0,0,0,0,0,
0,0,0,0,0,0,0,0,0,0,0,0,0,0,0,0,
0,0,0,0,0,0,0,0,0,0,0,0,0,0,0,0,
0,0,0,0,0,0,0,0,0,0,0,0,0,0,0,0,
0,0,0,0,0,0,0,0,0,0,0,0,0,0,0,0,
0,0,0,0,0,0,0,0,0,0,0,0,0,0,0,0,
0,0,0,0,0,0,0,0,0,0,0,0,0,0,0,0,
0,0,0,0,0,0,0,0,0,0,0,0,0,0,0,0,
0,0,0,0,0,0,0,0,0,0,0,0,0,0,0,0,
0,0,0,0,0,0,0,0,0,0,0,0,0,0,0,0,
0,0,0,0,0,0,0,0,0,0,0,0,0,0,0,0,
0,0,0,0,0,0,0,0,0,0,0,0,0,0,0,0,
0,0,0,0,0,0,0,0,0,0,0,0,0,0,0,0,
4051,4051,4051,4051,4051,4051,4051,0,0,0,0,0,0,0,0,0,
0,0,0,0,0,0,4051,0,0,0,0,0,0,0,0,0
</chunk>
   <chunk x="-16" y="0" width="16" height="16">
0,0,0,0,0,0,0,0,0,0,0,0,0,0,0,0,
0,0,0,0,0,0,0,0,0,0,0,0,0,0,0,0,
0,0,0,0,0,0,0,0,0,0,0,0,0,0,4051,4051,
0,0,0,0,0,0,0,0,0,0,0,0,0,0,4051,0,
0,0,0,0,0,0,0,0,0,0,0,0,0,0,4051,0,
0,0,0,0,0,0,0,0,0,0,0,0,0,0,4051,0,
0,0,0,0,0,0,0,0,0,0,0,0,0,0,4051,4051,
0,0,0,0,0,0,0,0,0,0,0,0,0,0,4051,4051,
0,0,0,0,0,0,0,0,0,0,0,0,0,0,0,4051,
0,0,0,0,0,0,0,0,0,0,0,0,0,0,0,4051,
0,0,0,0,0,0,0,0,0,0,0,0,0,0,0,4051,
0,0,0,0,0,0,0,0,0,0,0,0,0,4051,4051,4051,
0,0,0,0,0,0,0,0,0,0,0,0,0,4051,0,0,
0,0,0,0,0,0,0,0,0,0,0,0,0,4051,0,0,
0,0,0,0,0,0,0,0,0,0,0,0,0,4051,4051,4051,
0,0,0,0,0,0,0,0,0,0,0,0,0,0,0,4051
</chunk>
   <chunk x="0" y="0" width="16" height="16">
0,0,0,0,0,0,0,0,0,0,0,0,0,0,0,4051,
0,0,0,0,0,0,0,0,0,0,0,0,0,0,0,4051,
4051,4051,4051,4051,4051,4051,4051,4051,4051,4051,4051,4051,4051,4051,4051,4051,
0,0,0,0,0,0,0,0,0,0,0,0,0,0,0,0,
0,0,0,0,0,0,0,0,0,0,0,0,0,0,0,0,
0,0,0,0,0,0,0,0,0,0,0,0,0,0,0,0,
4051,4051,4051,4051,4051,4051,4051,4051,4051,4051,4051,4051,4051,4051,4051,4051,
4051,4051,4051,4051,4051,4051,4051,4051,4051,4051,4051,4051,4051,4051,4051,4051,
4055,4055,4055,4055,4055,4055,4055,4055,4055,4055,4055,4055,4055,4055,4055,4055,
4055,4055,4055,4055,4055,4055,4055,4055,4055,4055,4055,4055,4055,4055,4055,4055,
4055,4055,4055,4055,4055,4055,4055,4055,4055,4055,4055,4055,4055,4055,4055,4055,
4055,4055,4055,4055,4055,4055,4055,4055,4055,4055,4055,4055,4055,4055,4055,4055,
4091,4091,4091,4091,4091,4091,4091,4091,4091,4091,4091,4091,4091,4091,4091,4091,
4091,4091,4091,4091,4091,4091,4091,4091,4091,4091,4091,4091,4091,4091,4091,4091,
4055,4055,4055,4055,4055,4055,4055,4055,4055,4055,4055,4055,4055,4055,4055,4055,
4055,4055,4055,4055,4055,4055,4055,4055,4055,4055,4055,4055,4055,4055,4055,4055
</chunk>
   <chunk x="16" y="0" width="16" height="16">
0,0,4091,4091,0,0,4051,0,0,0,0,0,0,0,0,0,
0,0,4091,4091,0,0,4051,0,0,0,0,0,0,0,0,0,
0,0,4091,4091,0,0,4051,4051,4051,4051,4051,4051,4051,4051,4051,4051,
0,0,4091,4091,0,0,0,0,0,0,0,0,0,0,0,0,
0,0,4091,4091,0,0,0,0,0,0,0,0,0,0,0,0,
0,0,4091,4091,0,0,0,0,0,0,0,0,0,0,0,0,
4051,4051,4091,4091,4051,4051,4051,4051,4051,4051,4051,4051,4051,4051,4051,4051,
4051,4051,4091,4091,4051,4051,4051,4051,4051,4051,4051,4051,4051,4051,4051,4051,
4055,4055,4091,4091,4055,4055,4055,4055,4055,4055,4055,4055,4055,4055,4055,4055,
4055,4055,4091,4091,4055,4055,4055,4055,4055,4055,4055,4055,4055,4055,4055,4055,
4055,4055,4091,4091,4055,4055,4055,4055,4055,4055,4055,4055,4055,4055,4055,4055,
4055,4055,4091,4091,4055,4055,4055,4055,4055,4055,4055,4055,4055,4055,4055,4055,
4091,4091,4091,4091,4055,4055,4055,4055,4055,4055,4055,4055,4055,4055,4055,4055,
4091,4091,4091,4091,4055,4055,4055,4055,4055,4055,4055,4055,4055,4055,4055,4055,
4055,4055,4055,4055,4055,4055,4055,4055,4055,4055,4055,4055,4055,4055,4055,4055,
4055,4055,4055,4055,4055,4055,4055,4055,4055,4055,4055,4055,4055,4055,4055,4055
</chunk>
   <chunk x="32" y="0" width="16" height="16">
0,0,0,0,0,0,0,0,0,0,0,0,0,0,0,0,
0,0,0,4051,4051,4051,4051,4051,4051,4051,4051,4051,4051,4051,4051,4051,
4051,4051,4051,4051,0,0,0,0,0,0,0,0,0,0,0,0,
0,0,0,0,0,0,0,0,0,0,0,0,0,0,0,0,
0,0,0,0,0,0,0,0,0,0,0,0,0,0,0,0,
0,0,0,0,0,0,0,0,0,0,0,0,0,0,0,0,
4051,4051,4051,4051,4051,4051,4051,4051,4051,4051,4051,4051,4051,4051,4051,4051,
4051,4051,4051,4051,4051,4051,4051,4051,4051,4051,4051,4051,4051,4051,4051,4051,
4055,4055,4055,4055,4055,4055,4055,4055,4055,4055,4055,4055,4055,4055,4055,4055,
4055,4055,4055,4055,4055,4055,4055,4055,4055,4055,4055,4055,4055,4055,4055,4055,
4055,4055,4055,4055,4055,4055,4055,4055,4055,4055,4055,4055,4055,4055,4055,4055,
4055,4055,4055,4055,4055,4055,4055,4055,4055,4055,4055,4055,4055,4055,4055,4055,
4055,4055,4055,4055,4055,4055,4055,4055,4055,4055,4055,4055,4055,4055,4055,4055,
4055,4055,4055,4055,4055,4055,4055,4055,4055,4055,4055,4055,4055,4055,4055,4055,
4055,4055,4055,4055,4055,4055,4055,4055,4055,4055,4055,4055,4055,4055,4055,4055,
4055,4055,4055,4055,4055,4055,4055,4055,4055,4055,4055,4055,4055,4055,4055,4055
</chunk>
   <chunk x="48" y="0" width="16" height="16">
0,0,0,0,0,0,0,0,0,0,0,0,0,0,0,0,
4051,4051,4051,4051,4051,4051,4051,4051,4051,4051,4051,4051,4051,4051,4051,4051,
0,0,0,0,0,0,0,0,0,0,0,0,0,0,0,0,
0,0,0,0,0,0,0,0,0,0,0,0,0,0,0,0,
0,0,0,0,0,0,0,0,0,0,0,0,0,0,0,0,
0,0,0,0,0,0,0,0,0,0,0,0,0,0,0,0,
4051,4051,4051,4051,4051,4051,4051,4051,4051,4051,4051,4051,4051,4051,4051,4051,
4051,4051,4051,4051,4051,4051,4051,4051,4051,4051,4051,4051,4051,4051,4051,4051,
4055,4055,4055,4055,4055,4055,4055,4055,4055,4055,4055,4055,4055,4055,4055,4055,
4055,4055,4055,4055,4055,4055,4055,4055,4055,4055,4055,4055,4055,4055,4055,4055,
4055,4055,4055,4055,4055,4055,4055,4055,4055,4055,4055,4055,4055,4055,4055,4055,
4055,4055,4055,4055,4055,4055,4055,4055,4055,4055,4055,4055,4055,4055,4055,4055,
4055,4055,4055,4055,4055,4055,4055,4055,4055,4055,4055,4055,4055,4055,4055,4055,
4055,4055,4055,4055,4055,4055,4055,4055,4055,4055,4055,4055,4055,4055,4055,4055,
4055,4055,4055,4055,4055,4055,4055,4055,4055,4055,4055,4055,4055,4055,4055,4055,
4055,4055,4055,4055,4055,4055,4055,4055,4055,4055,4055,4055,4055,4055,4055,4055
</chunk>
   <chunk x="64" y="0" width="16" height="16">
0,0,0,0,0,0,0,0,0,0,0,0,0,0,0,0,
4051,4051,4051,4051,4051,4051,4051,4051,4051,4051,4051,4051,4051,4051,4051,4051,
0,0,0,0,0,0,0,0,0,0,0,0,0,0,0,0,
0,0,0,0,0,0,0,0,0,0,0,0,0,0,0,0,
0,0,0,0,0,0,0,0,0,0,0,0,0,0,0,0,
0,0,0,0,0,0,0,0,0,0,0,0,0,0,0,0,
4051,4051,4051,4051,4051,4051,4051,4051,4051,4051,4051,4051,4051,4051,4051,4051,
4051,4051,4051,4051,4051,4051,4051,4051,4051,4051,4051,4051,4051,4051,4051,4051,
4055,4055,4055,4055,4055,4055,4055,4055,4055,4055,4055,4055,4055,4055,4055,4055,
4055,4055,4055,4055,4055,4055,4055,4055,4055,4055,4055,4055,4055,4055,4055,4055,
4055,4055,4055,4055,4055,4055,4055,4055,4055,4055,4055,4055,4055,4055,4055,4055,
4055,4055,4055,4055,4055,4055,4055,4055,4055,4055,4055,4055,4055,4055,4055,4055,
4055,4055,4055,4055,4055,4055,4055,4055,4055,4055,4055,4055,4055,4055,4055,4055,
4055,4055,4055,4055,4055,4055,4055,4055,4055,4055,4055,4055,4055,4055,4055,4055,
4055,4055,4055,4055,4055,4055,4055,4055,4055,4055,4055,4055,4055,4055,4055,4055,
4055,4055,4055,4055,4055,4055,4055,4055,4055,4055,4055,4055,4055,4055,4055,4055
</chunk>
   <chunk x="80" y="0" width="16" height="16">
0,0,0,0,0,0,0,0,0,0,0,0,0,0,0,0,
4051,4051,4051,4051,4051,4051,4051,0,0,4051,4051,4051,4051,4051,4051,4051,
0,0,0,0,0,0,4051,4051,4051,4051,4051,4051,0,0,0,0,
0,0,0,0,0,0,0,0,0,4051,4051,4051,0,0,0,0,
0,0,0,0,0,0,0,0,0,0,4051,4051,0,0,0,0,
0,0,0,0,0,0,0,0,0,0,4051,4051,0,0,0,0,
4051,4051,0,0,0,0,0,0,0,0,0,4051,0,0,0,0,
4051,4051,0,0,0,0,0,0,0,0,0,4051,4051,4051,4051,4051,
4055,4051,0,0,0,0,0,0,0,0,0,0,0,0,0,0,
4055,4051,0,0,0,0,0,0,0,0,0,0,0,0,0,0,
4055,4051,4051,4051,4051,4051,4051,4051,4051,4051,4051,4051,4051,4051,4051,4051,
4055,4051,4051,4051,4051,4051,4051,4051,4051,4051,4051,4051,4051,4051,4051,4051,
4055,4055,4055,4055,4055,4055,4055,4055,4055,4055,4055,4055,4055,4055,4055,4055,
4055,4055,4055,4055,4055,4055,4055,4055,4055,4055,4055,4055,4055,4055,4055,4055,
4055,4055,4055,4055,4055,4055,4055,4055,4055,4055,4055,4055,4055,4055,4055,4055,
4055,4055,4055,4055,4055,4055,4055,4055,4055,4055,4055,4055,4055,4055,4055,4055
</chunk>
   <chunk x="96" y="0" width="16" height="16">
0,0,0,0,0,0,0,0,0,0,0,0,0,0,4051,0,
4051,4051,4051,4051,4051,4051,4051,4051,4051,4051,0,0,0,0,4051,0,
0,0,0,0,0,0,0,0,4051,4051,0,0,0,0,4051,0,
0,0,0,0,0,0,0,0,4051,4051,0,0,0,0,4051,0,
0,0,0,0,0,0,0,0,4051,4051,4051,4051,4051,0,4051,0,
0,0,0,0,0,0,0,0,4051,4051,0,0,4051,0,4051,0,
4051,4051,0,0,0,0,0,0,4051,0,0,0,4051,0,4051,0,
4091,4091,4051,4051,4051,4051,4051,4051,4051,0,0,0,4051,4051,4051,0,
4091,4091,0,0,0,0,0,0,0,0,0,0,0,0,4051,0,
4091,4091,0,0,0,0,0,0,0,0,0,0,0,0,4051,0,
4091,4091,4051,4051,4051,4051,4051,4051,4051,4051,4051,4051,4051,4051,4051,0,
4091,4091,4051,4051,4051,4051,4051,4051,4051,4051,4051,4051,4051,4051,4051,0,
4091,4091,4055,4055,4055,4055,4055,4055,4055,4055,4055,4055,4055,4055,4051,0,
4091,4091,4055,4055,4055,4055,4055,4055,4055,4055,4055,4055,4055,4055,4051,0,
4091,4091,4055,4055,4055,4055,4055,4055,4055,4055,4055,4055,4055,4055,4051,0,
4091,4091,4055,4055,4055,4055,4055,4055,4055,4055,4055,4055,4055,4055,4051,0
</chunk>
   <chunk x="-16" y="16" width="16" height="16">
0,0,0,0,0,0,0,0,0,0,0,0,0,0,0,4051,
0,0,0,0,0,0,0,0,0,0,0,0,0,0,0,4051,
0,0,0,0,0,0,0,0,0,0,0,0,0,0,0,4051,
0,0,0,0,0,0,0,0,0,0,0,0,0,0,0,4051,
0,0,0,0,0,0,0,0,0,0,0,0,0,0,0,4051,
0,0,0,0,0,0,0,0,0,0,0,0,0,0,0,4051,
0,0,0,0,0,0,0,0,0,0,0,0,0,0,0,4051,
0,0,0,0,0,0,0,0,0,0,0,0,0,0,0,4051,
0,0,0,0,0,0,0,0,0,0,0,0,0,0,0,4051,
0,0,0,0,0,0,0,0,0,0,0,0,0,0,0,0,
0,0,0,0,0,0,0,0,0,0,0,0,0,0,0,0,
0,0,0,0,0,0,0,0,0,0,0,0,0,0,0,0,
0,0,0,0,0,0,0,0,0,0,0,0,0,0,0,0,
0,0,0,0,0,0,0,0,0,0,0,0,0,0,0,0,
0,0,0,0,0,0,0,0,0,0,0,0,0,0,0,0,
0,0,0,0,0,0,0,0,0,0,0,0,0,0,0,0
</chunk>
   <chunk x="0" y="16" width="16" height="16">
4055,4055,4055,4055,4055,4055,4055,4055,4055,4055,4055,4055,4055,4055,4055,4055,
4055,4055,4055,4055,4055,4055,4055,4055,4055,4055,4055,4055,4055,4055,4055,4055,
4055,4055,4055,4055,4055,4055,4055,4055,4055,4055,4055,4055,4055,4055,4055,4055,
4055,4055,4055,4055,4055,4055,4055,4055,4055,4055,4055,4055,4055,4055,4055,4055,
4055,4055,4055,4055,4055,4055,4055,4055,4055,4055,4055,4055,4055,4055,4055,4055,
4055,4055,4055,4055,4055,4055,4055,4055,4055,4055,4055,4055,4055,4055,4055,4055,
4055,4055,4055,4055,4055,4055,4055,4055,4055,4055,4055,4055,4055,4055,4055,4055,
4055,4055,4055,4055,4055,4055,4055,4055,4055,4055,4055,4055,4055,4055,4055,4055,
4051,4051,4051,4051,4051,4055,4055,4055,4055,4055,4055,4055,4055,4055,4055,4055,
0,0,0,0,4051,4055,4055,4055,4055,4055,4055,4055,4055,4055,4055,4055,
4055,4055,4055,4055,4051,4055,4055,4055,4055,4055,4055,4055,4055,4055,4055,4055,
0,0,4055,4055,4051,4055,4055,4055,4055,4055,4055,4055,4055,4055,4055,4055,
0,0,4055,4055,4051,4055,4055,4055,4055,4055,4055,4055,4055,4055,4055,4055,
4055,4055,4055,4055,4051,4055,4055,4055,4055,4055,4055,4055,4055,4055,4055,4055,
0,0,4055,0,4051,4055,4055,4055,4055,4055,4055,4055,4055,4055,4055,4055,
0,0,4055,0,4051,4055,4055,4055,4055,4055,4055,4055,4055,4055,4055,4055
</chunk>
   <chunk x="16" y="16" width="16" height="16">
4055,4055,4055,4055,4055,4055,4055,4055,4055,4055,4055,4055,4055,4055,4055,4055,
4055,4055,4055,4055,4055,4055,4055,4055,4055,4055,4055,4055,4055,4055,4055,4055,
4055,4055,4055,4055,4055,4055,4055,4055,4055,4055,4055,4055,4055,4055,4055,4055,
4055,4055,4055,4055,4055,4055,4055,4055,4055,4055,4055,4055,4055,4055,4055,4055,
4055,4055,4055,4055,4055,4055,4055,4055,4055,4055,4055,4055,4055,4055,4055,4055,
4055,4055,4055,4055,4055,4055,4055,4055,4055,4055,4055,4055,4055,4055,4055,4055,
4055,4055,4055,4055,4055,4055,4055,4055,4055,4055,4055,4055,4055,4055,4055,4055,
4055,4055,4055,4055,4055,4055,4055,4055,4055,4055,4055,4055,4055,4055,4055,4055,
4055,4055,4055,4055,4055,4055,4055,4055,4055,4055,4055,4055,4055,4055,4055,4055,
4055,4055,4055,4055,4055,4055,4055,4055,4055,4055,4055,4055,4055,4055,4055,4055,
4055,4055,4055,4055,4055,4055,4055,4055,4055,4055,4055,4055,4055,4055,4055,4055,
4055,4055,4055,4055,4055,4055,4055,4055,4055,4055,4055,4055,4055,4055,4055,4055,
4055,4055,4055,4055,4055,4055,4055,4055,4055,4055,4055,4055,4055,4055,4055,4055,
4055,4055,4055,4055,4055,4055,4055,4055,4055,4055,4055,4055,4055,4055,4055,4055,
4055,4055,4055,4055,4055,4055,4055,4055,4055,4055,4055,4055,4055,4055,4055,4055,
4055,4055,4055,4055,4055,4055,4055,4055,4055,4055,4055,4055,4055,4055,4055,4055
</chunk>
   <chunk x="32" y="16" width="16" height="16">
4055,4055,4055,4055,4055,4055,4055,4055,4055,4055,4055,4055,4055,4055,4055,4055,
4055,4055,4055,4055,4055,4055,4055,4055,4055,4055,4055,4055,4055,4055,4055,4055,
4055,4055,4055,4055,4055,4055,4055,4055,4055,4055,4055,4055,4055,4055,4055,4055,
4055,4055,4055,4055,4055,4055,4055,4055,4055,4055,4055,4055,4055,4055,4055,4055,
4055,4055,4055,4055,4055,4055,4055,4055,4055,4055,4055,4055,4055,4055,4055,4055,
4055,4055,4055,4055,4055,4055,4055,4055,4055,4055,4055,4055,4055,4055,4055,4055,
4055,4055,4055,4055,4055,4055,4055,4055,4055,4055,4055,4055,4055,4055,4055,4055,
4055,4055,4055,4055,4055,4055,4055,4055,4055,4055,4055,4055,4055,4055,4055,4055,
4055,4055,4055,4055,4055,4055,4055,4055,4055,4055,4055,4055,4055,4055,4055,4055,
4055,4055,4055,4055,4055,4055,4055,4055,4055,4055,4055,4055,4055,4055,4055,4055,
4055,4055,4055,4055,4055,4055,4055,4055,4055,4055,4055,4055,4055,4055,4055,4055,
4055,4055,4055,4055,4055,4055,4055,4055,4055,4055,4055,4055,4055,4055,4055,4055,
4055,4055,4055,4055,4055,4055,4055,4055,4055,4055,4055,4055,4055,4055,4055,4055,
4055,4055,4055,4055,4055,4055,4055,4055,4055,4055,4055,4055,4055,4055,4055,4055,
4055,4055,4055,4055,4055,4055,4055,4055,4055,4055,4055,4055,4055,4055,4055,4055,
4055,4055,4055,4055,4055,4055,4055,4055,4055,4055,4055,4055,4055,4055,4055,4055
</chunk>
   <chunk x="48" y="16" width="16" height="16">
4055,4055,4055,4055,4055,4055,4055,4055,4055,4055,4055,4055,4055,4055,4055,4055,
4055,4055,4055,4055,4055,4055,4055,4055,4055,4055,4055,4055,4055,4055,4055,4055,
4055,4055,4055,4055,4055,4055,4055,4055,4055,4055,4055,4055,4055,4055,4055,4055,
4055,4055,4055,4055,4055,4055,4055,4055,4055,4055,4055,4055,4055,4055,4055,4055,
4055,4055,4055,4055,4055,4055,4055,4055,4055,4055,4055,4055,4055,4055,4055,4055,
4055,4055,4055,4055,4055,4055,4055,4055,4055,4055,4055,4055,4055,4055,4055,4055,
4055,4055,4055,4055,4055,4055,4055,4055,4055,4055,4055,4055,4055,4055,4055,4055,
4055,4055,4055,4055,4055,4055,4055,4055,4055,4055,4055,4055,4055,4055,4055,4055,
4055,4055,4055,4055,4055,4055,4055,4055,4055,4055,4055,4055,4055,4055,4055,4055,
4055,4055,4055,4055,4055,4055,4055,4055,4055,4055,4055,4055,4055,4055,4055,4055,
4055,4055,4055,4055,4055,4055,4055,4055,4055,4055,4055,4055,4055,4055,4055,4055,
4055,4055,4055,4055,4055,4055,4055,4055,4055,4055,4055,4055,4055,4055,4055,4055,
4055,4055,4055,4055,4055,4055,4055,4055,4055,4055,4055,4055,4055,4055,4055,4055,
4055,4055,4055,4055,4055,4055,4055,4055,4055,4055,4055,4055,4055,4055,4055,4055,
4055,4055,4055,4055,4055,4055,4055,4055,4055,4055,4055,4055,4055,4055,4055,4055,
4055,4055,4055,4055,4055,4055,4055,4055,4055,4055,4055,4055,4055,4055,4055,4055
</chunk>
   <chunk x="64" y="16" width="16" height="16">
4055,4055,4055,4055,4055,4055,4055,4055,4055,4055,4055,4055,4055,4055,4055,4055,
4055,4055,4055,4055,4055,4055,4055,4055,4055,4055,4055,4055,4055,4055,4055,4055,
4055,4055,4055,4055,4055,4055,4055,4055,4055,4055,4055,4055,4055,4055,4055,4055,
4055,4055,4055,4055,4055,4055,4055,4055,4055,4055,4055,4055,4055,4055,4055,4055,
4055,4055,4055,4055,4055,4055,4055,4055,4055,4055,4055,4055,4055,4055,4055,4055,
4055,4055,4055,4055,4055,4055,4055,4055,4055,4055,4055,4055,4055,4055,4055,4055,
4055,4055,4055,4055,4055,4055,4055,4055,4055,4055,4055,4055,4055,4055,4055,4055,
4055,4055,4055,4055,4055,4055,4055,4055,4055,4055,4055,4055,4055,4055,4055,4055,
4055,4055,4055,4055,4055,4055,4055,4055,4055,4055,4055,4055,4055,4055,4055,4055,
4055,4055,4055,4055,4055,4055,4055,4055,4055,4055,4055,4055,4055,4055,4055,4055,
4055,4055,4055,4055,4055,4055,4055,4055,4055,4055,4055,4055,4055,4055,4055,4055,
4055,4055,4055,4055,4055,4055,4055,4055,4055,4055,4055,4055,4055,4055,4055,4055,
4055,4055,4055,4055,4055,4055,4055,4055,4055,4055,4055,4055,4055,4055,4055,4055,
4055,4055,4055,4055,4055,4055,4055,4055,4055,4055,4055,4055,4055,4055,4055,4055,
4055,4055,4055,4055,4055,4055,4055,4055,4055,4055,4055,4055,4055,4055,4055,4055,
4055,4055,4055,4055,4055,4055,4055,4055,4055,4055,4055,4055,4055,4055,4055,4055
</chunk>
   <chunk x="80" y="16" width="16" height="16">
4055,4055,4055,4055,4055,4055,4055,4055,4055,4055,4055,4055,4055,4055,4055,4055,
4055,4055,4055,4055,4055,4055,4055,4055,4055,4055,4055,4055,4055,4055,4055,4055,
4055,4055,4055,4055,4055,4055,4055,4055,4055,4055,4055,4055,4055,4055,4055,4055,
4055,4055,4055,4055,4055,4055,4055,4055,4055,4055,4055,4055,4055,4055,4055,4055,
4055,4055,4055,4055,4055,4055,4055,4055,4055,4055,4055,4055,4055,4055,4055,4055,
4055,4055,4055,4055,4055,4055,4055,4055,4055,4055,4055,4055,4055,4055,4055,4055,
4055,4055,4055,4055,4055,4055,4055,4055,4055,4055,4055,4055,4055,4055,4055,4055,
4055,4055,4055,4055,4055,4055,4055,4055,4055,4055,4055,4055,4055,4055,4055,4055,
4055,4055,4055,4055,4055,4055,4055,4055,4055,4055,4055,4055,4055,4055,4055,4055,
4055,4055,4055,4055,4055,4055,4055,4055,4055,4055,4055,4055,4055,4055,4055,4055,
4055,4055,4055,4055,4055,4055,4055,4055,4055,4055,4055,4055,4055,4055,4055,4055,
4055,4055,4055,4055,4055,4055,4055,4055,4055,4055,4055,4055,4055,4055,4055,4055,
4055,4055,4055,4055,4055,4055,4055,4055,4055,4055,4055,4055,4055,4055,4055,4055,
4055,4055,4055,4055,4055,4055,4055,4055,4055,4055,4055,4055,4055,4055,4055,4055,
4055,4055,4055,4055,4055,4055,4055,4055,4055,4055,4055,4055,4055,4055,4055,4055,
4055,4055,4055,4055,4055,4055,4055,4055,4055,4055,4055,4055,4055,4055,4055,4055
</chunk>
   <chunk x="96" y="16" width="16" height="16">
4091,4091,4055,4055,4055,4055,4055,4055,4055,4055,4055,4055,4055,4055,4051,0,
4091,4091,4055,4055,4055,4055,4055,4055,4055,4055,4055,4055,4055,4055,4051,0,
4091,4091,4055,4055,4055,4055,4055,4055,4055,4055,4055,4055,4055,4055,4051,4051,
4091,4091,4091,4091,4091,4091,4091,4091,4091,4091,4091,4091,4091,4091,0,0,
4091,4091,4091,4091,4091,4091,4091,4091,4091,4091,4091,4091,4091,4091,0,0,
4055,4055,4055,4055,4055,4055,4055,4055,4055,4055,4055,4055,4055,4055,4051,4051,
4055,4055,4055,4055,4055,4055,4055,4055,4055,4055,4055,4055,4055,4055,4051,0,
4055,4055,4055,4055,4055,4055,4055,4055,4055,4055,4055,4055,4055,4055,4051,0,
4055,4055,4055,4055,4055,4055,4055,4055,4055,4055,4055,4055,4055,4055,4051,0,
4055,4055,4055,4055,4055,4055,4055,4055,4055,4055,4051,4051,4051,4051,0,0,
4055,4055,4055,4055,4055,4055,4055,4055,4055,4055,4051,0,4055,0,0,0,
4055,4055,4055,4055,4055,4055,4055,4055,4055,4055,4051,0,4055,0,0,0,
4055,4055,4055,4055,4055,4055,4055,4055,4055,4055,4051,0,4055,0,0,0,
4055,4055,4055,4055,4055,4055,4055,4055,4055,4055,4051,4055,4055,4055,0,0,
4055,4055,4055,4055,4055,4055,4055,4055,4055,4055,4051,4055,4055,4055,0,0,
4055,4055,4055,4055,4055,4055,4055,4055,4055,4055,4051,4055,4055,4055,0,0
</chunk>
   <chunk x="112" y="16" width="16" height="16">
0,0,0,0,0,0,0,0,0,0,0,0,0,0,0,0,
0,0,0,0,0,0,0,0,0,0,0,0,0,0,0,0,
4051,0,0,0,0,0,0,0,0,0,0,0,0,0,0,0,
4051,0,0,0,0,0,0,0,0,0,0,0,0,0,0,0,
4051,0,0,0,0,0,0,0,0,0,0,0,0,0,0,0,
4051,0,0,0,0,0,0,0,0,0,0,0,0,0,0,0,
0,0,0,0,0,0,0,0,0,0,0,0,0,0,0,0,
0,0,0,0,0,0,0,0,0,0,0,0,0,0,0,0,
0,0,0,0,0,0,0,0,0,0,0,0,0,0,0,0,
0,0,0,0,0,0,0,0,0,0,0,0,0,0,0,0,
0,0,0,0,0,0,0,0,0,0,0,0,0,0,0,0,
0,0,0,0,0,0,0,0,0,0,0,0,0,0,0,0,
0,0,0,0,0,0,0,0,0,0,0,0,0,0,0,0,
0,0,0,0,0,0,0,0,0,0,0,0,0,0,0,0,
0,0,0,0,0,0,0,0,0,0,0,0,0,0,0,0,
0,0,0,0,0,0,0,0,0,0,0,0,0,0,0,0
</chunk>
   <chunk x="0" y="32" width="16" height="16">
4055,4055,4055,0,4051,4055,4055,4055,4055,4055,4055,4055,4055,4055,4055,4055,
4055,4055,4055,4055,4051,4055,4055,4055,4055,4055,4055,4055,4055,4055,4055,4055,
0,0,4055,0,4051,4055,4055,4055,4055,4055,4055,4055,4055,4055,4055,4055,
0,0,4055,0,4051,4055,4055,4055,4055,4055,4055,4055,4055,4055,4055,4055,
0,0,4055,0,4051,4055,4055,4055,4055,4055,4055,4055,4055,4055,4055,4055,
4055,4055,4055,0,4051,4055,4055,4055,4055,4055,4055,4055,4055,4055,4055,4055,
4055,4055,4055,4055,4051,4055,4055,4055,4055,4055,4055,4055,4055,4055,4055,4055,
4055,4055,4055,4055,4051,4055,4055,4055,4055,4055,4055,4055,4055,4055,4055,4055,
0,0,0,4055,4051,4055,4055,4055,4055,4055,4055,4055,4055,4055,4055,4055,
0,0,4055,4055,4051,4055,4055,4055,4055,4055,4055,4055,4055,4055,4055,4055,
4055,4055,4055,4055,4051,4055,4055,4055,4055,4055,4055,4055,4055,4055,4055,4055,
4055,4055,4055,0,4051,4055,4055,4055,4055,4055,4055,4055,4055,4055,4055,4055,
4055,4055,4055,0,4051,4055,4055,4055,4055,4055,4055,4055,4055,4055,4055,4055,
4055,4055,0,0,4051,4055,4055,4055,4055,4055,4055,4055,4055,4055,4055,4055,
4055,0,0,0,4051,4055,4055,4055,4055,4055,4055,4055,4055,4055,4055,4055,
4055,0,0,0,4051,4055,4055,4055,4055,4055,4055,4055,4055,4055,4055,4055
</chunk>
   <chunk x="16" y="32" width="16" height="16">
4055,4055,4055,4055,4055,4055,4055,4055,4055,4055,4055,4055,4055,4055,4055,4055,
4055,4055,4055,4055,4055,4055,4055,4055,4055,4055,4055,4055,4055,4055,4055,4055,
4055,4055,4055,4055,4055,4055,4055,4055,4055,4055,4055,4055,4055,4055,4055,4055,
4055,4055,4055,4055,4055,4055,4055,4055,4055,4055,4055,4055,4055,4055,4055,4055,
4055,4055,4055,4055,4055,4055,4055,4055,4055,4055,4055,4055,4055,4055,4055,4055,
4055,4055,4055,4055,4055,4055,4055,4055,4055,4055,4055,4055,4055,4055,4055,4055,
4055,4055,4055,4055,4055,4055,4055,4055,4055,4055,4055,4055,4055,4055,4055,4055,
4055,4055,4055,4055,4055,4055,4055,4055,4055,4055,4055,4055,4055,4055,4055,4055,
4055,4055,4055,4055,4055,4055,4055,4055,4055,4055,4055,4055,4055,4055,4055,4055,
4055,4055,4055,4055,4055,4055,4055,4055,4055,4055,4055,4055,4055,4055,4055,4055,
4055,4055,4055,4055,4055,4055,4055,4055,4055,4055,4055,4055,4055,4055,4055,4055,
4055,4055,4055,4055,4055,4055,4055,4055,4055,4055,4055,4055,4055,4055,4055,4055,
4055,4055,4055,4055,4055,4055,4055,4055,4055,4055,4055,4055,4055,4055,4055,4055,
4055,4055,4055,4055,4055,4055,4055,4055,4055,4055,4055,4055,4055,4055,4055,4055,
4055,4055,4055,4055,4055,4055,4055,4055,4055,4055,4055,4055,4055,4055,4055,4055,
4055,4055,4055,4055,4055,4055,4055,4055,4055,4055,4055,4055,4055,4055,4055,4055
</chunk>
   <chunk x="32" y="32" width="16" height="16">
4055,4055,4055,4055,4055,4055,4055,4055,4055,4055,4055,4055,4055,4055,4055,4055,
4055,4055,4055,4055,4055,4055,4055,4055,4055,4055,4055,4055,4055,4055,4055,4055,
4055,4055,4055,4055,4055,4055,4055,4055,4055,4055,4055,4055,4055,4055,4055,4055,
4055,4055,4055,4055,4055,4055,4055,4055,4055,4055,4055,4055,4055,4055,4055,4055,
4055,4055,4055,4055,4055,4055,4055,4055,4055,4055,4055,4055,4055,4055,4055,4055,
4055,4055,4055,4055,4055,4055,4055,4055,4055,4055,4055,4055,4055,4055,4055,4055,
4055,4055,4055,4055,4055,4055,4055,4055,4055,4055,4055,4055,4055,4055,4055,4055,
4055,4055,4055,4055,4055,4055,4055,4055,4055,4055,4055,4055,4055,4055,4055,4055,
4055,4055,4055,4055,4055,4055,4055,4055,4055,4055,4055,4055,4055,4055,4055,4055,
4055,4055,4055,4055,4055,4055,4055,4055,4055,4055,4055,4055,4055,4055,4055,4055,
4055,4055,4055,4055,4055,4055,4055,4055,4055,4055,4055,4055,4055,4055,4055,4055,
4055,4055,4055,4055,4055,4055,4055,4055,4055,4055,4055,4055,4055,4055,4055,4055,
4055,4055,4055,4055,4055,4055,4055,4055,4055,4055,4055,4055,4055,4055,4055,4055,
4055,4055,4055,4055,4055,4055,4055,4055,4055,4055,4055,4055,4055,4055,4055,4055,
4055,4055,4055,4055,4055,4055,4055,4055,4055,4055,4055,4055,4055,4055,4055,4055,
4055,4055,4055,4055,4055,4055,4055,4055,4055,4055,4055,4055,4055,4055,4055,4055
</chunk>
   <chunk x="48" y="32" width="16" height="16">
4055,4055,4055,4055,4055,4055,4055,4055,4055,4055,4055,4055,4055,4055,4055,4055,
4055,4055,4055,4055,4055,4055,4055,4055,4055,4055,4055,4055,4055,4055,4055,4055,
4055,4055,4055,4055,4055,4055,4055,4055,4055,4055,4055,4055,4055,4055,4055,4055,
4055,4055,4055,4055,4055,4055,4055,4055,4055,4055,4055,4055,4055,4055,4055,4055,
4055,4055,4055,4055,4055,4055,4055,4055,4055,4055,4055,4055,4055,4055,4055,4055,
4055,4055,4055,4055,4055,4055,4055,4055,4055,4055,4055,4055,4055,4055,4055,4055,
4055,4055,4055,4055,4055,4055,4055,4055,4055,4055,4055,4055,4055,4055,4055,4055,
4055,4055,4055,4055,4055,4055,4055,4055,4055,4055,4055,4055,4055,4055,4055,4055,
4055,4055,4055,4055,4055,4055,4055,4055,4055,4055,4055,4055,4055,4055,4055,4055,
4055,4055,4055,4055,4055,4055,4055,4055,4055,4055,4055,4055,4055,4055,4055,4055,
4055,4055,4055,4055,4055,4055,4055,4055,4055,4055,4055,4055,4055,4055,4055,4055,
4055,4055,4055,4055,4055,4055,4055,4055,4055,4055,4055,4055,4055,4055,4055,4055,
4055,4055,4055,4055,4055,4055,4055,4055,4055,4055,4055,4055,4055,4055,4055,4055,
4055,4055,4055,4055,4055,4055,4055,4055,4055,4055,4055,4055,4055,4055,4055,4055,
4055,4055,4055,4055,4055,4055,4055,4055,4055,4055,4055,4055,4055,4055,4055,4055,
4055,4055,4055,4055,4055,4055,4055,4055,4055,4055,4055,4055,4055,4055,4055,4055
</chunk>
   <chunk x="64" y="32" width="16" height="16">
4055,4055,4055,4055,4055,4055,4055,4055,4055,4055,4055,4055,4055,4055,4055,4055,
4055,4055,4055,4055,4055,4055,4055,4055,4055,4055,4055,4055,4055,4055,4055,4055,
4055,4055,4055,4055,4055,4055,4055,4055,4055,4055,4055,4055,4055,4055,4055,4055,
4055,4055,4055,4055,4055,4055,4055,4055,4055,4055,4055,4055,4055,4055,4055,4055,
4055,4055,4055,4055,4055,4055,4055,4055,4055,4055,4055,4055,4055,4055,4055,4055,
4055,4055,4055,4055,4055,4055,4055,4055,4055,4055,4055,4055,4055,4055,4055,4055,
4055,4055,4055,4055,4055,4055,4055,4055,4055,4055,4055,4055,4055,4055,4055,4055,
4055,4055,4055,4055,4055,4055,4055,4055,4055,4055,4055,4055,4055,4055,4055,4055,
4055,4055,4055,4055,4055,4055,4055,4055,4055,4055,4055,4055,4055,4055,4055,4055,
4055,4055,4055,4055,4055,4055,4055,4055,4055,4055,4055,4055,4055,4055,4055,4055,
4055,4055,4055,4055,4055,4055,4055,4055,4055,4055,4055,4055,4055,4055,4055,4055,
4055,4055,4055,4055,4055,4055,4055,4055,4055,4055,4055,4055,4055,4055,4055,4055,
4055,4055,4055,4055,4055,4055,4055,4055,4055,4055,4055,4055,4055,4055,4055,4055,
4055,4055,4055,4055,4055,4055,4055,4055,4055,4055,4055,4055,4055,4055,4055,4055,
4055,4055,4055,4055,4055,4055,4055,4055,4055,4055,4055,4055,4055,4055,4055,4055,
4055,4055,4055,4055,4055,4055,4055,4055,4055,4055,4055,4055,4055,4055,4055,4055
</chunk>
   <chunk x="80" y="32" width="16" height="16">
4055,4055,4055,4055,4055,4055,4055,4055,4055,4055,4055,4055,4055,4055,4055,4055,
4055,4055,4055,4055,4055,4055,4055,4055,4055,4055,4055,4055,4055,4055,4055,4055,
4055,4055,4055,4055,4055,4055,4055,4055,4055,4055,4055,4055,4055,4055,4055,4055,
4055,4055,4055,4055,4055,4055,4055,4055,4055,4055,4055,4055,4055,4055,4055,4055,
4055,4055,4055,4055,4055,4055,4055,4055,4055,4055,4055,4055,4055,4055,4055,4055,
4055,4055,4055,4055,4055,4055,4055,4055,4055,4055,4055,4055,4055,4055,4055,4055,
4055,4055,4055,4055,4055,4055,4055,4055,4055,4055,4055,4055,4055,4055,4055,4055,
4055,4055,4055,4055,4055,4055,4055,4055,4055,4055,4055,4055,4055,4055,4055,4055,
4055,4055,4055,4055,4055,4055,4055,4055,4055,4055,4055,4055,4055,4055,4055,4055,
4055,4055,4055,4055,4055,4055,4055,4055,4055,4055,4055,4055,4055,4055,4055,4055,
4055,4055,4055,4055,4055,4055,4055,4055,4055,4055,4055,4055,4055,4055,4055,4055,
4055,4055,4055,4055,4055,4055,4055,4055,4055,4055,4055,4055,4055,4055,4055,4055,
4055,4055,4055,4055,4055,4055,4055,4055,4055,4055,4055,4055,4055,4055,4055,4055,
4055,4055,4055,4055,4055,4055,4055,4055,4055,4055,4055,4055,4055,4055,4055,4055,
4055,4055,4055,4055,4055,4055,4055,4055,4055,4055,4055,4055,4055,4055,4055,4055,
4055,4055,4055,4055,4055,4055,4055,4055,4055,4055,4055,4055,4055,4055,4055,4055
</chunk>
   <chunk x="96" y="32" width="16" height="16">
4055,4055,4055,4055,4055,4055,4055,4055,4055,4055,4051,0,0,4055,0,0,
4055,4055,4055,4055,4055,4055,4055,4055,4055,4055,4051,0,0,4055,0,0,
4055,4055,4055,4055,4055,4055,4055,4055,4055,4055,4051,0,0,4055,0,0,
4055,4055,4055,4055,4055,4055,4055,4055,4055,4055,4051,0,4055,4055,0,0,
4055,4055,4055,4055,4055,4055,4055,4055,4055,4055,4051,0,4055,4055,0,0,
4055,4055,4055,4055,4055,4055,4055,4055,4055,4055,4051,0,4055,4055,0,0,
4055,4055,4055,4055,4055,4055,4055,4055,4055,4055,4051,0,0,4055,0,0,
4055,4055,4055,4055,4055,4055,4055,4055,4055,4055,4051,4055,4055,4055,0,0,
4055,4055,4055,4055,4055,4055,4055,4055,4055,4055,4051,0,4055,0,0,0,
4055,4055,4055,4055,4055,4055,4055,4055,4055,4055,4051,0,4055,0,0,0,
4055,4055,4055,4055,4055,4055,4055,4055,4055,4055,4051,0,4055,0,0,0,
4055,4055,4055,4055,4055,4055,4055,4055,4055,4055,4051,4055,4055,4055,0,0,
4055,4055,4055,4055,4055,4055,4055,4055,4055,4055,4051,4055,4055,4055,0,0,
4055,4055,4055,4055,4055,4055,4055,4055,4055,4055,4051,4055,4055,4055,0,0,
4055,4055,4055,4055,4055,4055,4055,4055,4055,4055,4051,4055,0,0,0,0,
4055,4055,4055,4055,4055,4055,4055,4055,4055,4055,4051,4055,0,0,0,0
</chunk>
   <chunk x="0" y="48" width="16" height="16">
4055,4055,4055,0,4051,4055,4055,4055,4055,4055,4055,4055,4055,4055,4055,4055,
0,0,4055,0,4051,4055,4055,4055,4055,4055,4055,4055,4055,4055,4055,4055,
0,0,4055,0,4051,4055,4055,4055,4055,4055,4055,4055,4055,4055,4055,4055,
0,0,4055,0,4051,4055,4055,4055,4055,4055,4055,4055,4055,4055,4055,4055,
4055,4055,4055,0,4051,4055,4055,4055,4055,4055,4055,4055,4055,4055,4055,4055,
4055,4055,0,0,4051,4055,4055,4055,4055,4055,4055,4055,4055,4055,4055,4055,
4055,4055,0,0,4051,4055,4055,4055,4055,4055,4055,4055,4055,4055,4055,4055,
4055,4055,0,0,4051,4055,4055,4055,4055,4055,4055,4055,4055,4055,4055,4055,
4055,0,4055,0,4051,4055,4055,4055,4055,4055,4055,4055,4055,4055,4055,4055,
0,0,4055,0,4051,4055,4055,4055,4055,4055,4055,4055,4055,4055,4055,4055,
0,4055,4055,4055,4051,4051,4051,4051,4051,4051,4051,4051,4051,4051,4051,4051,
4055,4055,0,0,0,0,0,0,0,0,0,0,0,0,0,0,
0,0,0,0,0,0,0,0,0,0,0,0,0,0,0,0,
0,0,0,0,0,0,0,0,0,0,0,0,0,0,0,0,
0,0,0,0,0,0,0,0,0,4055,4055,4055,4055,4055,4055,4055,
0,0,4055,0,0,0,0,0,0,4055,4055,4055,4055,4055,4055,4055
</chunk>
   <chunk x="16" y="48" width="16" height="16">
4055,4055,4055,4055,4055,4055,4055,4055,4055,4055,4055,4055,4055,4055,4055,4055,
4055,4055,4055,4055,4055,4055,4055,4055,4055,4055,4055,4055,4055,4055,4055,4055,
4055,4055,4055,4055,4055,4055,4055,4055,4055,4055,4055,4055,4055,4055,4055,4055,
4055,4055,4055,4055,4055,4055,4055,4055,4055,4055,4055,4055,4055,4055,4055,4055,
4055,4055,4055,4055,4055,4055,4055,4055,4055,4055,4055,4055,4055,4055,4055,4055,
4055,4055,4055,4055,4055,4055,4055,4055,4055,4055,4055,4055,4055,4055,4055,4055,
4055,4055,4055,4055,4055,4055,4055,4055,4055,4055,4055,4055,4055,4055,4055,4055,
4055,4055,4055,4055,4055,4055,4055,4055,4055,4055,4055,4055,4055,4055,4055,4055,
4055,4055,4055,4055,4055,4055,4055,4055,4055,4055,4055,4055,4055,4055,4055,4055,
4055,4055,4055,4055,4055,4055,4055,4055,4055,4055,4055,4055,4055,4055,4055,4055,
4051,4051,4051,4051,4051,4051,4051,4051,4051,4051,4051,4051,4051,4051,4051,4051,
0,0,0,0,0,0,0,0,0,0,0,0,0,0,0,0,
0,0,0,0,0,0,0,0,0,0,0,0,0,0,0,0,
0,0,0,0,4055,4055,4055,0,0,0,0,0,0,0,0,0,
0,0,0,0,4055,4055,4055,0,0,0,0,0,0,4055,4055,0,
0,0,0,0,4055,4055,4055,0,0,4055,4055,4055,0,4055,4055,0
</chunk>
   <chunk x="32" y="48" width="16" height="16">
4055,4055,4055,4055,4055,4055,4055,4055,4055,4055,4055,4055,4055,4055,4055,4055,
4055,4055,4055,4055,4055,4055,4055,4055,4055,4055,4055,4055,4055,4055,4055,4055,
4055,4055,4055,4055,4055,4055,4055,4055,4055,4055,4055,4055,4055,4055,4055,4055,
4055,4055,4055,4055,4055,4055,4055,4055,4055,4055,4055,4055,4055,4055,4055,4055,
4055,4055,4055,4055,4055,4055,4055,4055,4055,4055,4055,4055,4055,4055,4055,4055,
4055,4055,4055,4055,4055,4055,4055,4055,4055,4055,4055,4055,4055,4055,4055,4055,
4055,4055,4055,4055,4055,4055,4055,4055,4055,4055,4055,4055,4055,4055,4055,4055,
4055,4055,4055,4055,4055,4055,4055,4055,4055,4055,4055,4055,4055,4055,4055,4055,
4055,4055,4055,4055,4055,4055,4055,4055,4055,4055,4055,4055,4055,4055,4055,4055,
4055,4055,4055,4055,4055,4055,4055,4055,4055,4055,4055,4055,4055,4055,4055,4055,
4051,4051,4051,4051,4051,4051,4091,4091,4091,4091,4091,4091,4091,4091,4091,4091,
0,0,0,0,0,4051,4091,4091,4091,4091,4091,4091,4091,4091,4091,4091,
0,0,4055,4055,0,4051,4091,4091,4091,4091,4091,4091,4091,4091,4091,4091,
0,0,4055,4055,0,4051,4051,4051,4051,4091,4091,4091,4091,4091,4091,4091,
0,0,0,0,0,4055,4055,0,4051,4091,4091,4091,4091,4091,4091,4091,
0,0,0,0,0,4055,4055,0,4051,4091,4091,4091,4091,4091,4091,4091
</chunk>
   <chunk x="48" y="48" width="16" height="16">
4055,4055,4055,4055,4055,4055,4055,4055,4055,4055,4055,4055,4055,4055,4055,4055,
4055,4055,4055,4055,4055,4055,4055,4055,4055,4055,4055,4055,4055,4055,4055,4055,
4055,4055,4055,4055,4055,4055,4055,4055,4055,4055,4055,4055,4055,4055,4055,4055,
4055,4055,4055,4055,4055,4055,4055,4055,4055,4055,4055,4055,4055,4055,4055,4055,
4055,4055,4055,4055,4055,4055,4055,4055,4055,4055,4055,4055,4055,4055,4055,4055,
4055,4055,4055,4055,4055,4055,4055,4055,4055,4055,4055,4055,4055,4055,4055,4055,
4055,4055,4055,4055,4055,4055,4055,4055,4055,4055,4055,4055,4055,4055,4055,4055,
4055,4055,4055,4055,4055,4055,4055,4055,4055,4055,4055,4055,4055,4055,4055,4055,
4055,4055,4055,4055,4055,4055,4055,4055,4055,4055,4055,4055,4055,4055,4055,4055,
4055,4055,4055,4055,4055,4055,4055,4055,4055,4055,4055,4055,4055,4055,4055,4055,
4091,4091,4091,4055,4055,4055,4055,4055,4055,4055,4055,4055,4055,4055,4055,4055,
4091,4091,4091,4055,4055,4055,4055,4055,4055,4055,4055,4055,4055,4055,4055,4055,
4091,4091,4091,4051,4051,4051,4051,4051,4051,4051,4051,4051,4051,4051,4051,4051,
4091,4091,4091,4051,0,0,0,0,0,0,0,0,0,0,0,0,
4091,4091,4091,4051,0,4055,4055,4055,4055,0,0,0,0,0,0,0,
4091,4091,4091,4051,0,4055,4055,4055,4055,0,0,0,0,0,0,0
</chunk>
   <chunk x="64" y="48" width="16" height="16">
4055,4055,4055,4055,4055,4055,4055,4055,4055,4055,4055,4055,4055,4055,4055,4055,
4055,4055,4055,4055,4055,4055,4055,4055,4055,4055,4055,4055,4055,4055,4055,4055,
4055,4055,4055,4055,4055,4055,4055,4055,4055,4055,4055,4055,4055,4055,4055,4055,
4055,4055,4055,4055,4055,4055,4055,4055,4055,4055,4055,4055,4055,4055,4055,4055,
4055,4055,4055,4055,4055,4055,4055,4055,4055,4055,4055,4055,4055,4055,4055,4055,
4055,4055,4055,4055,4055,4055,4055,4055,4055,4055,4055,4055,4055,4055,4055,4055,
4055,4055,4055,4055,4055,4055,4055,4055,4055,4055,4055,4055,4055,4055,4055,4055,
4055,4055,4055,4055,4055,4055,4055,4055,4055,4055,4055,4055,4055,4055,4055,4055,
4055,4055,4055,4055,4055,4055,4055,4055,4055,4055,4055,4055,4055,4055,4055,4055,
4055,4055,4055,4055,4055,4055,4055,4055,4055,4055,4055,4055,4055,4055,4055,4055,
4055,4055,4055,4055,4055,4055,4055,4055,4055,4051,4051,4051,4051,4055,4055,4055,
4055,4055,4055,4055,4055,4055,4055,4055,4055,4051,4051,4051,4051,4055,4055,4055,
4051,4051,4051,4051,4051,4051,4051,4051,4051,4051,4051,4051,4051,4051,4051,4051,
0,4055,4055,0,0,0,0,4055,4055,4055,4055,4055,4055,0,0,0,
0,4055,4055,0,0,0,0,0,0,0,0,4055,4055,0,0,0,
0,4055,4055,0,0,0,0,0,0,0,0,4055,4055,0,0,0
</chunk>
   <chunk x="80" y="48" width="16" height="16">
4055,4055,4055,4055,4055,4055,4055,4055,4055,4055,4055,4055,4055,4055,4055,4055,
4055,4055,4055,4055,4055,4055,4055,4055,4055,4055,4055,4055,4055,4055,4055,4055,
4055,4055,4055,4055,4055,4055,4055,4055,4055,4055,4055,4055,4055,4055,4055,4055,
4055,4055,4055,4055,4055,4055,4055,4055,4055,4055,4055,4055,4055,4055,4055,4055,
4055,4055,4055,4055,4055,4055,4055,4055,4055,4055,4055,4055,4055,4055,4055,4055,
4055,4055,4055,4055,4055,4055,4055,4055,4055,4055,4055,4055,4055,4055,4055,4055,
4055,4055,4055,4055,4055,4055,4055,4055,4055,4055,4055,4055,4055,4055,4055,4055,
4055,4055,4055,4055,4055,4055,4055,4055,4055,4055,4055,4055,4055,4055,4055,4055,
4055,4055,4055,4055,4055,4055,4055,4055,4055,4055,4055,4055,4055,4055,4055,4055,
4055,4055,4055,4055,4055,4055,4055,4055,4055,4055,4055,4055,4055,4055,4055,4055,
4055,4055,4055,4055,4055,4055,4055,4055,4055,4055,4055,4055,4055,4055,4055,4055,
4055,4055,4055,4055,4055,4055,4055,4055,4055,4055,4055,4055,4055,4055,4055,4055,
4051,4051,4051,4051,4051,4051,4051,4051,4051,4051,4051,4051,4051,4051,4051,4051,
0,0,4055,4055,0,0,4055,4055,4055,4055,0,0,0,0,0,0,
0,0,4055,4055,0,0,4055,4055,4055,4055,0,0,0,0,4055,4055,
0,0,4055,4055,0,0,4055,4055,4055,4055,0,0,0,0,4055,4055
</chunk>
   <chunk x="96" y="48" width="16" height="16">
4055,4055,4055,4055,4055,4055,4055,4055,4055,4055,4051,4055,0,0,0,0,
4055,4055,4055,4055,4055,4055,4055,4055,4055,4055,4051,4055,4055,0,0,0,
4055,4055,4055,4055,4055,4055,4055,4055,4055,4055,4051,0,4055,0,0,0,
4055,4055,4055,4055,4055,4055,4055,4055,4055,4055,4051,0,4055,4055,0,0,
4055,4055,4055,4055,4055,4055,4055,4055,4055,4055,4051,0,4055,4055,0,0,
4055,4055,4055,4055,4051,4051,4051,4051,4051,4051,4051,0,4055,4055,0,0,
4055,4055,4055,4055,4051,0,0,0,0,0,0,0,0,4055,0,0,
4055,4055,4055,4055,4051,0,0,4055,4055,0,4055,4055,0,0,0,0,
4055,4055,4055,4055,4051,0,0,4055,4055,0,4055,4055,0,0,0,0,
4055,4055,4055,4055,4051,0,0,0,0,0,0,0,0,0,0,0,
4055,4055,4055,4055,4051,0,0,0,0,4055,4055,4055,0,0,0,0,
4055,4055,4055,4055,4051,0,0,0,0,4055,4055,4055,0,0,0,0,
4051,4051,4051,4051,4051,0,0,0,0,0,0,0,0,0,0,0,
0,0,0,0,0,0,0,0,0,0,0,0,0,0,0,0,
4055,4055,4055,4055,4055,0,0,0,4055,4055,4055,4055,4055,4055,0,0,
4055,4055,4055,4055,4055,0,0,0,4055,4055,4055,4055,4055,4055,0,0
</chunk>
   <chunk x="32" y="64" width="16" height="16">
0,0,0,0,0,0,0,0,4051,0,0,0,0,0,0,0,
0,0,0,0,0,0,0,0,4051,0,0,0,0,0,0,0,
0,0,0,0,0,0,0,0,4051,4051,4051,4051,4051,4051,4051,4051,
0,0,0,0,0,0,0,0,0,0,0,0,0,0,0,0,
0,0,0,0,0,0,0,0,0,0,0,0,0,0,0,0,
0,0,0,0,0,0,0,0,0,0,0,0,0,0,0,0,
0,0,0,0,0,0,0,0,0,0,0,0,0,0,0,0,
0,0,0,0,0,0,0,0,0,0,0,0,0,0,0,0,
0,0,0,0,0,0,0,0,0,0,0,0,0,0,0,0,
0,0,0,0,0,0,0,0,0,0,0,0,0,0,0,0,
0,0,0,0,0,0,0,0,0,0,0,0,0,0,0,0,
0,0,0,0,0,0,0,0,0,0,0,0,0,0,0,0,
0,0,0,0,0,0,0,0,0,0,0,0,0,0,0,0,
0,0,0,0,0,0,0,0,0,0,0,0,0,0,0,0,
0,0,0,0,0,0,0,0,0,0,0,0,0,0,0,0,
0,0,0,0,0,0,0,0,0,0,0,0,0,0,0,0
</chunk>
   <chunk x="48" y="64" width="16" height="16">
0,0,0,4051,0,0,0,0,0,0,0,0,0,0,0,0,
0,0,0,4051,0,0,0,0,0,0,0,0,0,0,0,0,
4051,4051,4051,4051,0,0,0,0,0,0,0,0,0,0,0,0,
0,0,0,0,0,0,0,0,0,0,0,0,0,0,0,0,
0,0,0,0,0,0,0,0,0,0,0,0,0,0,0,0,
0,0,0,0,0,0,0,0,0,0,0,0,0,0,0,0,
0,0,0,0,0,0,0,0,0,0,0,0,0,0,0,0,
0,0,0,0,0,0,0,0,0,0,0,0,0,0,0,0,
0,0,0,0,0,0,0,0,0,0,0,0,0,0,0,0,
0,0,0,0,0,0,0,0,0,0,0,0,0,0,0,0,
0,0,0,0,0,0,0,0,0,0,0,0,0,0,0,0,
0,0,0,0,0,0,0,0,0,0,0,0,0,0,0,0,
0,0,0,0,0,0,0,0,0,0,0,0,0,0,0,0,
0,0,0,0,0,0,0,0,0,0,0,0,0,0,0,0,
0,0,0,0,0,0,0,0,0,0,0,0,0,0,0,0,
0,0,0,0,0,0,0,0,0,0,0,0,0,0,0,0
</chunk>
  </data>
 </layer>
</map>
